<?xml version="1.0" encoding="UTF-8"?>
<map version="1.11" tiledversion="1.12.1" orientation="orthogonal" renderorder="right-down" width="16" height="24" tilewidth="40" tileheight="40" infinite="0" backgroundcolor="#32b9ff" nextlayerid="18" nextobjectid="69">
 <editorsettings>
  <export target="data.lua" format="lua"/>
 </editorsettings>
 <properties>
  <property name="border" value="leaves"/>
  <property name="light" type="bool" value="true"/>
  <property name="music" value="deltarune/mus_birdnoise"/>
 </properties>
 <tileset firstgid="1" source="../../../../../tilesets/hometown.tsx"/>
 <tileset firstgid="287" source="../../../../../tilesets/hometownshadowsobjects.tsx"/>
 <objectgroup color="#ff0000" id="9" name="objects_bg">
  <object id="11" name="ebott_bgclouds" x="0" y="0"/>
 </objectgroup>
 <imagelayer id="8" name="bg" offsetx="0" offsety="40" parallaxy="0.9">
  <image source="../../../../../../../assets/sprites/world/maps/ebott/overview.png" width="640" height="320"/>
 </imagelayer>
 <layer id="2" name="Tile Layer 2" width="16" height="24">
  <data encoding="csv">
0,0,0,0,0,0,0,0,0,0,0,0,0,0,0,0,
0,0,0,0,0,0,0,0,0,0,0,0,0,0,0,0,
0,0,0,0,0,0,0,0,0,0,0,0,0,0,0,0,
0,0,0,0,0,0,0,0,0,0,0,0,0,0,0,0,
0,0,0,0,0,0,0,0,0,0,0,0,0,0,0,0,
0,0,0,0,0,0,0,0,0,0,0,0,0,0,0,0,
0,0,0,0,0,0,0,0,0,0,0,0,0,0,0,0,
0,0,51,261,261,261,261,261,261,261,261,261,261,53,0,0,
51,261,272,37,272,272,272,272,272,272,272,272,39,272,261,53,
272,272,272,272,272,272,272,272,272,272,272,272,272,272,272,272,
272,272,272,272,272,272,272,272,272,42,272,272,272,272,272,272,
60,272,272,272,272,39,272,272,272,272,272,272,272,272,272,60,
0,272,272,272,272,272,272,272,272,272,272,272,272,272,272,0,
0,272,272,272,272,272,272,272,272,272,272,272,272,272,0,0,
0,0,0,0,0,0,272,272,272,272,0,0,0,0,0,0,
0,0,0,0,0,0,272,272,272,272,0,0,0,0,0,0,
0,0,0,0,0,0,272,272,272,272,0,0,0,0,0,0,
0,0,0,0,0,0,272,272,272,272,0,0,0,0,0,0,
0,0,0,0,0,0,272,272,272,272,0,0,0,0,0,0,
0,0,0,0,0,0,272,272,272,272,0,0,0,0,0,0,
0,0,0,0,0,0,272,272,272,272,0,0,0,0,0,0,
0,0,0,0,0,0,272,272,272,272,0,0,0,0,0,0,
0,0,0,0,0,0,272,272,272,272,0,0,0,0,0,0,
0,0,0,0,0,0,272,272,272,272,0,0,0,0,0,0
</data>
 </layer>
 <layer id="3" name="Tile Layer 3" width="16" height="24">
  <data encoding="csv">
0,0,0,0,0,0,0,0,0,0,0,0,0,0,0,0,
0,0,0,0,0,0,0,0,0,0,0,0,0,0,0,0,
0,0,0,0,0,0,0,0,0,0,0,0,0,0,0,0,
0,0,0,0,0,0,0,0,0,0,0,0,0,0,0,0,
0,0,0,0,0,0,0,0,0,0,0,0,0,0,0,0,
0,0,0,0,0,0,0,0,0,0,0,0,0,0,0,0,
0,0,0,0,0,0,0,0,0,0,0,0,0,0,0,0,
0,0,0,0,0,49,0,0,0,0,0,0,0,0,0,0,
0,49,0,0,0,0,0,0,0,0,0,0,0,0,0,0,
0,0,0,0,0,0,0,0,0,0,0,38,0,0,0,0,
0,0,0,0,0,0,0,0,0,0,0,0,0,0,0,0,
0,0,0,0,0,0,0,0,0,0,0,0,0,0,0,0,
0,0,0,0,0,2147483686,0,0,0,0,0,0,0,0,0,0,
0,0,0,0,0,0,0,0,0,0,0,0,0,0,0,0,
0,0,0,0,0,0,0,0,0,0,0,0,0,0,0,0,
0,0,0,0,0,0,46,46,46,46,0,0,0,0,0,0,
0,0,0,0,0,0,57,57,57,57,0,0,0,0,0,0,
0,0,0,0,0,0,57,43,57,57,0,0,0,0,0,0,
0,0,0,0,0,0,57,57,57,57,0,0,0,0,0,0,
0,0,0,0,0,0,57,57,57,57,0,0,0,0,0,0,
0,0,0,0,0,0,57,57,57,57,0,0,0,0,0,0,
0,0,0,0,0,0,57,57,43,57,0,0,0,0,0,0,
0,0,0,0,0,0,57,57,57,57,0,0,0,0,0,0,
0,0,0,0,0,0,57,57,57,57,0,0,0,0,0,0
</data>
 </layer>
 <layer id="1" name="Tile Layer 1" width="16" height="24">
  <data encoding="csv">
0,0,0,0,0,0,0,0,0,0,0,0,0,0,0,0,
0,0,0,0,0,0,0,0,0,0,0,0,0,0,0,0,
0,0,0,0,0,0,0,0,0,0,0,0,0,0,0,0,
0,0,0,0,0,0,0,0,0,0,0,0,0,0,0,0,
0,0,0,0,0,0,0,0,0,0,0,0,0,0,0,0,
0,0,0,0,0,0,0,0,0,0,0,0,0,0,0,0,
0,0,0,0,0,0,0,0,0,0,0,0,0,0,0,0,
0,0,0,0,0,0,0,0,0,0,0,0,0,0,0,0,
0,0,0,0,0,0,0,0,0,0,0,0,0,0,0,0,
0,0,0,0,0,0,0,0,0,0,0,0,0,0,0,0,
0,0,0,0,0,0,0,0,0,0,0,0,0,0,0,0,
0,0,0,0,0,0,0,0,0,0,0,0,0,0,0,0,
151,0,0,0,0,0,0,0,0,0,0,0,0,0,0,151,
151,152,151,0,0,0,0,0,0,0,0,0,0,151,150,151,
151,152,151,152,0,0,0,0,0,0,0,151,150,151,150,151,
151,152,151,152,151,152,153,0,0,149,150,151,150,151,150,151,
151,152,151,152,151,152,153,0,0,149,150,151,150,151,150,151,
151,152,151,152,151,152,153,0,0,149,150,151,150,151,150,151,
151,152,151,152,151,152,153,0,0,149,150,151,150,151,150,151,
151,152,151,152,151,152,153,0,0,149,150,151,150,151,150,151,
151,152,151,152,151,152,153,0,0,149,150,151,150,151,150,151,
151,152,151,152,151,152,153,0,0,149,150,151,150,151,150,151,
151,152,151,152,151,152,153,0,0,149,150,151,150,151,150,151,
151,152,151,152,151,152,153,0,0,149,150,151,150,151,150,151
</data>
 </layer>
 <objectgroup color="#0000ff" id="4" name="collision">
  <object id="1" x="0" y="600" width="280" height="360"/>
  <object id="2" x="360" y="600" width="280" height="360"/>
  <object id="3" x="0" y="360">
   <polygon points="0,0 40,-40 80,-40 120,-80 520,-80 560,-40 600,-40 640,0 640,-120 0,-120"/>
  </object>
  <object id="4" x="400" y="600">
   <polygon points="0,0 240,-160 240,0"/>
  </object>
  <object id="5" x="240" y="600">
   <polygon points="0,0 -240,-160 -240,0"/>
  </object>
  <object id="6" x="-40" y="360" width="40" height="80"/>
  <object id="7" x="640" y="360" width="40" height="80"/>
 </objectgroup>
 <objectgroup color="#ff00ff" id="5" name="objects_party">
  <object id="9" name="transition" x="280" y="940" width="80" height="40">
   <properties>
    <property name="facing" value="down"/>
    <property name="map" value="light/hometown/secret_path"/>
    <property name="marker" value="entry_up"/>
   </properties>
  </object>
  <object id="13" name="interactable" x="200" y="240" width="240" height="40">
   <properties>
    <property name="cutscene" value="ebott.lookout"/>
   </properties>
  </object>
 </objectgroup>
 <objectgroup color="#7f00ff" id="6" name="markers">
  <object id="10" name="entry_pre_ebott" x="320" y="920">
   <point/>
  </object>
 </objectgroup>
 <layer id="7" name="Tile Layer 4" width="16" height="24">
  <data encoding="csv">
0,0,0,0,0,0,0,0,0,0,0,0,0,0,0,0,
0,0,0,0,0,0,0,0,0,0,0,0,0,0,0,0,
0,0,0,0,0,0,0,0,0,0,0,0,0,0,0,0,
0,0,0,0,0,0,0,0,0,0,0,0,0,0,0,0,
0,0,0,0,0,0,0,0,0,0,0,0,0,0,0,0,
0,0,0,0,0,0,0,0,0,0,0,0,0,0,0,0,
0,0,0,0,0,0,0,0,0,0,0,0,0,0,0,0,
0,0,0,0,0,0,0,0,0,0,0,0,0,0,0,0,
0,0,0,0,0,0,0,0,0,0,0,0,0,0,0,0,
0,0,0,0,0,0,0,0,0,0,0,0,0,0,0,0,
181,182,183,0,0,0,0,0,0,0,0,0,0,177,178,179,
192,193,194,182,183,0,0,0,0,0,0,177,178,188,189,190,
151,152,192,193,194,182,183,0,0,177,178,188,189,190,150,151,
0,0,151,152,192,193,194,0,0,188,189,190,150,151,0,0,
0,0,0,0,151,152,153,0,0,149,150,151,0,0,0,0,
0,0,0,0,0,0,0,0,0,0,0,0,0,0,0,0,
0,0,0,0,0,0,0,0,0,0,0,0,0,0,0,0,
0,0,0,0,0,0,0,0,0,0,0,0,0,0,0,0,
0,0,0,0,0,0,0,0,0,0,0,0,0,0,0,0,
0,0,0,0,0,0,0,0,0,0,0,0,0,0,0,0,
0,0,0,0,0,0,0,0,0,0,0,0,0,0,0,0,
0,0,0,0,0,0,0,0,0,0,0,0,0,0,0,0,
0,0,0,0,0,0,0,0,0,0,0,0,0,0,0,0,
0,0,0,0,0,0,0,0,0,0,0,0,0,0,0,0
</data>
 </layer>
 <group id="12" name="shadows">
  <objectgroup id="14" name="objects_shadows_evening_cutout" visible="0"/>
  <objectgroup id="15" name="objects_shadows_morning_cutout" visible="0">
   <object id="16" gid="334" x="164" y="640" width="110" height="120"/>
   <object id="17" gid="334" x="84" y="600" width="110" height="120"/>
   <object id="18" gid="334" x="4" y="560" width="110" height="120"/>
   <object id="19" gid="334" x="-76" y="520" width="110" height="120"/>
   <object id="20" gid="334" x="364" y="640" width="110" height="120"/>
   <object id="21" gid="334" x="444" y="600" width="110" height="120"/>
   <object id="22" gid="334" x="524" y="560" width="110" height="120"/>
   <object id="23" gid="334" x="604" y="520" width="110" height="120"/>
   <object id="24" gid="324" x="360" y="600" width="120" height="40"/>
   <object id="28" gid="323" x="234" y="668" width="40" height="40"/>
   <object id="29" gid="323" x="234" y="628" width="40" height="40"/>
   <object id="34" gid="331" x="360" y="620" width="120" height="40"/>
   <object id="35" gid="331" x="360" y="660" width="120" height="40"/>
   <object id="36" gid="331" x="360" y="700" width="120" height="40"/>
   <object id="37" gid="331" x="360" y="740" width="120" height="40"/>
   <object id="38" gid="331" x="360" y="780" width="120" height="40"/>
   <object id="39" gid="331" x="360" y="820" width="120" height="40"/>
   <object id="40" gid="331" x="360" y="860" width="120" height="40"/>
   <object id="41" gid="331" x="360" y="900" width="120" height="40"/>
   <object id="42" gid="331" x="360" y="940" width="120" height="40"/>
   <object id="44" gid="323" x="234" y="588" width="40" height="40"/>
   <object id="53" gid="331" x="360" y="980" width="120" height="40"/>
   <object id="54" gid="332" x="460" y="720" width="130" height="200"/>
   <object id="55" gid="332" x="560" y="720" width="80" height="240"/>
   <object id="68" gid="332" x="210" y="630" width="32" height="32"/>
  </objectgroup>
  <objectgroup id="17" name="objects_shadows_evening" visible="0"/>
  <objectgroup id="16" name="objects_shadows_morning" visible="0">
   <object id="56" gid="346" x="376" y="764" width="62.5685" height="225.194" rotation="-45"/>
   <object id="57" gid="346" x="280" y="960" width="100" height="280"/>
   <object id="66" gid="346" x="280" y="680" width="40" height="40"/>
   <object id="58" gid="349" x="266" y="700" width="14" height="40"/>
   <object id="59" gid="349" x="266" y="740" width="14" height="40"/>
   <object id="60" gid="349" x="266" y="780" width="14" height="40"/>
   <object id="61" gid="349" x="266" y="820" width="14" height="40"/>
   <object id="62" gid="349" x="266" y="860" width="14" height="40"/>
   <object id="63" gid="349" x="266" y="900" width="14" height="40"/>
   <object id="64" gid="349" x="266" y="940" width="14" height="40"/>
   <object id="65" gid="349" x="266" y="980" width="14" height="40"/>
  </objectgroup>
  <layer id="11" name="tiles_shadows_evening" width="16" height="24" visible="0">
   <data encoding="csv">
0,0,0,0,0,0,0,0,0,0,0,0,0,0,0,0,
0,0,0,0,0,0,0,0,0,0,0,0,0,0,0,0,
0,0,0,0,0,0,0,0,0,0,0,0,0,0,0,0,
0,0,0,0,0,0,0,0,0,0,0,0,0,0,0,0,
0,0,0,0,0,0,0,0,0,0,0,0,0,0,0,0,
0,0,0,0,0,0,0,0,0,0,0,0,0,0,0,0,
0,0,0,0,0,0,0,0,0,0,0,0,0,0,0,0,
0,0,0,0,0,0,0,0,0,0,0,0,0,0,0,0,
0,0,0,0,0,0,0,0,0,0,0,0,0,0,0,0,
0,0,0,0,0,0,0,0,0,0,0,0,0,0,0,0,
0,0,0,0,0,0,0,0,0,0,0,0,0,0,0,0,
0,0,0,0,0,0,0,0,0,0,0,0,0,0,0,0,
0,0,0,0,0,0,0,0,0,0,0,0,0,0,0,0,
0,0,0,0,0,0,0,0,0,0,0,0,0,0,0,0,
0,0,0,0,0,0,0,0,0,0,0,0,0,0,0,0,
0,0,0,0,0,0,0,0,0,0,0,0,0,0,0,0,
0,0,0,0,0,0,0,0,0,0,0,0,0,0,0,0,
0,0,0,0,0,0,0,0,0,0,0,0,0,0,0,0,
0,0,0,0,0,0,0,0,0,0,0,0,0,0,0,0,
0,0,0,0,0,0,0,0,0,0,0,0,0,0,0,0,
0,0,0,0,0,0,0,0,0,0,0,0,0,0,0,0,
0,0,0,0,0,0,0,0,0,0,0,0,0,0,0,0,
0,0,0,0,0,0,0,0,0,0,0,0,0,0,0,0,
0,0,0,0,0,0,0,0,0,0,0,0,0,0,0,0
</data>
  </layer>
  <layer id="13" name="tiles_shadows_morning" width="16" height="24" visible="0">
   <data encoding="csv">
0,0,0,0,0,0,0,0,0,0,0,0,0,0,0,0,
0,0,0,0,0,0,0,0,0,0,0,0,0,0,0,0,
0,0,0,0,0,0,0,0,0,0,0,0,0,0,0,0,
0,0,0,0,0,0,0,0,0,0,0,0,0,0,0,0,
0,0,0,0,0,0,0,0,0,0,0,0,0,0,0,0,
0,0,0,0,0,0,0,0,0,0,0,0,0,0,0,0,
0,0,0,0,0,0,0,0,0,0,0,0,0,0,0,0,
0,0,0,0,0,0,0,0,0,0,0,0,0,0,0,0,
0,0,0,0,0,0,0,0,0,0,0,0,0,0,0,0,
0,0,0,0,0,0,0,0,0,0,0,0,0,0,0,0,
0,0,0,0,0,0,0,0,0,0,0,0,0,0,0,0,
0,0,0,0,0,0,0,0,0,0,0,0,0,0,0,0,
0,0,0,0,0,0,0,0,0,0,0,0,0,0,0,0,
0,0,0,0,0,0,0,0,0,0,0,0,0,0,0,0,
0,0,0,0,0,0,0,0,0,0,0,0,0,0,0,0,
0,0,0,0,0,0,0,0,0,0,0,0,0,0,0,0,
0,0,0,0,0,0,0,0,0,0,0,0,0,0,0,0,
0,0,0,0,0,0,0,0,0,0,0,0,0,0,0,0,
0,0,0,0,0,0,0,0,0,0,0,0,0,0,0,0,
0,0,0,0,0,0,0,0,0,0,0,0,0,0,0,0,
0,0,0,0,0,0,0,0,0,0,0,0,0,0,0,0,
0,0,0,0,0,0,0,0,0,0,0,0,0,0,0,0,
0,0,0,0,0,0,0,0,0,0,0,0,0,0,0,0,
0,0,0,0,0,0,0,0,0,0,0,0,0,0,0,0
</data>
  </layer>
 </group>
 <objectgroup color="#00aa00" id="10" name="objects_overlay">
  <object id="14" name="hometowndaynight" x="0" y="0">
   <point/>
  </object>
 </objectgroup>
</map>
