<?xml version="1.0" encoding="UTF-8"?>
<map version="1.11" tiledversion="1.12.1" orientation="orthogonal" renderorder="right-down" width="16" height="62" tilewidth="40" tileheight="40" infinite="0" nextlayerid="30" nextobjectid="492">
 <editorsettings>
  <export target="data.lua" format="lua"/>
 </editorsettings>
 <properties>
  <property name="border" value="leaves"/>
  <property name="light" type="bool" value="true"/>
  <property name="music" value="deltarune/mus_birdnoise"/>
 </properties>
 <tileset firstgid="1" source="../../../../tilesets/hometown.tsx"/>
 <tileset firstgid="287" source="../../../../tilesets/hometownshadows.tsx"/>
 <tileset firstgid="315" source="../../../../tilesets/hometownshadowsobjects.tsx"/>
 <tileset firstgid="395" source="../../../../tilesets/hometowneveningtreeobjects.tsx"/>
 <group id="6" name="main">
  <layer id="1" name="tile" width="16" height="62">
   <data encoding="csv">
57,57,57,57,57,57,57,57,57,57,57,57,57,57,57,57,
57,57,57,57,57,57,57,57,57,57,57,57,57,57,57,57,
57,57,57,57,57,57,57,57,57,57,57,57,57,57,57,57,
57,57,57,57,57,57,57,57,57,57,57,57,57,57,57,57,
57,57,57,57,57,57,57,57,57,57,57,57,57,57,57,57,
57,57,57,57,57,57,57,57,57,57,57,57,57,57,57,57,
57,57,57,57,57,57,57,57,57,57,57,57,57,57,57,57,
57,57,57,57,57,57,57,57,57,57,57,57,57,57,57,57,
57,57,57,57,57,57,57,57,57,57,57,57,57,57,57,57,
57,57,57,57,57,57,57,57,57,57,57,57,57,57,57,57,
57,57,57,57,57,57,57,57,57,57,57,57,57,57,57,57,
57,57,57,57,57,57,57,57,57,57,57,57,57,57,57,57,
57,57,57,57,57,57,57,57,57,57,57,57,57,57,57,57,
57,57,57,57,57,57,57,57,57,57,57,57,57,57,57,57,
57,57,57,57,57,57,57,57,57,57,57,57,57,57,57,57,
57,57,57,57,57,57,57,57,57,57,57,57,57,57,57,57,
57,57,57,57,57,57,57,57,57,57,57,57,57,57,57,57,
57,57,57,57,57,57,57,57,57,57,57,57,57,57,57,57,
57,57,57,57,57,57,57,57,57,57,57,57,57,57,57,57,
57,57,57,57,57,57,57,57,57,57,57,57,57,57,57,57,
57,57,57,57,57,57,57,57,57,57,57,57,57,57,57,57,
57,57,57,57,57,57,57,57,57,57,57,57,57,57,57,57,
57,57,57,57,57,57,57,57,57,57,57,57,57,57,57,57,
57,57,57,57,57,57,57,57,57,57,57,57,57,57,57,57,
57,57,57,57,57,57,57,57,57,57,57,57,57,57,57,57,
57,57,57,57,57,57,57,57,57,57,57,57,57,57,57,57,
57,57,57,57,57,57,57,57,57,57,57,57,57,57,57,57,
57,57,57,57,57,57,57,57,57,57,57,57,57,57,57,57,
57,57,57,57,57,57,57,57,57,57,57,57,57,57,57,57,
57,57,57,57,57,57,57,57,57,57,57,57,57,57,57,57,
57,57,57,57,57,57,57,57,57,57,57,57,57,57,57,57,
57,57,57,57,57,57,57,57,57,57,57,57,57,57,57,57,
57,57,57,57,57,57,57,57,57,57,57,57,57,57,57,57,
57,57,57,57,57,57,57,57,57,57,57,57,57,57,57,57,
57,57,57,57,57,57,57,57,57,57,57,57,57,57,57,57,
57,57,57,57,57,57,57,57,57,57,57,57,57,57,57,57,
57,57,57,57,57,57,57,57,57,57,57,57,57,57,57,57,
57,57,57,57,57,57,57,57,57,57,57,57,57,57,57,57,
57,57,57,57,57,57,57,57,57,57,57,57,57,57,57,57,
57,57,57,57,57,57,57,57,57,57,57,57,57,57,57,57,
57,57,57,57,57,57,57,57,57,57,57,57,57,57,57,57,
57,57,57,57,57,57,57,57,57,57,57,57,57,57,57,57,
57,57,57,57,57,57,57,57,57,57,57,57,57,57,57,57,
57,57,57,57,57,57,57,57,57,57,57,57,57,57,57,57,
57,57,57,57,57,57,57,57,57,57,57,57,57,57,57,57,
57,57,57,57,57,57,57,57,57,57,57,57,57,57,57,57,
57,57,57,57,57,57,57,57,57,57,57,57,57,57,57,57,
57,57,57,57,57,57,57,57,57,57,57,57,57,57,57,57,
57,57,57,57,57,57,57,57,57,57,57,57,57,57,57,57,
57,57,57,57,57,57,57,57,57,57,57,57,57,57,57,57,
57,57,57,57,57,57,57,57,57,57,57,57,57,57,57,57,
57,57,57,57,57,57,57,57,57,57,57,57,57,57,57,57,
57,0,0,0,0,0,0,0,0,0,0,0,0,57,57,57,
57,0,0,0,0,0,0,0,0,0,0,0,0,0,0,57,
57,0,0,0,0,0,0,0,0,0,0,0,0,0,0,57,
57,0,0,0,0,0,0,0,0,0,0,0,0,0,0,57,
57,0,0,0,0,0,0,0,0,0,0,0,0,0,0,57,
57,0,0,0,0,0,0,0,0,0,0,0,0,0,0,57,
57,0,0,0,0,0,0,0,0,0,0,0,0,0,0,57,
57,0,0,0,0,0,0,0,0,0,0,0,0,0,0,57,
57,57,57,57,57,57,57,57,57,57,57,57,57,57,57,57,
57,57,57,57,57,57,57,57,57,57,57,57,57,57,57,57
</data>
  </layer>
  <layer id="5" name="tile2" width="16" height="62">
   <data encoding="csv">
0,0,0,0,0,0,0,0,0,0,0,0,0,0,0,0,
0,0,0,0,0,0,0,0,0,0,0,0,0,0,0,0,
0,0,0,0,0,0,0,0,0,0,0,0,0,0,0,0,
0,0,0,0,0,0,0,0,0,0,0,0,0,0,0,0,
0,0,0,0,0,0,0,0,0,0,0,0,0,0,0,0,
0,0,0,0,0,0,0,0,0,0,0,0,0,0,0,0,
0,0,0,0,0,0,0,0,0,0,0,0,0,0,0,0,
0,0,0,0,0,0,0,0,0,0,0,0,0,0,0,0,
0,0,0,0,0,0,0,0,0,0,0,0,0,0,0,0,
0,0,0,0,0,0,0,0,0,0,0,0,0,0,0,0,
0,0,0,0,0,0,0,0,0,0,0,0,0,0,0,0,
0,0,0,0,0,0,0,0,0,0,0,0,0,0,0,0,
0,0,0,0,0,0,0,0,0,0,0,0,0,0,0,0,
0,0,0,0,0,0,0,0,0,0,0,0,0,0,0,0,
0,0,0,0,0,0,0,0,0,0,0,0,0,0,0,0,
0,0,0,0,0,0,0,0,0,0,0,0,0,0,0,0,
0,0,0,0,0,0,0,0,0,0,0,0,0,0,0,0,
0,0,0,0,0,0,0,0,0,0,0,0,0,0,0,0,
0,0,0,0,0,0,0,0,0,0,0,0,0,0,0,0,
0,0,0,0,0,0,0,0,0,0,0,0,0,0,0,0,
0,0,0,0,0,0,0,0,0,0,0,0,0,0,0,0,
0,0,0,0,0,0,0,0,0,0,0,0,0,0,0,0,
0,0,0,0,0,0,0,0,0,0,0,0,0,0,0,0,
0,0,0,0,0,0,0,0,0,0,0,0,0,0,0,0,
0,0,0,0,0,0,0,0,0,0,0,0,0,0,0,0,
0,0,0,0,0,0,0,0,0,0,0,0,0,0,0,0,
0,0,0,0,0,0,0,0,0,0,0,0,0,0,0,0,
0,0,0,0,0,0,0,0,0,0,0,0,0,0,0,0,
0,0,0,0,0,0,0,0,0,0,0,0,0,0,0,0,
0,0,0,0,0,0,0,0,0,0,0,0,0,0,0,0,
0,0,0,0,0,0,0,0,0,0,0,0,0,0,0,0,
0,0,0,0,0,0,0,0,0,0,0,0,0,0,0,0,
0,0,0,0,0,0,0,0,0,0,0,0,0,0,0,0,
0,0,0,0,0,0,0,0,0,0,0,0,0,0,0,0,
0,0,0,0,0,0,0,0,0,0,0,0,0,0,0,0,
0,0,0,0,0,0,0,0,0,0,0,0,0,0,0,0,
0,0,0,0,0,0,0,0,0,0,0,0,0,0,0,0,
0,0,0,0,0,0,0,0,0,0,0,0,0,0,0,0,
0,0,0,0,0,0,0,0,0,0,0,0,0,0,0,0,
0,0,0,0,0,0,0,0,0,0,0,0,0,0,0,0,
0,0,0,0,0,0,0,0,0,0,0,0,0,0,0,0,
0,0,0,0,0,0,0,0,0,0,0,0,0,0,0,0,
0,0,0,0,0,0,0,0,0,0,0,0,0,0,0,0,
0,0,0,0,0,0,0,0,0,0,0,0,0,0,0,0,
0,0,0,0,0,0,0,0,0,0,0,0,0,0,0,0,
0,0,0,0,0,0,0,0,0,0,0,0,0,0,0,0,
0,0,0,0,0,0,0,0,0,0,0,0,0,0,0,0,
0,0,0,0,0,0,0,0,0,0,0,0,0,0,0,0,
0,0,0,0,0,0,0,0,0,0,0,0,0,0,0,0,
0,0,0,0,0,0,0,0,0,0,0,0,0,0,0,0,
0,0,0,0,0,0,0,0,0,0,0,0,0,0,0,0,
0,155,0,0,0,0,0,0,0,0,0,0,0,0,175,0,
0,0,0,0,0,0,0,0,0,0,0,0,0,0,0,0,
0,0,0,0,0,0,0,0,0,0,0,0,0,0,0,0,
0,0,0,0,0,0,0,0,0,0,0,0,0,0,0,0,
0,0,0,0,0,0,0,0,0,0,0,0,0,0,0,0,
0,0,0,0,0,0,0,0,0,0,0,0,0,0,0,0,
0,0,0,0,0,0,0,0,0,0,0,0,0,0,0,0,
0,0,0,0,0,0,0,0,0,0,0,0,0,0,0,0,
0,0,0,0,0,0,0,0,0,0,0,0,0,0,0,0,
0,0,0,0,0,0,0,0,0,0,0,0,0,0,0,0,
0,0,0,0,0,0,0,0,0,0,0,0,0,0,0,0
</data>
  </layer>
  <imagelayer id="3" name="shelterground" offsetx="0" offsety="2064">
   <image source="../../../../../../assets/sprites/world/maps/hometown/shelterground.png" width="640" height="344"/>
  </imagelayer>
  <layer id="15" name="tree2" width="16" height="62">
   <data encoding="csv">
0,0,0,0,0,0,0,0,0,0,0,0,0,0,0,0,
0,0,0,0,0,0,0,0,0,0,0,0,0,0,0,0,
0,0,0,0,0,0,0,0,0,0,0,0,0,0,0,0,
0,0,0,0,0,0,0,0,0,0,0,0,0,0,0,0,
0,0,0,0,0,0,0,0,0,0,0,0,0,0,0,0,
0,0,0,0,0,0,0,0,0,0,0,0,0,0,0,0,
0,0,0,0,0,0,0,0,0,0,0,0,0,0,0,0,
0,0,0,0,0,0,0,0,0,0,0,0,0,0,0,0,
0,0,0,0,0,0,0,0,0,0,0,0,0,0,0,0,
0,0,0,0,0,0,0,0,0,0,0,0,0,0,0,0,
0,0,0,0,0,0,0,0,0,0,0,0,0,0,0,0,
0,0,0,0,0,0,0,0,0,0,0,0,0,0,0,0,
0,0,0,0,0,0,0,0,0,0,0,0,0,0,0,0,
0,0,0,0,0,0,0,0,0,0,0,0,0,0,0,0,
0,0,0,0,0,0,0,0,0,0,0,0,0,0,0,0,
0,0,0,0,0,0,0,0,0,0,0,0,0,0,0,0,
0,0,0,0,0,0,0,0,0,0,0,0,0,0,0,0,
0,0,0,0,0,0,0,0,0,0,0,0,0,0,0,0,
0,0,0,0,0,0,0,0,0,0,0,0,0,0,0,0,
0,0,0,0,0,0,0,0,0,0,0,0,0,0,0,0,
0,0,0,0,0,0,0,0,0,0,0,0,0,0,0,0,
0,0,0,0,0,0,0,0,0,0,0,0,0,0,0,0,
0,0,0,0,0,0,0,0,0,0,0,0,0,0,0,0,
0,0,0,0,0,0,0,0,0,0,0,0,0,0,0,0,
0,0,0,0,0,0,0,0,0,0,0,0,0,0,0,0,
0,0,0,0,0,0,0,0,0,0,0,0,0,0,0,0,
0,0,0,0,0,0,0,0,0,0,0,0,0,0,0,0,
0,0,0,0,0,0,0,0,0,0,0,0,0,0,0,0,
0,0,0,0,0,0,0,0,0,0,0,0,0,0,0,0,
0,0,0,0,0,0,0,0,0,0,0,0,0,0,0,0,
0,0,0,0,0,0,0,0,0,0,0,0,0,0,0,0,
0,0,0,0,0,0,0,0,0,0,0,0,0,0,0,0,
0,0,0,0,0,0,0,0,0,0,0,0,0,0,0,0,
0,0,0,0,0,0,0,0,0,0,0,0,0,0,0,0,
0,0,0,0,0,0,0,0,0,0,0,0,0,0,0,0,
0,0,0,0,0,0,0,0,0,0,0,0,0,0,0,0,
0,0,0,0,0,0,0,0,0,0,0,0,0,0,0,0,
0,0,0,0,0,0,0,0,0,0,0,0,0,0,0,0,
0,0,0,0,0,0,0,0,0,0,0,0,0,0,0,0,
0,0,0,0,0,0,0,0,0,0,0,0,0,0,0,0,
0,0,0,0,0,0,0,0,0,0,0,0,0,0,0,0,
0,0,0,0,0,0,0,0,0,0,0,0,0,0,0,0,
0,0,0,0,0,0,0,0,0,0,0,0,0,0,0,0,
0,0,0,0,0,0,0,0,0,0,0,0,0,0,0,0,
0,0,0,0,0,0,0,0,0,0,0,0,0,0,0,0,
0,0,0,0,0,0,0,0,0,0,0,0,0,0,0,0,
0,0,0,0,0,0,0,0,0,0,0,0,0,0,0,0,
0,0,0,0,0,0,0,0,0,0,0,0,0,0,0,0,
0,0,0,0,0,0,0,0,0,0,0,0,0,0,0,0,
0,0,0,0,0,0,0,0,0,0,0,0,0,0,0,0,
0,0,0,0,0,0,0,0,0,0,0,0,0,0,0,0,
0,0,0,0,0,0,0,0,0,0,0,0,0,0,0,0,
2147483850,0,0,0,0,0,0,0,0,0,0,0,0,0,0,2147483850,
0,0,0,0,0,0,0,0,0,0,0,0,0,0,0,0,
0,0,0,0,0,0,0,0,0,0,0,0,0,0,0,0,
0,0,0,0,0,0,0,0,0,0,0,0,0,0,0,0,
0,0,0,0,0,0,0,0,0,0,0,0,0,0,0,0,
0,0,0,0,0,0,0,0,0,0,0,0,0,0,0,0,
0,0,0,0,0,0,0,0,0,0,0,0,0,0,0,0,
0,0,0,0,0,0,0,0,0,0,0,0,0,0,0,0,
153,0,0,0,0,0,0,0,0,0,0,0,0,0,0,149,
0,0,0,0,0,0,0,0,0,0,0,0,0,0,0,0
</data>
  </layer>
  <layer id="4" name="tree" width="16" height="62">
   <data encoding="csv">
150,151,152,150,151,153,0,0,0,0,149,150,151,152,150,151,
150,151,152,150,151,153,0,0,0,0,149,150,151,152,150,151,
150,151,152,150,151,153,0,0,0,0,149,150,151,152,150,151,
150,151,152,150,151,153,0,0,0,0,149,150,151,152,150,151,
150,151,152,150,151,153,0,0,0,0,149,150,151,152,150,151,
150,151,152,150,151,153,0,0,0,0,149,150,151,152,150,151,
150,151,152,150,151,153,0,0,0,0,149,150,151,152,150,151,
150,151,152,150,151,153,0,0,0,0,149,150,151,152,150,151,
150,151,152,150,151,153,0,0,0,0,149,150,151,152,150,151,
150,151,152,150,151,153,0,0,0,0,149,150,151,152,150,151,
150,151,152,150,151,153,0,0,0,0,149,150,151,152,150,151,
150,151,152,150,151,153,0,0,0,0,149,150,151,152,150,151,
150,151,152,150,151,153,0,0,0,0,149,150,151,152,150,151,
150,151,152,150,151,153,0,0,0,0,149,150,151,152,150,151,
150,151,152,150,151,153,0,0,0,0,149,150,151,152,150,151,
150,151,152,150,151,153,0,0,0,0,149,150,151,152,150,151,
150,151,152,150,151,153,0,0,0,0,149,150,151,152,150,151,
150,151,152,150,151,153,0,0,0,0,149,150,151,152,150,151,
150,151,152,150,151,153,0,0,0,0,149,150,151,152,150,151,
150,151,152,150,151,153,0,0,0,0,149,150,151,152,150,151,
150,151,152,150,151,153,0,0,0,0,149,150,151,152,150,151,
150,151,152,150,151,153,0,0,0,0,149,150,151,152,150,151,
150,151,152,150,151,153,0,0,0,0,149,150,151,152,150,151,
150,151,152,150,151,153,0,0,0,0,149,150,151,152,150,151,
150,151,152,150,151,153,0,0,0,0,149,150,151,152,150,151,
150,151,152,150,151,153,0,0,0,0,149,150,151,152,150,151,
150,151,152,150,151,153,0,0,0,0,149,150,151,152,150,151,
150,151,152,150,151,153,0,0,0,0,149,150,151,152,150,151,
150,151,152,150,151,153,0,0,0,0,149,150,151,152,150,151,
150,151,152,150,151,153,0,0,0,0,149,150,151,152,150,151,
150,151,152,150,151,153,0,0,0,0,149,150,151,152,150,151,
150,151,152,150,151,153,0,0,0,0,149,150,151,152,150,151,
150,151,152,150,151,153,0,0,0,0,149,150,151,152,150,151,
150,151,152,150,151,153,0,0,0,0,149,150,151,152,150,151,
150,151,152,150,151,153,0,0,0,0,149,150,151,152,150,151,
150,151,152,150,151,153,0,0,0,0,149,150,151,152,150,151,
150,151,152,150,151,153,0,0,0,0,149,150,151,152,150,151,
150,151,152,150,151,153,0,0,0,0,149,150,151,152,150,151,
150,151,152,150,151,153,0,0,0,0,149,150,151,152,150,151,
150,151,152,150,151,153,0,0,0,0,149,150,151,152,150,151,
150,151,152,150,151,153,0,0,0,0,149,150,151,152,150,151,
150,151,152,150,151,153,0,0,0,0,149,150,151,152,150,151,
150,151,152,150,151,153,0,0,0,0,149,150,151,152,150,151,
150,151,152,150,151,153,0,0,0,0,149,150,151,152,150,151,
150,151,152,150,151,153,0,0,0,0,149,150,151,152,150,151,
150,151,152,150,151,153,0,0,0,0,149,150,151,152,150,151,
150,151,152,150,151,153,0,0,0,0,149,150,151,152,150,151,
150,151,152,150,151,153,0,0,0,0,149,150,151,152,150,151,
150,151,152,150,151,153,0,0,0,0,149,150,151,152,150,151,
150,151,152,150,191,164,0,0,0,0,199,2147483839,151,152,150,151,
151,151,200,201,202,175,0,0,0,0,210,2147483850,2147483849,2147483848,150,151,
161,164,211,212,213,0,0,0,0,0,0,2147483861,2147483860,2147483859,160,150,
153,175,0,0,0,0,0,0,0,0,0,0,0,0,210,149,
153,0,0,0,0,0,0,0,0,0,0,0,0,0,0,149,
153,0,0,0,0,0,0,0,0,0,0,0,0,0,0,149,
153,0,0,0,0,0,0,0,0,0,0,0,0,0,0,149,
153,0,0,0,0,0,0,0,0,0,0,0,0,0,0,149,
153,0,0,0,0,0,0,0,0,0,0,0,0,0,0,149,
153,0,0,0,0,0,0,0,0,0,0,0,0,0,0,149,
153,0,0,0,0,0,0,0,0,0,0,0,0,0,0,149,
139,0,0,0,0,0,0,0,0,0,0,0,0,0,0,140,
150,151,152,151,152,151,152,151,152,151,152,151,152,151,152,151
</data>
  </layer>
 </group>
 <objectgroup id="29" name="objects_evening_tree" visible="0">
  <object id="488" gid="434" x="0" y="2418" width="640" height="2418">
   <properties>
    <property name="overcast_fade" type="bool" value="true"/>
    <property name="sunset" type="int" value="1"/>
   </properties>
  </object>
 </objectgroup>
 <objectgroup color="#ff00ff" id="9" name="objects_party">
  <object id="21" name="transition" x="240" y="-40" width="160" height="40">
   <properties>
    <property name="facing" value="up"/>
    <property name="map" value="light/hometown/town_church"/>
    <property name="marker" value="entrysouth"/>
   </properties>
  </object>
  <object id="27" name="npc" x="296" y="2312" width="40" height="40">
   <properties>
    <property name="actor" value="shelter"/>
   </properties>
  </object>
  <object id="41" name="sheltersound" x="320" y="2320">
   <point/>
  </object>
  <object id="42" name="interactable" x="240" y="2280" width="160" height="40">
   <properties>
    <property name="cutscene" value="enterdark.shelter"/>
   </properties>
  </object>
  <object id="45" name="script" x="240" y="1000" width="160" height="40">
   <properties>
    <property name="cutscene" value="hometown_digi.call"/>
    <property name="flagcheck" value="!hometown_digicall"/>
    <property name="once" type="bool" value="false"/>
   </properties>
  </object>
  <object id="47" name="script" x="240" y="1200" width="160" height="40">
   <properties>
    <property name="cutscene" value="hometown_digi.wrongway_a"/>
    <property name="flagcheck" value="!digi_complete"/>
    <property name="once" type="bool" value="false"/>
   </properties>
  </object>
 </objectgroup>
 <objectgroup color="#ff00ff" id="10" name="markers">
  <object id="20" name="entrynorth" x="320" y="40">
   <point/>
  </object>
  <object id="43" name="spawn" x="320" y="2350">
   <point/>
  </object>
 </objectgroup>
 <layer id="11" name="treeup" width="16" height="62">
  <data encoding="csv">
0,0,0,0,0,0,0,0,0,0,0,0,0,0,0,0,
0,0,0,0,0,0,0,0,0,0,0,0,0,0,0,0,
0,0,0,0,0,0,0,0,0,0,0,0,0,0,0,0,
0,0,0,0,0,0,0,0,0,0,0,0,0,0,0,0,
0,0,0,0,0,0,0,0,0,0,0,0,0,0,0,0,
0,0,0,0,0,0,0,0,0,0,0,0,0,0,0,0,
0,0,0,0,0,0,0,0,0,0,0,0,0,0,0,0,
0,0,0,0,0,0,0,0,0,0,0,0,0,0,0,0,
0,0,0,0,0,0,0,0,0,0,0,0,0,0,0,0,
0,0,0,0,0,0,0,0,0,0,0,0,0,0,0,0,
0,0,0,0,0,0,0,0,0,0,0,0,0,0,0,0,
0,0,0,0,0,0,0,0,0,0,0,0,0,0,0,0,
0,0,0,0,0,0,0,0,0,0,0,0,0,0,0,0,
0,0,0,0,0,0,0,0,0,0,0,0,0,0,0,0,
0,0,0,0,0,0,0,0,0,0,0,0,0,0,0,0,
0,0,0,0,0,0,0,0,0,0,0,0,0,0,0,0,
0,0,0,0,0,0,0,0,0,0,0,0,0,0,0,0,
0,0,0,0,0,0,0,0,0,0,0,0,0,0,0,0,
0,0,0,0,0,0,0,0,0,0,0,0,0,0,0,0,
0,0,0,0,0,0,0,0,0,0,0,0,0,0,0,0,
0,0,0,0,0,0,0,0,0,0,0,0,0,0,0,0,
0,0,0,0,0,0,0,0,0,0,0,0,0,0,0,0,
0,0,0,0,0,0,0,0,0,0,0,0,0,0,0,0,
0,0,0,0,0,0,0,0,0,0,0,0,0,0,0,0,
0,0,0,0,0,0,0,0,0,0,0,0,0,0,0,0,
0,0,0,0,0,0,0,0,0,0,0,0,0,0,0,0,
0,0,0,0,0,0,0,0,0,0,0,0,0,0,0,0,
0,0,0,0,0,0,0,0,0,0,0,0,0,0,0,0,
0,0,0,0,0,0,0,0,0,0,0,0,0,0,0,0,
0,0,0,0,0,0,0,0,0,0,0,0,0,0,0,0,
0,0,0,0,0,0,0,0,0,0,0,0,0,0,0,0,
0,0,0,0,0,0,0,0,0,0,0,0,0,0,0,0,
0,0,0,0,0,0,0,0,0,0,0,0,0,0,0,0,
0,0,0,0,0,0,0,0,0,0,0,0,0,0,0,0,
0,0,0,0,0,0,0,0,0,0,0,0,0,0,0,0,
0,0,0,0,0,0,0,0,0,0,0,0,0,0,0,0,
0,0,0,0,0,0,0,0,0,0,0,0,0,0,0,0,
0,0,0,0,0,0,0,0,0,0,0,0,0,0,0,0,
0,0,0,0,0,0,0,0,0,0,0,0,0,0,0,0,
0,0,0,0,0,0,0,0,0,0,0,0,0,0,0,0,
0,0,0,0,0,0,0,0,0,0,0,0,0,0,0,0,
0,0,0,0,0,0,0,0,0,0,0,0,0,0,0,0,
0,0,0,0,0,0,0,0,0,0,0,0,0,0,0,0,
0,0,0,0,0,0,0,0,0,0,0,0,0,0,0,0,
0,0,0,0,0,0,0,0,0,0,0,0,0,0,0,0,
0,0,0,0,0,0,0,0,0,0,0,0,0,0,0,0,
0,0,0,0,0,0,0,0,0,0,0,0,0,0,0,0,
0,0,0,0,0,0,0,0,0,0,0,0,0,0,0,0,
0,0,0,0,0,0,0,0,0,0,0,0,0,0,0,0,
0,0,0,0,0,0,0,0,0,0,0,0,0,0,0,0,
0,0,0,0,0,0,0,0,0,0,0,0,0,0,0,0,
0,0,0,0,0,0,0,0,0,0,0,0,0,0,0,0,
0,0,0,0,0,0,0,0,0,0,0,0,0,0,0,0,
0,0,0,0,0,0,0,0,0,0,0,0,0,0,0,0,
0,0,0,0,0,0,0,0,0,0,0,0,0,0,0,0,
0,0,0,0,0,0,0,0,0,0,0,0,0,0,0,0,
0,0,0,0,0,0,0,0,0,0,0,0,0,0,0,0,
0,0,0,0,0,0,0,0,0,0,0,0,0,0,0,0,
0,0,0,0,0,0,0,0,0,0,0,0,0,0,0,0,
0,0,0,0,0,0,0,0,0,0,0,0,0,0,0,0,
0,140,139,140,139,140,139,140,139,140,139,140,139,140,139,0,
0,0,0,0,0,0,0,0,0,0,0,0,0,0,0,0
</data>
 </layer>
 <objectgroup id="28" name="objects_evening_treeup" visible="0">
  <object id="490" gid="435" x="0" y="2480" width="640" height="78">
   <properties>
    <property name="overcast_fade" type="bool" value="true"/>
    <property name="sunset" type="int" value="1"/>
   </properties>
  </object>
 </objectgroup>
 <objectgroup color="#5500ff" id="8" name="collision">
  <object id="1" x="400" y="0" width="40" height="2000"/>
  <object id="2" x="440" y="2000" width="40" height="40"/>
  <object id="3" x="520" y="2040" width="40" height="40"/>
  <object id="4" x="400" y="2000">
   <polygon points="0,0 40,40 40,0"/>
  </object>
  <object id="5" x="480" y="2040">
   <polygon points="0,0 40,0 40,40"/>
  </object>
  <object id="6" x="560" y="2080">
   <polygon points="0,0 40,40 40,0"/>
  </object>
  <object id="7" x="600" y="2120" width="40" height="360"/>
  <object id="8" x="40" y="2440" width="560" height="40"/>
  <object id="9" x="0" y="2120" width="40" height="360"/>
  <object id="10" x="40" y="2120">
   <polygon points="0,0 0,-40 40,-40"/>
  </object>
  <object id="11" x="120" y="2080">
   <polygon points="0,0 0,-40 40,-40"/>
  </object>
  <object id="12" x="200" y="2040">
   <polygon points="0,0 0,-40 40,-40"/>
  </object>
  <object id="13" x="160" y="2000" width="40" height="40"/>
  <object id="14" x="80" y="2040" width="40" height="40"/>
  <object id="15" x="200" y="0" width="40" height="2000"/>
  <object id="18" x="240" y="2200" width="160" height="40"/>
  <object id="31" x="160" y="2280" width="320" height="40"/>
  <object id="35" x="120" y="2320">
   <polygon points="0,0 40,0 40,-40"/>
  </object>
  <object id="36" x="160" y="2280">
   <polygon points="0,0 40,-40 40,0"/>
  </object>
  <object id="37" x="200" y="2240">
   <polygon points="0,0 40,0 40,-40"/>
  </object>
  <object id="38" x="400" y="2200">
   <polygon points="0,0 0,40 40,40"/>
  </object>
  <object id="39" x="440" y="2240">
   <polygon points="0,0 0,40 40,40"/>
  </object>
  <object id="40" x="480" y="2320">
   <polygon points="0,0 40,0 0,-40"/>
  </object>
 </objectgroup>
 <group id="16" name="shadows" visible="0">
  <objectgroup id="26" name="objects_shadows_evening_topcutout"/>
  <objectgroup id="25" name="objects_shadows_morning_topcutout"/>
  <objectgroup id="19" name="objects_shadows_evening_cutout">
   <object id="373" gid="362" x="-36" y="2120" width="110" height="120"/>
   <object id="374" gid="362" x="44" y="2080" width="110" height="120"/>
   <object id="375" gid="362" x="124" y="2040" width="110" height="120"/>
   <object id="372" gid="362" x="404" y="2040" width="110" height="120"/>
   <object id="370" gid="362" x="564" y="2120" width="110" height="120"/>
   <object id="361" gid="359" x="600" y="2420" width="120" height="40"/>
   <object id="362" gid="359" x="600" y="2380" width="120" height="40"/>
   <object id="363" gid="359" x="600" y="2340" width="120" height="40"/>
   <object id="364" gid="359" x="600" y="2300" width="120" height="40"/>
   <object id="365" gid="359" x="600" y="2260" width="120" height="40"/>
   <object id="366" gid="359" x="600" y="2220" width="120" height="40"/>
   <object id="367" gid="359" x="600" y="2180" width="120" height="40"/>
   <object id="368" gid="359" x="600" y="2140" width="120" height="40"/>
   <object id="369" gid="359" x="600" y="2100" width="120" height="40"/>
   <object id="360" gid="360" x="610" y="2480" width="110" height="62"/>
   <object id="359" gid="362" x="44" y="2522" width="110" height="120"/>
   <object id="358" gid="362" x="-36" y="2522" width="110" height="120"/>
   <object id="357" gid="362" x="204" y="2522" width="110" height="120"/>
   <object id="356" gid="362" x="124" y="2522" width="110" height="120"/>
   <object id="355" gid="362" x="364" y="2522" width="110" height="120"/>
   <object id="354" gid="362" x="284" y="2522" width="110" height="120"/>
   <object id="353" gid="362" x="524" y="2522" width="110" height="120"/>
   <object id="352" gid="362" x="444" y="2522" width="110" height="120"/>
   <object id="377" gid="359" x="400" y="1940" width="120" height="40"/>
   <object id="378" gid="359" x="400" y="1900" width="120" height="40"/>
   <object id="379" gid="359" x="400" y="1860" width="120" height="40"/>
   <object id="380" gid="359" x="400" y="1820" width="120" height="40"/>
   <object id="381" gid="359" x="400" y="1780" width="120" height="40"/>
   <object id="382" gid="359" x="400" y="1740" width="120" height="40"/>
   <object id="383" gid="359" x="400" y="1700" width="120" height="40"/>
   <object id="384" gid="359" x="400" y="1660" width="120" height="40"/>
   <object id="385" gid="359" x="400" y="1620" width="120" height="40"/>
   <object id="376" gid="359" x="400" y="1980" width="120" height="40"/>
   <object id="386" gid="359" x="400" y="1580" width="120" height="40"/>
   <object id="387" gid="359" x="400" y="1540" width="120" height="40"/>
   <object id="388" gid="359" x="400" y="1500" width="120" height="40"/>
   <object id="389" gid="359" x="400" y="1460" width="120" height="40"/>
   <object id="390" gid="359" x="400" y="1420" width="120" height="40"/>
   <object id="391" gid="359" x="400" y="1380" width="120" height="40"/>
   <object id="392" gid="359" x="400" y="1340" width="120" height="40"/>
   <object id="393" gid="359" x="400" y="1300" width="120" height="40"/>
   <object id="394" gid="359" x="400" y="1260" width="120" height="40"/>
   <object id="395" gid="359" x="400" y="1220" width="120" height="40"/>
   <object id="396" gid="359" x="400" y="1180" width="120" height="40"/>
   <object id="397" gid="359" x="400" y="1140" width="120" height="40"/>
   <object id="398" gid="359" x="400" y="1100" width="120" height="40"/>
   <object id="399" gid="359" x="400" y="1060" width="120" height="40"/>
   <object id="400" gid="359" x="400" y="1020" width="120" height="40"/>
   <object id="401" gid="359" x="400" y="980" width="120" height="40"/>
   <object id="402" gid="359" x="400" y="940" width="120" height="40"/>
   <object id="403" gid="359" x="400" y="900" width="120" height="40"/>
   <object id="404" gid="359" x="400" y="860" width="120" height="40"/>
   <object id="405" gid="359" x="400" y="820" width="120" height="40"/>
   <object id="406" gid="359" x="400" y="780" width="120" height="40"/>
   <object id="407" gid="359" x="400" y="740" width="120" height="40"/>
   <object id="408" gid="359" x="400" y="700" width="120" height="40"/>
   <object id="409" gid="359" x="400" y="660" width="120" height="40"/>
   <object id="410" gid="359" x="400" y="620" width="120" height="40"/>
   <object id="411" gid="359" x="400" y="580" width="120" height="40"/>
   <object id="412" gid="359" x="400" y="540" width="120" height="40"/>
   <object id="413" gid="359" x="400" y="500" width="120" height="40"/>
   <object id="414" gid="359" x="400" y="460" width="120" height="40"/>
   <object id="415" gid="359" x="400" y="420" width="120" height="40"/>
   <object id="416" gid="359" x="400" y="380" width="120" height="40"/>
   <object id="417" gid="359" x="400" y="340" width="120" height="40"/>
   <object id="418" gid="359" x="400" y="300" width="120" height="40"/>
   <object id="419" gid="359" x="400" y="260" width="120" height="40"/>
   <object id="420" gid="359" x="400" y="220" width="120" height="40"/>
   <object id="421" gid="359" x="400" y="180" width="120" height="40"/>
   <object id="422" gid="359" x="400" y="140" width="120" height="40"/>
   <object id="423" gid="359" x="400" y="100" width="120" height="40"/>
   <object id="424" gid="359" x="400" y="60" width="120" height="40"/>
   <object id="425" gid="359" x="400" y="20" width="120" height="40"/>
   <object id="426" gid="352" x="-80" y="2400" width="120" height="40"/>
   <object id="427" gid="352" x="-80" y="2440" width="120" height="40"/>
   <object id="428" gid="352" x="-80" y="2320" width="120" height="40"/>
   <object id="429" gid="352" x="-80" y="2360" width="120" height="40"/>
   <object id="430" gid="352" x="-80" y="2240" width="120" height="40"/>
   <object id="431" gid="352" x="-80" y="2280" width="120" height="40"/>
   <object id="432" gid="352" x="-80" y="2160" width="120" height="40"/>
   <object id="433" gid="352" x="-80" y="2200" width="120" height="40"/>
   <object id="434" gid="352" x="-80" y="2120" width="120" height="40"/>
   <object id="435" gid="352" x="-180" y="1870" width="120" height="40"/>
   <object id="436" gid="352" x="120" y="1960" width="120" height="40"/>
   <object id="437" gid="352" x="120" y="1920" width="120" height="40"/>
   <object id="438" gid="352" x="120" y="1880" width="120" height="40"/>
   <object id="439" gid="352" x="120" y="1840" width="120" height="40"/>
   <object id="440" gid="352" x="120" y="1800" width="120" height="40"/>
   <object id="441" gid="352" x="120" y="1760" width="120" height="40"/>
   <object id="442" gid="352" x="120" y="1720" width="120" height="40"/>
   <object id="443" gid="352" x="120" y="1680" width="120" height="40"/>
   <object id="444" gid="352" x="120" y="1640" width="120" height="40"/>
   <object id="445" gid="352" x="120" y="1600" width="120" height="40"/>
   <object id="446" gid="352" x="120" y="1560" width="120" height="40"/>
   <object id="447" gid="352" x="120" y="1520" width="120" height="40"/>
   <object id="448" gid="352" x="120" y="1480" width="120" height="40"/>
   <object id="449" gid="352" x="120" y="1440" width="120" height="40"/>
   <object id="450" gid="352" x="120" y="1400" width="120" height="40"/>
   <object id="451" gid="352" x="120" y="1360" width="120" height="40"/>
   <object id="452" gid="352" x="120" y="1320" width="120" height="40"/>
   <object id="453" gid="352" x="120" y="1280" width="120" height="40"/>
   <object id="454" gid="352" x="120" y="1240" width="120" height="40"/>
   <object id="455" gid="352" x="120" y="1200" width="120" height="40"/>
   <object id="456" gid="352" x="120" y="1160" width="120" height="40"/>
   <object id="457" gid="352" x="120" y="1120" width="120" height="40"/>
   <object id="458" gid="352" x="120" y="1080" width="120" height="40"/>
   <object id="459" gid="352" x="120" y="1040" width="120" height="40"/>
   <object id="460" gid="352" x="120" y="1000" width="120" height="40"/>
   <object id="461" gid="352" x="120" y="960" width="120" height="40"/>
   <object id="462" gid="352" x="120" y="920" width="120" height="40"/>
   <object id="463" gid="352" x="120" y="880" width="120" height="40"/>
   <object id="464" gid="352" x="120" y="840" width="120" height="40"/>
   <object id="465" gid="352" x="120" y="800" width="120" height="40"/>
   <object id="466" gid="352" x="120" y="760" width="120" height="40"/>
   <object id="467" gid="352" x="120" y="720" width="120" height="40"/>
   <object id="468" gid="352" x="120" y="680" width="120" height="40"/>
   <object id="469" gid="352" x="120" y="640" width="120" height="40"/>
   <object id="470" gid="352" x="120" y="600" width="120" height="40"/>
   <object id="471" gid="352" x="120" y="560" width="120" height="40"/>
   <object id="472" gid="352" x="120" y="520" width="120" height="40"/>
   <object id="473" gid="352" x="120" y="480" width="120" height="40"/>
   <object id="474" gid="352" x="120" y="440" width="120" height="40"/>
   <object id="475" gid="352" x="120" y="400" width="120" height="40"/>
   <object id="476" gid="352" x="120" y="360" width="120" height="40"/>
   <object id="477" gid="352" x="120" y="320" width="120" height="40"/>
   <object id="478" gid="352" x="120" y="280" width="120" height="40"/>
   <object id="479" gid="352" x="120" y="240" width="120" height="40"/>
   <object id="480" gid="352" x="120" y="200" width="120" height="40"/>
   <object id="481" gid="352" x="120" y="160" width="120" height="40"/>
   <object id="482" gid="352" x="120" y="120" width="120" height="40"/>
   <object id="483" gid="352" x="120" y="80" width="120" height="40"/>
   <object id="484" gid="352" x="120" y="40" width="120" height="40"/>
   <object id="485" gid="360" x="40" y="2020" width="100" height="2020"/>
   <object id="491" gid="2147484010" x="486" y="2080" width="110" height="120"/>
  </objectgroup>
  <objectgroup id="20" name="objects_shadows_morning_cutout" visible="0">
   <object id="70" gid="362" x="-36" y="2120" width="110" height="120"/>
   <object id="72" gid="362" x="44" y="2080" width="110" height="120"/>
   <object id="73" gid="362" x="124" y="2040" width="110" height="120"/>
   <object id="74" gid="362" x="404" y="2040" width="110" height="120"/>
   <object id="75" gid="2147484010" x="486" y="2080" width="110" height="120"/>
   <object id="76" gid="362" x="564" y="2120" width="110" height="120"/>
   <object id="286" gid="359" x="600" y="2420" width="120" height="40"/>
   <object id="287" gid="359" x="600" y="2380" width="120" height="40"/>
   <object id="288" gid="359" x="600" y="2340" width="120" height="40"/>
   <object id="289" gid="359" x="600" y="2300" width="120" height="40"/>
   <object id="290" gid="359" x="600" y="2260" width="120" height="40"/>
   <object id="291" gid="359" x="600" y="2220" width="120" height="40"/>
   <object id="292" gid="359" x="600" y="2180" width="120" height="40"/>
   <object id="293" gid="359" x="600" y="2140" width="120" height="40"/>
   <object id="294" gid="359" x="600" y="2100" width="120" height="40"/>
   <object id="295" gid="359" x="400" y="1940" width="120" height="40"/>
   <object id="296" gid="359" x="400" y="1900" width="120" height="40"/>
   <object id="297" gid="359" x="400" y="1860" width="120" height="40"/>
   <object id="298" gid="359" x="400" y="1820" width="120" height="40"/>
   <object id="299" gid="359" x="400" y="1780" width="120" height="40"/>
   <object id="300" gid="359" x="400" y="1740" width="120" height="40"/>
   <object id="301" gid="359" x="400" y="1700" width="120" height="40"/>
   <object id="302" gid="359" x="400" y="1660" width="120" height="40"/>
   <object id="303" gid="359" x="400" y="1620" width="120" height="40"/>
   <object id="304" gid="359" x="400" y="1980" width="120" height="40"/>
   <object id="305" gid="359" x="400" y="1580" width="120" height="40"/>
   <object id="306" gid="359" x="400" y="1540" width="120" height="40"/>
   <object id="307" gid="359" x="400" y="1500" width="120" height="40"/>
   <object id="308" gid="359" x="400" y="1460" width="120" height="40"/>
   <object id="309" gid="359" x="400" y="1420" width="120" height="40"/>
   <object id="310" gid="359" x="400" y="1380" width="120" height="40"/>
   <object id="311" gid="359" x="400" y="1340" width="120" height="40"/>
   <object id="312" gid="359" x="400" y="1300" width="120" height="40"/>
   <object id="313" gid="359" x="400" y="1260" width="120" height="40"/>
   <object id="314" gid="359" x="400" y="1220" width="120" height="40"/>
   <object id="315" gid="359" x="400" y="1180" width="120" height="40"/>
   <object id="316" gid="359" x="400" y="1140" width="120" height="40"/>
   <object id="317" gid="359" x="400" y="1100" width="120" height="40"/>
   <object id="318" gid="359" x="400" y="1060" width="120" height="40"/>
   <object id="319" gid="359" x="400" y="1020" width="120" height="40"/>
   <object id="320" gid="359" x="400" y="980" width="120" height="40"/>
   <object id="321" gid="359" x="400" y="940" width="120" height="40"/>
   <object id="322" gid="359" x="400" y="900" width="120" height="40"/>
   <object id="323" gid="359" x="400" y="860" width="120" height="40"/>
   <object id="324" gid="359" x="400" y="820" width="120" height="40"/>
   <object id="325" gid="359" x="400" y="780" width="120" height="40"/>
   <object id="326" gid="359" x="400" y="740" width="120" height="40"/>
   <object id="327" gid="359" x="400" y="700" width="120" height="40"/>
   <object id="328" gid="359" x="400" y="660" width="120" height="40"/>
   <object id="329" gid="359" x="400" y="620" width="120" height="40"/>
   <object id="330" gid="359" x="400" y="580" width="120" height="40"/>
   <object id="331" gid="359" x="400" y="540" width="120" height="40"/>
   <object id="332" gid="359" x="400" y="500" width="120" height="40"/>
   <object id="333" gid="359" x="400" y="460" width="120" height="40"/>
   <object id="334" gid="359" x="400" y="420" width="120" height="40"/>
   <object id="335" gid="359" x="400" y="380" width="120" height="40"/>
   <object id="336" gid="359" x="400" y="340" width="120" height="40"/>
   <object id="337" gid="359" x="400" y="300" width="120" height="40"/>
   <object id="338" gid="359" x="400" y="260" width="120" height="40"/>
   <object id="339" gid="359" x="400" y="220" width="120" height="40"/>
   <object id="340" gid="359" x="400" y="180" width="120" height="40"/>
   <object id="341" gid="359" x="400" y="140" width="120" height="40"/>
   <object id="342" gid="359" x="400" y="100" width="120" height="40"/>
   <object id="343" gid="359" x="400" y="60" width="120" height="40"/>
   <object id="344" gid="359" x="400" y="20" width="120" height="40"/>
   <object id="345" gid="360" x="610" y="2480" width="110" height="62"/>
   <object id="346" gid="360" x="520" y="2010" width="120" height="2012"/>
   <object id="51" gid="362" x="44" y="2522" width="110" height="120"/>
   <object id="61" gid="362" x="-36" y="2522" width="110" height="120"/>
   <object id="87" gid="362" x="204" y="2522" width="110" height="120"/>
   <object id="88" gid="362" x="124" y="2522" width="110" height="120"/>
   <object id="94" gid="362" x="364" y="2522" width="110" height="120"/>
   <object id="95" gid="362" x="284" y="2522" width="110" height="120"/>
   <object id="96" gid="362" x="524" y="2522" width="110" height="120"/>
   <object id="97" gid="362" x="444" y="2522" width="110" height="120"/>
  </objectgroup>
  <objectgroup id="22" name="objects_shadows_evening">
   <object id="348" gid="374" x="220" y="2000" width="200" height="2000"/>
   <object id="351" gid="374" x="20" y="2420" width="600" height="380"/>
   <object id="349" gid="374" x="120" y="2080" width="400" height="80"/>
  </objectgroup>
  <objectgroup id="27" name="objects_evening_shadow_collision" visible="0">
   <object id="486" name="eveningshadowfull" x="0" y="0" width="640" height="2480">
    <properties>
     <property name="sunset" type="int" value="1"/>
    </properties>
   </object>
  </objectgroup>
  <objectgroup id="21" name="objects_shadows_morning" visible="0">
   <object id="62" gid="377" x="26" y="2420" width="14" height="40"/>
   <object id="63" gid="377" x="26" y="2380" width="14" height="40"/>
   <object id="64" gid="377" x="26" y="2340" width="14" height="40"/>
   <object id="65" gid="377" x="26" y="2300" width="14" height="40"/>
   <object id="66" gid="377" x="26" y="2260" width="14" height="40"/>
   <object id="67" gid="377" x="26" y="2220" width="14" height="40"/>
   <object id="68" gid="377" x="26" y="2180" width="14" height="40"/>
   <object id="69" gid="377" x="26" y="2140" width="14" height="40"/>
   <object id="71" gid="377" x="26" y="2100" width="14" height="40"/>
   <object id="78" gid="378" x="596" y="2180" width="18" height="40"/>
   <object id="79" gid="378" x="596" y="2140" width="18" height="40"/>
   <object id="80" gid="378" x="596" y="2100" width="18" height="40"/>
   <object id="81" gid="378" x="596" y="2300" width="18" height="40"/>
   <object id="82" gid="378" x="596" y="2260" width="18" height="40"/>
   <object id="83" gid="378" x="596" y="2220" width="18" height="40"/>
   <object id="84" gid="378" x="596" y="2420" width="18" height="40"/>
   <object id="85" gid="378" x="596" y="2380" width="18" height="40"/>
   <object id="86" gid="378" x="596" y="2340" width="18" height="40"/>
   <object id="98" gid="377" x="226" y="1940" width="14" height="40"/>
   <object id="99" gid="377" x="226" y="1900" width="14" height="40"/>
   <object id="100" gid="377" x="226" y="1860" width="14" height="40"/>
   <object id="101" gid="377" x="226" y="1820" width="14" height="40"/>
   <object id="102" gid="377" x="226" y="1780" width="14" height="40"/>
   <object id="103" gid="377" x="226" y="1740" width="14" height="40"/>
   <object id="104" gid="377" x="226" y="1700" width="14" height="40"/>
   <object id="105" gid="377" x="226" y="1660" width="14" height="40"/>
   <object id="109" gid="378" x="396" y="1700" width="18" height="40"/>
   <object id="110" gid="378" x="396" y="1660" width="18" height="40"/>
   <object id="111" gid="378" x="396" y="1820" width="18" height="40"/>
   <object id="112" gid="378" x="396" y="1780" width="18" height="40"/>
   <object id="113" gid="378" x="396" y="1740" width="18" height="40"/>
   <object id="114" gid="378" x="396" y="1940" width="18" height="40"/>
   <object id="115" gid="378" x="396" y="1900" width="18" height="40"/>
   <object id="116" gid="378" x="396" y="1860" width="18" height="40"/>
   <object id="117" gid="378" x="396" y="1980" width="18" height="40"/>
   <object id="118" gid="377" x="226" y="1980" width="14" height="40"/>
   <object id="119" gid="377" x="226" y="1620" width="14" height="40"/>
   <object id="120" gid="377" x="226" y="1580" width="14" height="40"/>
   <object id="121" gid="377" x="226" y="1540" width="14" height="40"/>
   <object id="122" gid="377" x="226" y="1500" width="14" height="40"/>
   <object id="123" gid="377" x="226" y="1460" width="14" height="40"/>
   <object id="124" gid="377" x="226" y="1420" width="14" height="40"/>
   <object id="125" gid="377" x="226" y="1380" width="14" height="40"/>
   <object id="126" gid="377" x="226" y="1340" width="14" height="40"/>
   <object id="127" gid="378" x="396" y="1380" width="18" height="40"/>
   <object id="128" gid="378" x="396" y="1340" width="18" height="40"/>
   <object id="129" gid="378" x="396" y="1500" width="18" height="40"/>
   <object id="130" gid="378" x="396" y="1460" width="18" height="40"/>
   <object id="131" gid="378" x="396" y="1420" width="18" height="40"/>
   <object id="132" gid="378" x="396" y="1620" width="18" height="40"/>
   <object id="133" gid="378" x="396" y="1580" width="18" height="40"/>
   <object id="134" gid="378" x="396" y="1540" width="18" height="40"/>
   <object id="147" gid="377" x="226" y="1300" width="14" height="40"/>
   <object id="148" gid="377" x="226" y="1260" width="14" height="40"/>
   <object id="149" gid="377" x="226" y="1220" width="14" height="40"/>
   <object id="150" gid="377" x="226" y="1180" width="14" height="40"/>
   <object id="151" gid="377" x="226" y="1140" width="14" height="40"/>
   <object id="152" gid="377" x="226" y="1100" width="14" height="40"/>
   <object id="153" gid="377" x="226" y="1060" width="14" height="40"/>
   <object id="154" gid="377" x="226" y="1020" width="14" height="40"/>
   <object id="155" gid="378" x="396" y="1060" width="18" height="40"/>
   <object id="156" gid="378" x="396" y="1020" width="18" height="40"/>
   <object id="157" gid="378" x="396" y="1180" width="18" height="40"/>
   <object id="158" gid="378" x="396" y="1140" width="18" height="40"/>
   <object id="159" gid="378" x="396" y="1100" width="18" height="40"/>
   <object id="160" gid="378" x="396" y="1300" width="18" height="40"/>
   <object id="161" gid="378" x="396" y="1260" width="18" height="40"/>
   <object id="162" gid="378" x="396" y="1220" width="18" height="40"/>
   <object id="163" gid="377" x="226" y="980" width="14" height="40"/>
   <object id="164" gid="377" x="226" y="940" width="14" height="40"/>
   <object id="165" gid="377" x="226" y="900" width="14" height="40"/>
   <object id="166" gid="377" x="226" y="860" width="14" height="40"/>
   <object id="167" gid="377" x="226" y="820" width="14" height="40"/>
   <object id="168" gid="377" x="226" y="780" width="14" height="40"/>
   <object id="169" gid="377" x="226" y="740" width="14" height="40"/>
   <object id="170" gid="377" x="226" y="700" width="14" height="40"/>
   <object id="171" gid="378" x="396" y="740" width="18" height="40"/>
   <object id="172" gid="378" x="396" y="700" width="18" height="40"/>
   <object id="173" gid="378" x="396" y="860" width="18" height="40"/>
   <object id="174" gid="378" x="396" y="820" width="18" height="40"/>
   <object id="175" gid="378" x="396" y="780" width="18" height="40"/>
   <object id="176" gid="378" x="396" y="980" width="18" height="40"/>
   <object id="177" gid="378" x="396" y="940" width="18" height="40"/>
   <object id="178" gid="378" x="396" y="900" width="18" height="40"/>
   <object id="249" gid="377" x="226" y="660" width="14" height="40"/>
   <object id="250" gid="378" x="396" y="660" width="18" height="40"/>
   <object id="251" gid="377" x="226" y="620" width="14" height="40"/>
   <object id="252" gid="377" x="226" y="580" width="14" height="40"/>
   <object id="253" gid="377" x="226" y="540" width="14" height="40"/>
   <object id="254" gid="377" x="226" y="500" width="14" height="40"/>
   <object id="255" gid="377" x="226" y="460" width="14" height="40"/>
   <object id="256" gid="377" x="226" y="420" width="14" height="40"/>
   <object id="257" gid="377" x="226" y="380" width="14" height="40"/>
   <object id="258" gid="377" x="226" y="340" width="14" height="40"/>
   <object id="259" gid="378" x="396" y="380" width="18" height="40"/>
   <object id="260" gid="378" x="396" y="340" width="18" height="40"/>
   <object id="261" gid="378" x="396" y="500" width="18" height="40"/>
   <object id="262" gid="378" x="396" y="460" width="18" height="40"/>
   <object id="263" gid="378" x="396" y="420" width="18" height="40"/>
   <object id="264" gid="378" x="396" y="620" width="18" height="40"/>
   <object id="265" gid="378" x="396" y="580" width="18" height="40"/>
   <object id="266" gid="378" x="396" y="540" width="18" height="40"/>
   <object id="267" gid="377" x="226" y="300" width="14" height="40"/>
   <object id="268" gid="377" x="226" y="260" width="14" height="40"/>
   <object id="269" gid="377" x="226" y="220" width="14" height="40"/>
   <object id="270" gid="377" x="226" y="180" width="14" height="40"/>
   <object id="271" gid="377" x="226" y="140" width="14" height="40"/>
   <object id="272" gid="378" x="396" y="180" width="18" height="40"/>
   <object id="273" gid="378" x="396" y="140" width="18" height="40"/>
   <object id="274" gid="378" x="396" y="300" width="18" height="40"/>
   <object id="275" gid="378" x="396" y="260" width="18" height="40"/>
   <object id="276" gid="378" x="396" y="220" width="18" height="40"/>
   <object id="277" gid="377" x="226" y="100" width="14" height="40"/>
   <object id="278" gid="377" x="226" y="60" width="14" height="40"/>
   <object id="279" gid="377" x="226" y="20" width="14" height="40"/>
   <object id="280" gid="378" x="396" y="60" width="18" height="40"/>
   <object id="281" gid="378" x="396" y="20" width="18" height="40"/>
   <object id="282" gid="378" x="396" y="100" width="18" height="40"/>
  </objectgroup>
  <layer id="17" name="tiles_shadows_evening" width="16" height="62" visible="0">
   <data encoding="csv">
0,0,0,0,0,0,0,0,0,0,0,0,0,0,0,0,
0,0,0,0,0,0,0,0,0,0,0,0,0,0,0,0,
0,0,0,0,0,0,0,0,0,0,0,0,0,0,0,0,
0,0,0,0,0,0,0,0,0,0,0,0,0,0,0,0,
0,0,0,0,0,0,0,0,0,0,0,0,0,0,0,0,
0,0,0,0,0,0,0,0,0,0,0,0,0,0,0,0,
0,0,0,0,0,0,0,0,0,0,0,0,0,0,0,0,
0,0,0,0,0,0,0,0,0,0,0,0,0,0,0,0,
0,0,0,0,0,0,0,0,0,0,0,0,0,0,0,0,
0,0,0,0,0,0,0,0,0,0,0,0,0,0,0,0,
0,0,0,0,0,0,0,0,0,0,0,0,0,0,0,0,
0,0,0,0,0,0,0,0,0,0,0,0,0,0,0,0,
0,0,0,0,0,0,0,0,0,0,0,0,0,0,0,0,
0,0,0,0,0,0,0,0,0,0,0,0,0,0,0,0,
0,0,0,0,0,0,0,0,0,0,0,0,0,0,0,0,
0,0,0,0,0,0,0,0,0,0,0,0,0,0,0,0,
0,0,0,0,0,0,0,0,0,0,0,0,0,0,0,0,
0,0,0,0,0,0,0,0,0,0,0,0,0,0,0,0,
0,0,0,0,0,0,0,0,0,0,0,0,0,0,0,0,
0,0,0,0,0,0,0,0,0,0,0,0,0,0,0,0,
0,0,0,0,0,0,0,0,0,0,0,0,0,0,0,0,
0,0,0,0,0,0,0,0,0,0,0,0,0,0,0,0,
0,0,0,0,0,0,0,0,0,0,0,0,0,0,0,0,
0,0,0,0,0,0,0,0,0,0,0,0,0,0,0,0,
0,0,0,0,0,0,0,0,0,0,0,0,0,0,0,0,
0,0,0,0,0,0,0,0,0,0,0,0,0,0,0,0,
0,0,0,0,0,0,0,0,0,0,0,0,0,0,0,0,
0,0,0,0,0,0,0,0,0,0,0,0,0,0,0,0,
0,0,0,0,0,0,0,0,0,0,0,0,0,0,0,0,
0,0,0,0,0,0,0,0,0,0,0,0,0,0,0,0,
0,0,0,0,0,0,0,0,0,0,0,0,0,0,0,0,
0,0,0,0,0,0,0,0,0,0,0,0,0,0,0,0,
0,0,0,0,0,0,0,0,0,0,0,0,0,0,0,0,
0,0,0,0,0,0,0,0,0,0,0,0,0,0,0,0,
0,0,0,0,0,0,0,0,0,0,0,0,0,0,0,0,
0,0,0,0,0,0,0,0,0,0,0,0,0,0,0,0,
0,0,0,0,0,0,0,0,0,0,0,0,0,0,0,0,
0,0,0,0,0,0,0,0,0,0,0,0,0,0,0,0,
0,0,0,0,0,0,0,0,0,0,0,0,0,0,0,0,
0,0,0,0,0,0,0,0,0,0,0,0,0,0,0,0,
0,0,0,0,0,0,0,0,0,0,0,0,0,0,0,0,
0,0,0,0,0,0,0,0,0,0,0,0,0,0,0,0,
0,0,0,0,0,0,0,0,0,0,0,0,0,0,0,0,
0,0,0,0,0,0,0,0,0,0,0,0,0,0,0,0,
0,0,0,0,0,0,0,0,0,0,0,0,0,0,0,0,
0,0,0,0,0,0,0,0,0,0,0,0,0,0,0,0,
0,0,0,0,0,0,0,0,0,0,0,0,0,0,0,0,
0,0,0,0,0,0,0,0,0,0,0,0,0,0,0,0,
0,0,0,0,0,0,0,0,0,0,0,0,0,0,0,0,
0,0,0,0,0,0,0,0,0,0,0,0,0,0,0,0,
0,0,0,0,0,0,0,0,0,0,0,0,0,0,0,0,
0,0,0,0,0,0,0,0,0,0,0,0,0,0,0,0,
0,0,0,0,0,0,0,0,0,0,0,0,0,0,0,0,
0,0,0,0,0,0,0,0,0,0,0,0,0,0,0,0,
0,0,0,0,0,0,0,0,0,0,0,0,0,0,0,0,
0,0,0,0,0,0,0,0,0,0,0,0,0,0,0,0,
0,0,0,0,0,0,0,0,0,0,0,0,0,0,0,0,
0,0,0,0,0,0,0,0,0,0,0,0,0,0,0,0,
0,0,0,0,0,0,0,0,0,0,0,0,0,0,0,0,
0,0,0,0,0,0,0,0,0,0,0,0,0,0,0,0,
0,0,0,0,0,0,0,0,0,0,0,0,0,0,0,0,
0,0,0,0,0,0,0,0,0,0,0,0,0,0,0,0
</data>
  </layer>
  <layer id="18" name="tiles_shadows_morning" width="16" height="62" visible="0">
   <data encoding="csv">
0,0,0,0,0,0,291,291,291,291,0,0,0,0,0,0,
0,0,0,0,0,0,291,291,291,291,0,0,0,0,0,0,
0,0,0,0,0,0,291,291,291,291,0,0,0,0,0,0,
0,0,0,0,0,0,291,291,291,291,0,0,0,0,0,0,
0,0,0,0,0,0,291,291,291,291,0,0,0,0,0,0,
0,0,0,0,0,0,291,291,291,291,0,0,0,0,0,0,
0,0,0,0,0,0,291,291,291,291,0,0,0,0,0,0,
0,0,0,0,0,0,291,291,291,291,0,0,0,0,0,0,
0,0,0,0,0,0,291,291,291,291,0,0,0,0,0,0,
0,0,0,0,0,0,291,291,291,291,0,0,0,0,0,0,
0,0,0,0,0,0,291,291,291,291,0,0,0,0,0,0,
0,0,0,0,0,0,291,291,291,291,0,0,0,0,0,0,
0,0,0,0,0,0,291,291,291,291,0,0,0,0,0,0,
0,0,0,0,0,0,291,291,291,291,0,0,0,0,0,0,
0,0,0,0,0,0,291,291,291,291,0,0,0,0,0,0,
0,0,0,0,0,0,291,291,291,291,0,0,0,0,0,0,
0,0,0,0,0,0,291,291,291,291,0,0,0,0,0,0,
0,0,0,0,0,0,291,291,291,291,0,0,0,0,0,0,
0,0,0,0,0,0,291,291,291,291,0,0,0,0,0,0,
0,0,0,0,0,0,291,291,291,291,0,0,0,0,0,0,
0,0,0,0,0,0,291,291,291,291,0,0,0,0,0,0,
0,0,0,0,0,0,291,291,291,291,0,0,0,0,0,0,
0,0,0,0,0,0,291,291,291,291,0,0,0,0,0,0,
0,0,0,0,0,0,291,291,291,291,0,0,0,0,0,0,
0,0,0,0,0,0,291,291,291,291,0,0,0,0,0,0,
0,0,0,0,0,0,291,291,291,291,0,0,0,0,0,0,
0,0,0,0,0,0,291,291,291,291,0,0,0,0,0,0,
0,0,0,0,0,0,291,291,291,291,0,0,0,0,0,0,
0,0,0,0,0,0,291,291,291,291,0,0,0,0,0,0,
0,0,0,0,0,0,291,291,291,291,0,0,0,0,0,0,
0,0,0,0,0,0,291,291,291,291,0,0,0,0,0,0,
0,0,0,0,0,0,291,291,291,291,0,0,0,0,0,0,
0,0,0,0,0,0,291,291,291,291,0,0,0,0,0,0,
0,0,0,0,0,0,291,291,291,291,0,0,0,0,0,0,
0,0,0,0,0,0,291,291,291,291,0,0,0,0,0,0,
0,0,0,0,0,0,291,291,291,291,0,0,0,0,0,0,
0,0,0,0,0,0,291,291,291,291,0,0,0,0,0,0,
0,0,0,0,0,0,291,291,291,291,0,0,0,0,0,0,
0,0,0,0,0,0,291,291,291,291,0,0,0,0,0,0,
0,0,0,0,0,0,291,291,291,291,0,0,0,0,0,0,
0,0,0,0,0,0,291,291,291,291,0,0,0,0,0,0,
0,0,0,0,0,0,291,291,291,291,0,0,0,0,0,0,
0,0,0,0,0,0,291,291,291,291,0,0,0,0,0,0,
0,0,0,0,0,0,291,291,291,291,0,0,0,0,0,0,
0,0,0,0,0,0,291,291,291,291,0,0,0,0,0,0,
0,0,0,0,0,0,291,291,291,291,0,0,0,0,0,0,
0,0,0,0,0,0,291,291,291,291,0,0,0,0,0,0,
0,0,0,0,0,0,291,291,291,291,0,0,0,0,0,0,
0,0,0,0,0,0,291,291,291,291,0,0,0,0,0,0,
0,0,0,0,0,291,291,291,291,291,291,0,0,0,0,0,
0,0,0,291,291,291,291,291,291,291,291,291,291,0,0,0,
0,291,291,291,291,291,291,291,291,291,291,291,291,291,291,0,
0,291,291,291,291,291,291,291,291,291,291,291,291,291,291,0,
0,291,291,291,291,291,291,291,291,291,291,291,291,291,291,0,
0,291,291,291,291,291,291,291,291,291,291,291,291,291,291,0,
0,291,291,291,291,291,291,291,291,291,291,291,291,291,291,0,
0,291,291,291,291,291,291,291,291,291,291,291,291,291,291,0,
0,291,291,291,291,291,291,291,291,291,291,291,291,291,291,0,
0,291,291,291,291,291,291,291,291,291,291,291,291,291,291,0,
0,291,291,291,291,291,291,291,291,291,291,291,291,291,291,0,
0,291,291,291,291,291,291,291,291,291,291,291,291,291,291,0,
0,0,0,0,0,0,0,0,0,0,0,0,0,0,0,0
</data>
  </layer>
 </group>
 <objectgroup color="#00aa00" id="13" name="objects_overlay">
  <object id="49" name="hometowndaynight" x="0" y="0">
   <point/>
  </object>
 </objectgroup>
</map>
