<?xml version="1.0" encoding="UTF-8"?>
<map version="1.11" tiledversion="1.12.1" orientation="orthogonal" renderorder="right-down" width="102" height="12" tilewidth="40" tileheight="40" infinite="0" nextlayerid="48" nextobjectid="433">
 <editorsettings>
  <export target="data.lua" format="lua"/>
 </editorsettings>
 <properties>
  <property name="border" value="leaves"/>
  <property name="light" type="bool" value="true"/>
  <property name="music" value="hometown"/>
  <property name="name" value="Hometown"/>
 </properties>
 <tileset firstgid="1" source="../../../../tilesets/hometown.tsx"/>
 <tileset firstgid="287" source="../../../../tilesets/hometownobjects.tsx"/>
 <tileset firstgid="492" source="../../../../tilesets/hometownshadows.tsx"/>
 <tileset firstgid="520" source="../../../../tilesets/hometownshadowsobjects.tsx"/>
 <tileset firstgid="601" source="../../../../tilesets/hometowneveningtreeobjects.tsx"/>
 <tileset firstgid="644" source="../../../../tilesets/hometownbuildingshadowsobjects.tsx"/>
 <layer id="1" name="tile" width="102" height="12">
  <data encoding="csv">
57,57,57,57,57,57,57,57,57,57,57,57,57,57,57,57,57,57,57,57,57,57,57,57,57,57,57,57,57,57,57,57,57,57,57,57,57,57,57,15,13,13,13,17,57,57,57,57,57,57,57,57,57,57,57,57,57,57,57,57,57,57,57,57,57,57,57,57,57,57,57,57,57,60,60,60,60,60,60,60,60,60,60,60,60,60,61,15,13,13,17,59,60,60,60,60,60,60,57,57,57,57,
57,57,57,57,57,57,57,57,57,57,57,57,57,57,57,57,57,57,57,57,57,57,57,57,57,57,57,57,57,57,57,57,57,57,57,57,57,57,57,15,13,24,13,17,57,57,57,57,57,57,57,57,57,57,57,57,57,57,57,57,57,57,57,57,57,57,57,57,57,57,57,57,57,60,60,60,60,60,60,60,60,60,60,60,60,60,61,15,13,13,17,59,60,60,60,60,60,60,57,57,57,57,
57,57,57,68,68,68,68,68,68,68,68,68,68,68,57,57,57,57,57,57,57,68,68,68,68,57,57,57,57,57,57,57,57,57,57,57,57,57,57,15,13,13,13,17,57,57,57,57,68,68,68,68,68,68,68,68,68,68,68,68,68,68,68,68,68,68,57,57,57,57,57,57,57,60,60,60,60,60,60,60,60,60,60,60,60,60,61,15,13,13,17,59,60,60,60,60,60,60,57,57,57,57,
57,57,57,41,60,60,41,60,60,40,60,60,60,60,57,57,57,57,57,57,57,41,60,39,60,57,57,57,57,57,57,57,57,57,57,57,68,68,68,15,13,24,13,17,57,57,57,57,60,60,60,60,60,60,60,60,60,60,41,58,58,58,58,58,58,58,57,57,57,57,57,57,57,60,60,60,60,60,60,60,60,60,60,60,60,60,61,15,13,13,17,59,60,60,60,60,60,60,57,57,57,57,
57,57,57,60,40,60,60,60,41,60,60,40,60,60,57,57,57,57,57,57,57,60,40,60,41,57,57,57,57,57,57,57,57,57,57,57,60,60,61,15,13,13,13,17,57,57,57,57,60,60,60,60,60,60,60,60,60,60,60,41,58,58,58,58,58,58,68,68,68,57,57,57,57,60,60,60,60,60,60,60,60,60,60,60,60,60,61,15,13,13,17,59,60,60,60,60,60,60,57,57,57,57,
57,57,57,60,71,71,71,71,71,71,71,71,71,71,57,57,57,57,57,57,57,71,71,71,71,57,57,57,57,57,57,57,57,57,57,57,71,71,72,15,13,24,13,17,57,57,57,71,71,71,71,71,71,71,71,71,71,71,71,71,71,71,71,57,57,57,71,71,71,57,57,57,57,71,71,71,71,71,71,71,71,71,71,71,71,71,72,15,13,13,17,70,71,71,71,71,71,71,57,57,57,57,
57,57,57,61,57,27,27,27,27,27,27,27,27,27,27,27,27,27,27,27,27,27,27,27,27,27,27,27,27,27,27,27,27,27,27,27,27,27,27,13,13,13,13,13,27,27,27,27,27,27,27,27,27,27,27,27,27,27,27,27,27,27,27,27,27,27,27,27,27,27,27,27,27,27,27,27,27,27,27,27,27,27,27,27,27,27,27,13,13,13,13,27,27,27,27,27,27,27,57,57,57,57,
57,57,57,61,15,13,13,13,13,13,13,13,13,13,13,13,13,13,13,13,13,13,13,13,13,13,13,13,13,13,13,13,13,13,13,13,13,13,13,13,13,24,13,13,13,13,13,13,13,13,13,13,13,13,13,13,13,13,13,13,13,13,13,13,13,13,13,13,13,13,13,13,13,13,13,13,13,13,13,13,13,13,13,13,13,13,13,13,13,13,13,13,13,13,13,13,13,13,17,57,57,57,
57,57,57,61,15,13,25,13,25,13,25,13,25,13,25,13,25,13,25,13,25,13,25,13,25,13,25,13,25,13,25,13,25,13,25,13,25,13,25,13,25,13,25,13,25,13,25,13,25,13,25,13,25,13,25,13,25,13,25,13,25,13,25,13,25,13,25,13,25,13,25,13,25,13,25,13,25,13,25,13,25,13,25,13,25,13,3221225497,13,3221225497,13,3221225497,13,3221225497,13,3221225497,13,3221225497,13,17,57,57,57,
57,57,57,61,15,13,13,13,13,13,13,13,13,13,13,13,13,13,13,13,13,13,13,13,13,13,13,13,13,13,13,13,13,13,13,13,13,13,13,13,13,24,13,13,13,13,13,13,13,13,13,13,13,13,13,13,13,13,13,13,13,13,13,13,13,13,13,13,13,13,13,13,13,13,13,13,13,13,13,13,13,13,13,13,13,13,13,13,13,13,13,13,13,13,13,13,13,13,17,57,57,57,
57,57,57,61,57,27,27,27,27,27,27,27,27,27,27,27,27,27,27,27,27,27,27,27,27,27,27,27,27,27,27,27,27,27,27,27,27,27,27,13,13,13,13,13,27,27,27,27,27,27,27,27,27,27,27,27,27,27,27,27,27,27,27,27,27,27,27,27,27,27,27,27,27,27,27,27,27,27,27,27,27,27,27,27,27,27,27,27,27,27,27,27,27,27,27,27,27,27,57,57,57,57,
57,57,57,57,57,57,57,57,57,57,57,57,57,57,57,57,57,57,57,57,57,57,57,57,57,57,57,57,57,57,57,57,57,57,57,57,57,57,56,15,13,24,13,17,56,57,57,57,57,57,57,57,57,57,57,57,57,57,57,57,57,57,57,57,57,57,57,57,57,57,57,57,57,57,57,57,57,57,57,57,57,57,57,57,57,57,57,57,57,57,57,57,57,57,57,57,57,57,57,57,57,57
</data>
 </layer>
 <layer id="4" name="tile3" width="102" height="12" offsetx="10" offsety="0">
  <data encoding="csv">
0,0,0,0,0,0,0,0,0,0,0,0,0,0,0,0,0,0,0,0,0,0,0,0,0,0,0,0,0,0,0,0,0,0,0,0,0,0,0,0,0,0,0,0,0,0,0,0,0,0,0,0,0,0,0,0,0,0,0,0,0,0,0,0,0,0,0,0,0,0,0,0,0,0,0,0,0,0,0,0,0,0,0,0,0,0,0,0,0,0,0,0,0,0,0,0,0,0,0,0,0,0,
0,0,0,0,0,0,0,0,0,0,0,0,0,0,0,0,0,0,0,0,0,0,0,0,0,0,0,0,0,0,0,0,0,0,0,0,0,0,0,0,0,0,0,0,0,0,0,0,0,0,0,0,0,0,0,0,0,0,0,0,0,0,0,0,0,0,0,0,0,0,0,0,0,0,0,0,0,0,0,0,0,0,0,0,0,0,0,0,0,0,0,0,0,0,0,0,0,0,0,0,0,0,
0,0,0,0,0,0,0,0,0,0,0,0,0,57,0,0,0,0,0,0,0,0,0,0,0,0,0,0,0,0,0,0,0,0,0,0,0,0,0,0,0,0,0,0,0,0,0,0,0,0,0,0,0,0,0,0,0,0,0,0,0,0,0,0,0,0,0,0,0,0,0,0,0,0,0,0,0,0,0,0,0,0,0,0,0,0,0,0,0,0,0,0,0,0,0,0,0,0,0,0,0,0,
0,0,0,0,0,0,0,0,0,0,0,0,67,57,0,0,0,0,0,0,0,0,0,0,0,0,0,0,0,0,0,0,0,0,0,0,0,0,0,0,0,0,0,0,0,0,0,0,0,0,0,0,0,0,0,0,0,0,0,0,0,0,0,0,0,0,0,0,0,0,0,0,0,0,0,0,0,0,0,0,0,0,0,0,0,0,0,0,0,0,0,0,0,0,0,0,0,0,0,0,0,0,
0,0,0,0,0,0,0,0,0,0,0,0,67,57,0,0,0,0,0,0,0,0,0,0,0,0,0,0,0,0,0,0,0,0,0,0,0,0,0,0,0,0,0,0,0,0,0,0,0,0,0,0,0,0,0,0,0,0,0,0,0,0,0,0,0,0,0,0,0,0,0,0,0,0,0,0,0,0,0,0,0,0,0,0,0,0,0,0,0,0,0,0,0,0,0,0,0,0,0,0,0,0,
0,0,0,0,0,0,0,0,0,0,0,0,67,57,0,0,0,0,0,0,0,0,0,0,0,0,0,0,0,0,0,0,0,0,0,0,0,0,0,0,0,0,0,0,0,0,0,0,0,0,0,0,0,0,0,0,0,0,0,0,0,0,0,0,0,0,0,0,0,0,0,0,0,0,0,0,0,0,0,0,0,0,0,0,0,0,0,0,0,0,0,0,0,0,0,0,0,0,0,0,0,0,
0,0,0,0,0,0,0,0,0,0,0,0,0,0,0,0,0,0,0,0,0,0,0,0,0,0,0,0,0,0,0,0,0,0,0,0,0,0,0,0,0,0,0,0,0,0,0,0,0,0,0,0,0,0,0,0,0,0,0,0,0,0,0,0,0,0,0,0,0,0,0,0,0,0,0,0,0,0,0,0,0,0,0,0,0,0,0,0,0,0,0,0,0,0,0,0,0,0,0,0,0,0,
0,0,0,0,0,0,0,0,0,0,0,0,0,0,0,0,0,0,0,0,0,0,0,0,0,0,0,0,0,0,0,0,0,0,0,0,0,0,0,0,0,0,0,0,0,0,0,0,0,0,0,0,0,0,0,0,0,0,0,0,0,0,0,0,0,0,0,0,0,0,0,0,0,0,0,0,0,0,0,0,0,0,0,0,0,0,0,0,0,0,0,0,0,0,0,0,0,0,0,0,0,0,
0,0,0,0,0,0,0,0,0,0,0,0,0,0,0,0,0,0,0,0,0,0,0,0,0,0,0,0,0,0,0,0,0,0,0,0,0,0,0,0,0,0,0,0,0,0,0,0,0,0,0,0,0,0,0,0,0,0,0,0,0,0,0,0,0,0,0,0,0,0,0,0,0,0,0,0,0,0,0,0,0,0,0,0,0,0,0,0,0,0,0,0,0,0,0,0,0,0,0,0,0,0,
0,0,0,0,0,0,0,0,0,0,0,0,0,0,0,0,0,0,0,0,0,0,0,0,0,0,0,0,0,0,0,0,0,0,0,0,0,0,0,0,0,0,0,0,0,0,0,0,0,0,0,0,0,0,0,0,0,0,0,0,0,0,0,0,0,0,0,0,0,0,0,0,0,0,0,0,0,0,0,0,0,0,0,0,0,0,0,0,0,0,0,0,0,0,0,0,0,0,0,0,0,0,
0,0,0,0,0,0,0,0,0,0,0,0,0,0,0,0,0,0,0,0,0,0,0,0,0,0,0,0,0,0,0,0,0,0,0,0,0,0,0,0,0,0,0,0,0,0,0,0,0,0,0,0,0,0,0,0,0,0,0,0,0,0,0,0,0,0,0,0,0,0,0,0,0,0,0,0,0,0,0,0,0,0,0,0,0,0,0,0,0,0,0,0,0,0,0,0,0,0,0,0,0,0,
0,0,0,0,0,0,0,0,0,0,0,0,0,0,0,0,0,0,0,0,0,0,0,0,0,0,0,0,0,0,0,0,0,0,0,0,0,0,0,0,0,0,0,0,0,0,0,0,0,0,0,0,0,0,0,0,0,0,0,0,0,0,0,0,0,0,0,0,0,0,0,0,0,0,0,0,0,0,0,0,0,0,0,0,0,0,0,0,0,0,0,0,0,0,0,0,0,0,0,0,0,0
</data>
 </layer>
 <layer id="3" name="tile2" width="102" height="12">
  <data encoding="csv">
0,0,0,0,0,0,0,0,0,0,0,0,0,0,0,0,0,0,0,0,0,0,0,0,0,0,0,0,0,0,0,0,0,0,0,0,0,0,0,0,0,0,0,0,0,0,0,0,0,0,0,0,0,0,0,0,0,0,0,0,0,0,0,0,0,0,0,0,0,0,0,0,0,0,0,0,0,0,0,0,0,0,0,0,0,0,0,0,0,0,0,0,0,0,0,0,0,0,0,0,0,0,
0,0,0,0,0,0,0,0,0,0,0,0,0,0,0,0,0,0,0,0,0,0,0,0,0,0,0,0,0,0,0,0,0,0,0,0,0,0,0,0,0,0,0,0,0,0,0,0,0,0,0,0,0,0,0,0,0,0,0,0,0,0,0,0,0,0,0,0,0,0,0,0,0,0,0,0,0,0,0,0,0,0,0,0,0,0,0,0,0,0,0,0,0,0,0,0,0,0,0,0,0,0,
0,0,0,0,0,0,0,0,0,0,0,0,0,0,0,0,0,0,0,0,0,0,0,0,0,0,0,0,0,0,0,0,0,0,0,0,0,0,0,0,0,0,0,0,0,0,0,0,0,0,0,0,0,0,0,0,0,0,0,0,0,0,0,0,0,0,0,0,0,0,0,0,0,0,0,0,0,0,0,0,0,0,0,0,0,0,0,0,0,0,0,0,0,0,0,0,0,0,0,0,0,0,
0,0,0,69,0,0,0,0,0,0,0,0,0,0,0,0,0,0,0,0,0,0,0,0,0,0,0,0,0,0,0,0,0,0,0,0,0,0,0,0,0,0,0,0,0,0,0,0,0,0,0,0,0,0,0,0,0,0,0,0,0,0,0,0,0,0,0,0,0,0,0,0,0,0,0,0,0,0,0,0,0,0,0,0,0,0,0,0,0,0,0,0,0,0,0,0,0,0,0,0,0,0,
0,0,0,69,0,0,0,0,0,0,0,0,0,0,0,0,0,0,0,0,0,0,0,0,0,0,0,0,0,0,0,0,0,0,0,0,0,0,0,0,0,0,0,0,0,0,0,0,0,0,0,0,0,0,0,0,0,0,0,0,0,0,0,0,0,0,0,0,0,0,0,0,0,0,0,0,0,0,0,0,0,0,0,0,0,0,0,0,0,0,0,0,0,0,0,0,0,0,0,0,0,0,
0,0,0,69,0,0,0,0,0,0,0,0,0,0,0,0,0,0,0,0,0,0,0,0,0,0,0,0,0,0,0,0,0,0,0,0,0,0,0,0,0,0,0,0,0,0,0,69,0,0,0,0,0,0,0,0,0,0,0,0,0,0,0,0,0,0,0,0,67,0,0,0,0,0,0,0,0,0,0,0,0,0,0,0,0,0,0,0,0,0,0,0,0,0,0,0,0,0,0,0,0,0,
0,0,0,69,118,0,0,0,0,0,0,0,0,0,0,0,0,0,0,0,0,0,0,0,0,0,0,0,0,0,0,0,0,0,0,0,0,0,0,28,0,0,0,26,0,0,0,0,0,0,0,0,0,0,0,0,0,0,0,0,0,0,0,0,0,0,0,0,0,0,0,0,0,0,0,0,0,0,0,0,0,0,0,0,0,0,0,28,0,0,26,0,0,0,0,0,0,0,120,0,0,0,
0,0,0,69,0,0,0,0,0,0,0,0,0,0,0,0,0,0,0,0,0,0,0,0,0,0,0,0,0,0,0,0,0,0,0,0,0,0,0,0,0,0,0,0,0,0,0,0,0,0,0,0,0,0,0,0,0,0,0,0,0,0,0,0,0,0,0,0,0,0,0,0,0,0,0,0,0,0,0,0,0,0,0,0,0,0,0,0,0,0,0,0,0,0,0,0,0,0,0,0,0,0,
0,0,0,69,0,0,0,0,0,0,0,0,0,0,0,0,0,0,0,0,0,0,0,0,0,0,0,0,0,0,0,0,0,0,0,0,0,0,0,0,0,0,0,0,0,0,0,0,0,0,0,0,0,0,0,0,0,0,0,0,0,0,0,0,0,0,0,0,0,0,0,0,0,0,0,0,0,0,0,0,0,0,0,0,0,0,0,0,0,0,0,0,0,0,0,0,0,0,0,0,0,0,
0,0,0,69,0,0,0,0,0,0,0,0,0,0,0,0,0,0,0,0,0,0,0,0,0,0,0,0,0,0,0,0,0,0,0,0,0,0,0,0,0,0,0,0,0,0,0,0,0,0,0,0,0,0,0,0,0,0,0,0,0,0,0,0,0,0,0,0,0,0,0,0,0,0,0,0,0,0,0,0,0,0,0,0,0,0,0,0,0,0,0,0,0,0,0,0,0,0,0,0,0,0,
0,0,0,69,26,0,0,0,0,0,0,0,0,0,0,0,0,0,0,0,0,0,0,0,0,0,0,0,0,0,0,0,0,0,0,0,0,0,0,120,0,0,0,118,0,0,0,0,0,0,0,0,0,0,0,0,0,0,0,0,0,0,0,0,0,0,0,0,0,0,0,0,0,0,0,0,0,0,0,0,0,0,0,0,0,0,0,0,0,0,0,0,0,0,0,0,0,0,28,0,0,0,
0,0,0,0,0,0,0,0,0,0,0,0,0,0,0,0,0,0,0,0,0,0,0,0,0,0,0,0,0,0,0,0,0,0,0,0,0,0,0,0,0,0,0,0,0,0,0,0,0,0,0,0,0,0,0,0,0,0,0,0,0,0,0,0,0,0,0,0,0,0,0,0,0,0,0,0,0,0,0,0,0,0,0,0,0,0,0,0,0,0,0,0,0,0,0,0,0,0,0,0,150,151
</data>
 </layer>
 <group id="8" name="tree">
  <layer id="6" name="treeunder" width="102" height="12" offsetx="0" offsety="-20">
   <data encoding="csv">
0,0,0,0,0,0,0,0,0,0,0,0,0,0,0,0,0,0,0,0,0,0,0,0,0,0,0,0,0,0,0,0,0,0,0,0,0,0,0,0,0,0,0,0,0,0,104,105,0,0,0,0,0,0,0,0,0,0,0,0,0,0,0,0,0,0,0,0,0,150,0,0,0,0,0,0,0,0,0,0,0,0,0,0,0,0,0,0,0,0,0,0,0,0,0,0,0,0,149,0,0,0,
0,0,0,0,0,0,0,0,0,0,0,0,0,0,0,0,0,0,0,0,0,0,0,0,0,0,0,0,0,0,0,0,0,0,0,0,172,0,0,0,0,0,0,0,0,0,115,0,0,0,0,0,0,0,0,0,0,0,0,0,0,0,0,0,0,0,0,0,0,0,0,0,0,0,0,0,0,0,0,0,0,0,0,0,0,0,0,0,0,0,0,0,0,0,0,0,0,0,149,0,0,0,
0,0,173,0,0,0,0,0,0,0,0,0,0,0,0,0,0,0,0,0,0,0,0,0,0,0,0,0,0,0,0,0,0,0,0,0,0,0,0,0,0,0,0,0,0,0,0,0,0,0,0,0,0,0,0,0,0,0,0,0,0,0,0,0,0,0,0,0,0,0,0,0,0,0,0,0,0,0,0,0,0,0,0,0,0,0,0,0,0,0,0,0,0,0,0,0,0,0,149,0,0,0,
0,0,0,0,0,0,0,0,0,0,0,0,0,0,0,0,0,0,0,0,0,0,0,0,0,0,0,0,0,0,0,0,0,0,0,0,0,0,0,0,0,0,0,0,0,0,0,0,0,0,0,0,0,0,0,0,0,0,0,0,0,0,0,0,0,0,0,0,0,0,0,0,0,0,0,0,0,0,0,0,0,0,0,0,0,0,0,0,0,0,0,0,0,0,0,0,0,0,149,0,0,0,
0,0,0,0,0,0,0,0,0,0,0,0,0,0,0,0,0,0,0,0,0,0,0,0,0,0,0,0,0,0,0,0,0,0,0,0,0,0,0,0,0,0,0,0,0,0,0,0,0,0,0,0,0,0,0,0,0,0,0,0,0,0,0,0,0,0,0,0,0,0,0,0,0,0,0,0,0,0,0,0,0,0,0,0,0,0,0,0,0,0,0,0,0,0,0,0,0,0,160,0,0,0,
0,0,0,0,0,0,0,0,0,0,0,0,0,0,0,0,0,0,0,0,0,0,0,0,0,0,0,0,0,0,0,0,0,0,0,0,0,0,0,0,0,0,0,0,0,0,0,0,0,0,0,0,0,0,0,0,0,0,0,0,0,0,0,0,0,0,0,0,0,0,0,0,0,0,0,0,0,0,0,0,0,0,0,0,0,0,0,0,0,0,0,0,0,0,0,0,0,0,171,172,0,0,
0,0,0,0,0,0,0,0,0,0,0,0,0,0,0,0,0,0,0,0,0,0,0,0,0,0,0,0,0,0,0,0,0,0,0,0,0,0,0,0,0,0,0,0,0,0,0,0,0,0,0,0,0,0,0,0,0,0,0,0,0,0,0,0,0,0,0,0,0,0,0,0,0,0,0,0,0,0,0,0,0,0,0,0,0,0,0,0,0,0,0,0,0,0,0,0,0,0,0,0,0,0,
0,0,0,0,0,0,0,0,0,0,0,0,0,0,0,0,0,0,0,0,0,0,0,0,0,0,0,0,0,0,0,0,0,0,0,0,0,0,0,0,0,0,0,0,0,0,0,0,0,0,0,0,0,0,0,0,0,0,0,0,0,0,0,0,0,0,0,0,0,0,0,0,0,0,0,0,0,0,0,0,0,0,0,0,0,0,0,0,0,0,0,0,0,0,0,0,0,0,0,0,0,0,
0,0,0,0,0,0,0,0,0,0,0,0,0,0,0,0,0,0,0,0,0,0,0,0,0,0,0,0,0,0,0,0,0,0,0,0,0,0,0,0,0,0,0,0,0,0,0,0,0,0,0,0,0,0,0,0,0,0,0,0,0,0,0,0,0,0,0,0,0,0,0,0,0,0,0,0,0,0,0,0,0,0,0,0,0,0,0,0,0,0,0,0,0,0,0,0,0,0,0,0,0,0,
0,0,0,0,0,0,0,0,0,0,0,0,0,0,0,0,0,0,0,0,0,0,0,0,0,0,0,0,0,0,0,0,0,0,0,0,0,0,0,0,0,0,0,0,0,0,0,0,0,0,0,0,0,0,0,0,0,0,0,0,0,0,0,0,0,0,0,0,0,0,0,0,0,0,0,0,0,0,0,0,0,0,0,0,0,0,0,0,0,0,0,0,0,0,0,0,0,0,0,0,0,0,
0,0,0,0,0,0,0,0,0,0,0,0,0,0,0,0,0,0,0,0,0,0,0,0,0,0,0,0,0,0,0,0,0,0,0,0,0,0,0,0,0,0,0,0,0,0,0,0,0,0,0,0,0,0,0,0,0,0,0,0,0,0,0,0,0,0,0,0,0,0,0,0,0,0,0,0,0,0,0,0,0,0,0,0,0,0,0,0,0,0,0,0,0,0,0,0,0,0,0,0,0,0,
0,0,0,0,0,0,0,0,0,0,0,0,0,0,0,0,0,0,0,0,0,0,0,0,0,0,0,0,0,0,0,0,0,0,0,0,0,0,0,0,0,0,0,0,0,0,0,0,0,0,0,0,0,0,0,0,0,0,0,0,0,0,0,0,0,0,0,0,0,0,0,0,0,0,0,0,0,0,0,0,0,0,0,0,0,0,0,0,0,0,0,0,0,0,0,0,0,0,0,0,151,150
</data>
  </layer>
  <layer id="5" name="tree" width="102" height="12" offsetx="0" offsety="-20">
   <data encoding="csv">
150,151,152,151,152,151,152,151,152,151,152,151,152,151,152,151,152,151,152,151,151,152,151,152,151,151,152,151,152,150,151,152,150,151,152,150,151,152,95,0,0,0,0,0,93,94,95,0,150,151,152,150,151,152,150,151,150,151,151,151,151,151,151,151,151,151,151,151,151,149,152,152,153,0,0,0,0,0,0,0,0,0,0,0,0,0,0,0,0,0,0,0,0,0,0,0,0,0,0,150,151,152,
150,151,150,161,162,161,162,161,162,161,162,161,162,161,162,161,162,161,162,161,161,162,163,162,163,162,161,162,161,162,161,162,161,162,163,162,149,152,95,0,0,0,0,0,93,94,95,211,160,161,162,163,162,163,162,163,162,161,162,161,162,161,162,161,162,163,162,161,162,93,151,152,153,0,0,0,0,0,0,0,0,0,0,0,0,0,0,0,0,0,0,0,0,0,0,0,0,0,0,150,151,152,
150,151,153,172,173,174,173,174,173,174,173,174,173,174,173,174,173,174,173,174,174,173,174,173,174,173,172,173,172,173,172,173,172,173,174,173,104,105,106,0,0,0,0,0,93,94,95,0,155,156,157,158,157,158,157,158,157,158,173,158,173,158,173,158,173,172,173,172,173,93,152,152,153,0,0,0,0,0,0,0,0,0,0,0,0,0,0,0,0,0,0,0,0,0,0,0,0,0,0,150,151,150,
150,151,153,0,0,0,0,0,0,0,0,0,0,0,0,0,0,0,0,0,0,0,0,0,0,0,0,0,0,0,0,0,0,0,0,0,115,116,117,0,0,0,0,0,93,94,95,0,0,0,0,0,0,0,0,0,0,0,0,0,0,0,0,0,0,0,0,0,0,93,151,152,153,0,0,0,0,0,0,0,0,0,0,0,0,0,0,0,0,0,0,0,0,0,0,0,0,0,0,150,151,150,
150,151,153,0,0,0,0,0,0,0,0,0,0,0,0,0,0,0,0,0,0,0,0,0,0,0,0,0,0,0,0,0,0,0,0,0,0,0,0,0,0,0,0,0,104,105,106,0,0,0,0,0,0,0,0,0,0,0,0,0,0,0,0,0,0,0,0,0,0,104,161,161,164,0,0,0,0,0,0,0,0,0,0,0,0,0,0,0,0,0,0,0,0,0,0,0,0,0,0,161,150,151,
150,151,153,0,0,0,0,0,0,0,0,0,0,0,0,0,0,0,0,0,0,0,0,0,0,0,0,0,0,0,0,0,0,0,0,0,0,0,0,0,0,0,0,0,115,116,117,0,0,0,0,0,0,0,0,0,0,0,0,0,0,0,0,0,0,0,0,0,0,115,172,172,175,0,0,0,0,0,0,0,0,0,0,0,0,0,0,0,0,0,0,0,0,0,0,0,0,0,0,149,151,150,
150,151,153,0,0,0,0,0,0,0,0,0,0,0,0,0,0,0,0,0,0,0,0,0,0,0,0,0,0,0,0,0,0,0,0,0,0,0,0,0,0,0,0,0,0,0,0,0,0,0,0,0,0,0,0,0,0,0,0,0,0,0,0,0,0,0,0,0,0,0,0,0,0,0,0,0,0,0,0,0,0,0,0,0,0,0,0,0,0,0,0,0,0,0,0,0,0,0,0,149,150,151,
150,151,153,0,0,0,0,0,0,0,0,0,0,0,0,0,0,0,0,0,0,0,0,0,0,0,0,0,0,0,0,0,0,0,0,0,0,0,0,0,0,0,0,0,0,0,0,0,0,0,0,0,0,0,0,0,0,0,0,0,0,0,0,0,0,0,0,0,0,0,0,0,0,0,0,0,0,0,0,0,0,0,0,0,0,0,0,0,0,0,0,0,0,0,0,0,0,0,0,149,151,150,
150,151,153,0,0,0,0,0,0,0,0,0,0,0,0,0,0,0,0,0,0,0,0,0,0,0,0,0,0,0,0,0,0,0,0,0,0,0,0,0,0,0,0,0,0,0,0,0,0,0,0,0,0,0,0,0,0,0,0,0,0,0,0,0,0,0,0,0,0,0,0,0,0,0,0,0,0,0,0,0,0,0,0,0,0,0,0,0,0,0,0,0,0,0,0,0,0,0,0,149,150,151,
150,151,153,0,0,0,0,0,0,0,0,0,0,0,0,0,0,0,0,0,0,0,0,0,0,0,0,0,0,0,0,0,0,0,0,0,0,0,0,0,0,0,0,0,0,0,0,0,0,0,0,0,0,0,0,0,0,0,0,0,0,0,0,0,0,0,0,0,0,0,0,0,0,0,0,0,0,0,0,0,0,0,0,0,0,0,0,0,0,0,0,0,0,0,0,0,0,0,0,149,151,150,
150,151,153,0,0,0,0,0,0,0,0,0,0,0,0,0,0,0,0,0,0,0,0,0,0,0,0,0,0,0,0,0,0,0,0,0,0,0,0,0,0,0,0,0,0,0,0,0,0,0,0,0,0,0,0,0,0,0,0,0,0,0,0,0,0,0,0,0,0,0,0,0,0,0,0,0,0,0,0,0,0,0,0,0,0,0,0,0,0,0,0,0,0,0,0,0,0,0,0,149,150,151,
0,0,0,0,0,0,0,0,0,0,0,0,0,0,0,0,0,0,0,0,0,0,0,0,0,0,0,0,0,0,0,0,0,0,0,0,0,0,0,0,0,0,0,0,0,0,0,0,0,0,0,0,0,0,0,0,0,0,0,0,0,0,0,0,0,0,0,0,0,0,0,0,0,0,0,0,0,0,0,0,0,0,0,0,0,0,0,0,0,0,0,0,0,0,0,0,0,0,0,149,140,139
</data>
  </layer>
  <layer id="7" name="treeup" width="102" height="12">
   <data encoding="csv">
0,0,0,0,0,0,0,0,0,0,0,0,0,0,0,0,0,0,0,0,0,0,0,0,0,0,0,0,0,0,0,0,0,0,0,0,0,0,0,0,0,0,0,0,0,0,0,0,0,0,0,0,0,0,0,0,0,0,0,0,0,0,0,0,0,0,0,0,0,0,0,0,0,0,0,0,0,0,0,0,0,0,0,0,0,0,0,0,0,0,0,0,0,0,0,0,0,0,0,0,0,0,
0,0,0,0,0,0,0,0,0,0,0,0,0,0,0,0,0,0,0,0,0,0,0,0,0,0,0,0,0,0,0,0,0,0,0,0,0,0,0,0,0,0,0,0,0,0,0,0,0,0,0,0,0,0,0,0,0,0,0,0,0,0,0,0,0,0,0,0,0,0,0,0,0,0,0,0,0,0,0,0,0,0,0,0,0,0,0,0,0,0,0,0,0,0,0,0,0,0,0,0,0,0,
0,0,0,0,0,0,0,0,0,0,0,0,0,0,0,0,0,0,0,0,0,0,0,0,0,0,0,0,0,0,0,0,0,0,0,0,0,0,0,0,0,0,0,0,0,0,0,0,0,0,0,0,0,0,0,0,0,0,0,0,0,0,0,0,0,0,0,0,0,0,0,0,0,0,0,0,0,0,0,0,0,0,0,0,0,0,0,0,0,0,0,0,0,0,0,0,0,0,0,0,0,0,
0,0,0,0,0,0,0,0,0,0,0,0,0,0,0,0,0,0,0,0,0,0,0,0,0,0,0,0,0,0,0,0,0,0,0,0,0,0,0,0,0,0,0,0,0,0,0,0,0,0,0,0,0,0,0,0,0,0,0,0,0,0,0,0,0,0,0,0,0,0,0,0,0,0,0,0,0,0,0,0,0,0,0,0,0,0,0,0,0,0,0,0,0,0,0,0,0,0,0,0,0,0,
0,0,0,0,0,0,0,0,0,0,0,0,0,0,0,0,0,0,0,0,0,0,0,0,0,0,0,0,0,0,0,0,0,0,0,0,0,0,0,0,0,0,0,0,0,0,0,0,0,0,0,0,0,0,0,0,0,0,0,0,0,0,0,0,0,0,0,0,0,0,0,0,0,0,0,0,0,0,0,0,0,0,0,0,0,0,0,0,0,0,0,0,0,0,0,0,0,0,0,0,0,0,
0,0,0,0,0,0,0,0,0,0,0,0,0,0,0,0,0,0,0,0,0,0,0,0,0,0,0,0,0,0,0,0,0,0,0,0,0,0,0,0,0,0,0,0,0,0,0,0,0,0,0,0,0,0,0,0,0,0,0,0,0,0,0,0,0,0,0,0,0,0,0,0,0,0,0,0,0,0,0,0,0,0,0,0,0,0,0,0,0,0,0,0,0,0,0,0,0,0,0,0,0,0,
0,0,0,0,0,0,0,0,0,0,0,0,0,0,0,0,0,0,0,0,0,0,0,0,0,0,0,0,0,0,0,0,0,0,0,0,0,0,0,0,0,0,0,0,0,0,0,0,0,0,0,0,0,0,0,0,0,0,0,0,0,0,0,0,0,0,0,0,0,0,0,0,0,0,0,0,0,0,0,0,0,0,0,0,0,0,0,0,0,0,0,0,0,0,0,0,0,0,0,0,0,0,
0,0,0,0,0,0,0,0,0,0,0,0,0,0,0,0,0,0,0,0,0,0,0,0,0,0,0,0,0,0,0,0,0,0,0,0,0,0,0,0,0,0,0,0,0,0,0,0,0,0,0,0,0,0,0,0,0,0,0,0,0,0,0,0,0,0,0,0,0,0,0,0,0,0,0,0,0,0,0,0,0,0,0,0,0,0,0,0,0,0,0,0,0,0,0,0,0,0,0,0,0,0,
0,0,0,0,0,0,0,0,0,0,0,0,0,0,0,0,0,0,0,0,0,0,0,0,0,0,0,0,0,0,0,0,0,0,0,0,0,0,0,0,0,0,0,0,0,0,0,0,0,0,0,0,0,0,0,0,0,0,0,0,0,0,0,0,0,0,0,0,0,0,0,0,0,0,0,0,0,0,0,0,0,0,0,0,0,0,0,0,0,0,0,0,0,0,0,0,0,0,0,0,0,0,
0,0,0,0,0,0,0,0,0,0,0,0,0,0,0,0,0,0,0,0,0,0,0,0,0,0,0,0,0,0,0,0,0,0,0,0,0,0,0,0,0,0,0,0,0,0,0,0,0,0,0,0,0,0,0,0,0,0,0,0,0,0,0,0,0,0,0,0,0,0,0,0,0,0,0,0,0,0,0,0,0,0,0,0,0,0,0,0,0,0,0,0,0,0,0,0,0,0,0,0,0,0,
0,0,0,0,0,0,0,0,0,0,0,0,0,0,0,0,0,0,0,0,0,0,0,0,0,0,0,0,0,0,0,0,0,0,0,0,0,0,0,0,0,0,0,0,0,0,0,0,0,0,0,0,0,0,0,0,0,0,0,0,0,0,0,0,0,0,0,0,0,0,0,0,0,0,0,0,0,0,0,0,0,0,0,0,0,0,0,0,0,0,0,0,0,0,0,0,0,0,0,0,0,0,
0,0,0,0,0,0,0,0,0,0,0,0,0,0,0,0,0,0,0,0,0,0,0,0,0,0,0,0,0,0,0,0,0,0,0,0,0,0,0,0,0,0,0,0,0,0,0,0,0,0,0,0,0,0,0,0,0,0,0,0,0,0,0,0,0,0,0,0,0,0,0,0,0,0,0,0,0,0,0,0,0,0,0,0,0,0,0,0,0,0,0,0,0,0,0,0,0,0,0,149,0,0
</data>
  </layer>
 </group>
 <objectgroup id="43" name="objects_evening_tree" visible="0">
  <object id="238" gid="611" x="3916" y="480" width="164" height="480">
   <properties>
    <property name="overcast_fade" type="bool" value="true"/>
    <property name="sunset" type="int" value="1"/>
   </properties>
  </object>
  <object id="239" gid="612" x="2696" y="226" width="232" height="226">
   <properties>
    <property name="overcast_fade" type="bool" value="true"/>
    <property name="sunset" type="int" value="1"/>
   </properties>
  </object>
  <object id="240" gid="613" x="2280" y="110" width="142" height="110">
   <properties>
    <property name="overcast_fade" type="bool" value="true"/>
    <property name="sunset" type="int" value="1"/>
   </properties>
  </object>
  <object id="241" gid="614" x="838" y="112" width="172" height="112">
   <properties>
    <property name="overcast_fade" type="bool" value="true"/>
    <property name="sunset" type="int" value="1"/>
   </properties>
  </object>
  <object id="242" gid="615" x="0" y="444" width="530" height="480">
   <properties>
    <property name="overcast_fade" type="bool" value="true"/>
    <property name="sunset" type="int" value="1"/>
   </properties>
  </object>
  <object id="243" gid="616" x="1444" y="140" width="110" height="140">
   <properties>
    <property name="overcast_fade" type="bool" value="true"/>
    <property name="sunset" type="int" value="1"/>
   </properties>
  </object>
  <object id="244" gid="618" x="4000" y="480" width="80" height="146">
   <properties>
    <property name="overcast_fade" type="bool" value="true"/>
    <property name="sunset" type="int" value="1"/>
   </properties>
  </object>
  <object id="245" gid="617" x="1764" y="220" width="122" height="220">
   <properties>
    <property name="overcast_fade" type="bool" value="true"/>
    <property name="sunset" type="int" value="1"/>
   </properties>
  </object>
 </objectgroup>
 <objectgroup id="29" name="objects_deco">
  <object id="53" gid="345" x="1000" y="240" width="446" height="280"/>
  <object id="54" gid="338" x="530" y="234" width="336" height="284"/>
  <object id="55" gid="326" x="3200" y="232" width="280" height="372"/>
  <object id="56" gid="327" x="2920" y="232" width="280" height="372"/>
  <object id="57" gid="328" x="3640" y="232" width="280" height="372"/>
  <object id="58" gid="347" x="1880" y="234" width="424" height="334"/>
  <object id="59" gid="346" x="2360" y="234" width="414" height="406"/>
 </objectgroup>
 <objectgroup id="46" name="objects_evening" visible="0">
  <object id="248" gid="654" x="2360" y="234" width="414" height="406">
   <properties>
    <property name="overcast_fade" type="bool" value="true"/>
    <property name="sunset" type="int" value="1"/>
   </properties>
  </object>
  <object id="249" gid="649" x="1000" y="240" width="446" height="280">
   <properties>
    <property name="overcast_fade" type="bool" value="true"/>
    <property name="sunset" type="int" value="1"/>
   </properties>
  </object>
 </objectgroup>
 <objectgroup id="39" name="objects_morning" visible="0">
  <object id="221" gid="446" x="1000" y="240" width="446" height="280">
   <properties>
    <property name="sunrise" type="int" value="1"/>
   </properties>
  </object>
  <object id="222" gid="460" x="2920" y="232" width="280" height="372">
   <properties>
    <property name="sunrise" type="int" value="1"/>
   </properties>
  </object>
  <object id="223" gid="459" x="3200" y="233" width="280" height="372">
   <properties>
    <property name="sunrise" type="int" value="1"/>
   </properties>
  </object>
  <object id="224" gid="461" x="3640" y="232" width="280" height="372">
   <properties>
    <property name="sunrise" type="int" value="1"/>
   </properties>
  </object>
  <object id="231" gid="462" x="530" y="234" width="336" height="284">
   <properties>
    <property name="sunrise" type="int" value="1"/>
   </properties>
  </object>
 </objectgroup>
 <objectgroup color="#ff00ff" id="20" name="objects_party">
  <object id="26" name="transition" x="1560" y="-40" width="200" height="40">
   <properties>
    <property name="facing" value="up"/>
    <property name="map" value="light/hometown/town_north"/>
    <property name="marker" value="entrysouth"/>
   </properties>
  </object>
  <object id="27" name="transition" x="1560" y="480" width="200" height="40">
   <properties>
    <property name="facing" value="down"/>
    <property name="map" value="light/hometown/town_south"/>
    <property name="marker" value="spawn"/>
   </properties>
  </object>
  <object id="28" name="transition" x="3480" y="-40" width="160" height="40">
   <properties>
    <property name="facing" value="up"/>
    <property name="map" value="light/hometown/apartments"/>
    <property name="marker" value="spawn"/>
   </properties>
  </object>
  <object id="31" name="transition" x="1194" y="192" width="58" height="40">
   <properties>
    <property name="exit_delay" type="float" value="0.3"/>
    <property name="exit_sound" value="doorclose"/>
    <property name="facing" value="up"/>
    <property name="map" value="light/hometown/interior/qc_diner"/>
    <property name="marker" value="spawn"/>
    <property name="sound" value="dooropen"/>
   </properties>
  </object>
  <object id="32" name="interactable" x="2542" y="136" width="68" height="80">
   <properties>
    <property name="cutscene" value="hometown.papyrushouse"/>
    <property name="solid" type="bool" value="true"/>
   </properties>
  </object>
  <object id="33" name="transition" x="2172" y="168" width="86" height="40">
   <properties>
    <property name="exit_delay" type="float" value="0.3"/>
    <property name="exit_sound" value="doorclose"/>
    <property name="facing" value="up"/>
    <property name="map" value="light/hometown/interior/sans_store"/>
    <property name="marker" value="spawn"/>
    <property name="sound" value="dooropen"/>
   </properties>
  </object>
  <object id="35" name="transition" x="610" y="192" width="110" height="40">
   <properties>
    <property name="exit_delay" type="float" value="0.3"/>
    <property name="exit_sound" value="doorclose"/>
    <property name="facing" value="up"/>
    <property name="map" value="light/hometown/interior/icee_room"/>
    <property name="marker" value="spawn"/>
    <property name="sound" value="dooropen"/>
   </properties>
  </object>
  <object id="48" name="interactable" x="744" y="194" width="70" height="40">
   <properties>
    <property name="text" value="* (Here at ICE-E'S PEZZA, You're Family.)"/>
   </properties>
  </object>
  <object id="49" name="interactable" x="548" y="194" width="50" height="40">
   <properties>
    <property name="text" value="* (Here at ICE-E'S PEZZA, You're Family.)"/>
   </properties>
  </object>
  <object id="50" name="interactable" x="3036" y="174" width="48" height="66">
   <properties>
    <property name="text1" value="* (It's locked...)"/>
    <property name="text2" value="* (...[wait:5] the town it's pretty empty today.)"/>
   </properties>
  </object>
  <object id="51" name="interactable" x="3316" y="174" width="48" height="66">
   <properties>
    <property name="text1" value="* (It's locked...)"/>
    <property name="text2" value="* (...[wait:5] the town it's pretty empty today.)"/>
   </properties>
  </object>
  <object id="52" name="interactable" x="3756" y="174" width="48" height="66">
   <properties>
    <property name="cutscene" value="hometown.susie_house"/>
   </properties>
  </object>
  <object id="64" gid="409" x="1920" y="178" width="230" height="92">
   <properties>
    <property name="day" type="int" value="1"/>
    <property name="rain" type="int" value="0"/>
   </properties>
  </object>
  <object id="68" gid="410" x="1930" y="170" width="210" height="76">
   <properties>
    <property name="day" type="int" value="1"/>
    <property name="rain" type="int" value="1"/>
   </properties>
  </object>
  <object id="70" name="savepoint" x="1480" y="179" width="40" height="40"/>
 </objectgroup>
 <objectgroup id="31" name="objects_above">
  <object id="67" name="sprite" x="2008" y="118" width="54" height="28">
   <properties>
    <property name="cond" value="Game:getFlag(&quot;hometown_time&quot;, &quot;day&quot;) == &quot;day&quot; and not Game.stage:hasWeather(&quot;rain&quot;)"/>
    <property name="scalex" type="float" value="2"/>
    <property name="scaley" type="float" value="2"/>
    <property name="speed" type="float" value="0.5"/>
    <property name="texture" value="world/maps/hometown/store_sign_open"/>
   </properties>
  </object>
  <object id="232" gid="473" x="552" y="126" width="314" height="118"/>
 </objectgroup>
 <objectgroup color="#ff00ff" id="21" name="markers">
  <object id="24" name="spawn" x="1660" y="40">
   <point/>
  </object>
  <object id="25" name="entrysouth" x="1660" y="440">
   <point/>
  </object>
  <object id="29" name="entryeast" x="3560" y="40">
   <point/>
  </object>
  <object id="30" name="entrydiner" x="1222" y="260">
   <point/>
  </object>
  <object id="34" name="entrysans" x="2220" y="260">
   <point/>
  </object>
  <object id="36" name="entrypizza" x="664" y="260">
   <point/>
  </object>
 </objectgroup>
 <layer id="24" name="tree2" width="102" height="12" offsetx="0" offsety="20">
  <data encoding="csv">
0,0,0,0,0,0,0,0,0,0,0,0,0,0,0,0,0,0,0,0,0,0,0,0,0,0,0,0,0,0,0,0,0,0,0,0,0,0,0,0,0,0,0,0,0,0,0,0,0,0,0,0,0,0,0,0,0,0,0,0,0,0,0,0,0,0,0,0,0,0,0,0,0,0,0,0,0,0,0,0,0,0,0,0,0,0,0,0,0,0,0,0,0,0,0,0,0,0,0,0,0,0,
0,0,0,0,0,0,0,0,0,0,0,0,0,0,0,0,0,0,0,0,0,0,0,0,0,0,0,0,0,0,0,0,0,0,0,0,0,0,0,0,0,0,0,0,0,0,0,0,0,0,0,0,0,0,0,0,0,0,0,0,0,0,0,0,0,0,0,0,0,0,0,0,0,0,0,0,0,0,0,0,0,0,0,0,0,0,0,0,0,0,0,0,0,0,0,0,0,0,0,0,0,0,
0,0,0,0,0,0,0,0,0,0,0,0,0,0,0,0,0,0,0,0,0,0,0,0,0,0,0,0,0,0,0,0,0,0,0,0,0,0,0,0,0,0,0,0,0,0,0,0,0,0,0,0,0,0,0,0,0,0,0,0,0,0,0,0,0,0,0,0,0,0,0,0,0,0,0,0,0,0,0,0,0,0,0,0,0,0,0,0,0,0,0,0,0,0,0,0,0,0,0,0,0,0,
0,0,0,0,0,0,0,0,0,0,0,0,0,0,0,0,0,0,0,0,0,0,0,0,0,0,0,0,0,0,0,0,0,0,0,0,0,0,0,0,0,0,0,0,0,0,0,0,0,0,0,0,0,0,0,0,0,0,0,0,0,0,0,0,0,0,0,0,0,0,0,0,0,0,0,0,0,0,0,0,0,0,0,0,0,0,0,0,0,0,0,0,0,0,0,0,0,0,0,0,0,0,
0,0,0,0,0,0,0,0,0,0,0,0,0,0,0,0,0,0,0,0,0,0,0,0,0,0,0,0,0,0,0,0,0,0,0,0,0,0,0,0,0,0,0,0,0,0,0,0,0,0,0,0,0,0,0,0,0,0,0,0,0,0,0,0,0,0,0,0,0,0,0,0,0,0,0,0,0,0,0,0,0,0,0,0,0,0,0,0,0,0,0,0,0,0,0,0,0,0,0,0,0,0,
0,0,0,0,0,0,0,0,0,0,0,0,0,0,0,0,0,0,0,0,0,0,0,0,0,0,0,0,0,0,0,0,0,0,0,0,0,0,0,0,0,0,0,0,0,0,0,0,0,0,0,0,0,0,0,0,0,0,0,0,0,0,0,0,0,0,0,0,0,0,0,0,0,0,0,0,0,0,0,0,0,0,0,0,0,0,0,0,0,0,0,0,0,0,0,0,0,0,0,0,0,0,
0,0,0,0,0,0,0,0,0,0,0,0,0,0,0,0,0,0,0,0,0,0,0,0,0,0,0,0,0,0,0,0,0,0,0,0,0,0,0,0,0,0,0,0,0,0,0,0,0,0,0,0,0,0,0,0,0,0,0,0,0,0,0,0,0,0,0,0,0,0,0,0,0,0,0,0,0,0,0,0,0,0,0,0,0,0,0,0,0,0,0,0,0,0,0,0,0,0,0,0,0,0,
0,0,0,0,0,0,0,0,0,0,0,0,0,0,0,0,0,0,0,0,0,0,0,0,0,0,0,0,0,0,0,0,0,0,0,0,0,0,0,0,0,0,0,0,0,0,0,0,0,0,0,0,0,0,0,0,0,0,0,0,0,0,0,0,0,0,0,0,0,0,0,0,0,0,0,0,0,0,0,0,0,0,0,0,0,0,0,0,0,0,0,0,0,0,0,0,0,0,0,0,0,0,
0,0,0,0,0,0,0,0,0,0,0,0,0,0,0,0,0,0,0,0,0,0,0,0,0,0,0,0,0,0,0,0,0,0,0,0,0,0,0,0,0,0,0,0,0,0,0,0,0,0,0,0,0,0,0,0,0,0,0,0,0,0,0,0,0,0,0,0,0,0,0,0,0,0,0,0,0,0,0,0,0,0,0,0,0,0,0,0,0,0,0,0,0,0,0,0,0,0,0,0,0,0,
0,0,0,0,0,0,0,0,0,0,0,0,0,0,0,0,0,0,0,0,0,0,0,0,0,0,0,0,0,0,0,0,0,0,0,0,0,0,0,0,0,0,0,0,0,0,0,0,0,0,0,0,0,0,0,0,0,0,0,0,0,0,0,0,0,0,0,0,0,0,0,0,0,0,0,0,0,0,0,0,0,0,0,0,0,0,0,0,0,0,0,0,0,0,0,0,0,0,0,0,0,0,
150,151,192,139,140,139,140,139,140,139,140,139,140,139,140,139,140,139,140,139,140,139,140,139,140,139,140,139,140,139,140,139,140,139,140,139,140,141,142,0,0,0,0,0,138,139,140,141,140,141,140,141,140,141,140,141,140,141,140,141,140,141,140,141,140,141,140,141,140,141,140,141,140,141,140,141,140,141,140,141,140,141,140,141,140,141,2147483788,2147483789,2147483788,2147483789,2147483788,2147483789,2147483788,2147483789,2147483788,2147483789,2147483788,2147483789,2147483788,2147483787,0,0,
151,150,151,150,151,152,151,152,151,152,151,152,151,152,151,152,151,152,151,152,151,152,151,152,151,152,151,152,151,152,151,152,151,152,151,152,151,152,153,0,0,0,0,0,149,150,151,150,151,150,151,150,151,150,151,150,151,150,151,150,151,150,151,150,151,150,151,150,151,150,151,150,151,150,151,150,151,150,151,150,151,150,151,150,151,150,2147483799,2147483800,2147483799,2147483800,2147483799,2147483800,2147483799,2147483800,2147483799,2147483800,2147483799,2147483800,2147483799,2147483798,0,0
</data>
 </layer>
 <objectgroup id="44" name="objects_evening_treeup" visible="0">
  <object id="236" gid="609" x="0" y="480" width="1558" height="64">
   <properties>
    <property name="overcast_fade" type="bool" value="true"/>
    <property name="sunset" type="int" value="1"/>
   </properties>
  </object>
  <object id="237" gid="610" x="1760" y="480" width="1684" height="58">
   <properties>
    <property name="overcast_fade" type="bool" value="true"/>
    <property name="sunset" type="int" value="1"/>
   </properties>
  </object>
 </objectgroup>
 <objectgroup color="#5500ff" id="9" name="collision">
  <object id="3" x="2760" y="0" width="160" height="220"/>
  <object id="4" x="1880" y="0" width="880" height="152"/>
  <object id="5" x="1760" y="0" width="120" height="220"/>
  <object id="6" x="1440" y="0" width="120" height="140"/>
  <object id="7" x="120" y="0" width="1320" height="100"/>
  <object id="8" x="0" y="0" width="120" height="480"/>
  <object id="9" x="120" y="440" width="1480" height="40"/>
  <object id="10" x="1760" y="440" width="2200" height="40"/>
  <object id="11" x="3920" y="0" width="160" height="200"/>
  <object id="12" x="3960" y="200" width="120" height="280"/>
  <object id="13" x="2920" y="0" width="560" height="240"/>
  <object id="14" x="3640" y="0" width="280" height="240"/>
  <object id="15" x="1252" y="100" width="188" height="140"/>
  <object id="16" x="1002" y="100" width="192" height="140"/>
  <object id="17" x="530" y="100" width="80" height="134"/>
  <object id="18" x="720" y="100" width="118" height="134"/>
  <object id="19" x="1880" y="100" width="292" height="120"/>
  <object id="20" x="2258" y="100" width="40" height="120"/>
  <object id="21" x="2382" y="100" width="160" height="124"/>
  <object id="22" x="2610" y="100" width="102" height="124"/>
  <object id="23" x="2712" y="100" width="48" height="120"/>
 </objectgroup>
 <group id="26" name="apartments">
  <imagelayer id="27" name="apartment1" offsetx="3440" offsety="334">
   <image source="../../../../../../assets/sprites/world/maps/hometown/apartment.png" width="280" height="372"/>
  </imagelayer>
  <imagelayer id="28" name="aparment2" offsetx="3720" offsety="334">
   <image source="../../../../../../assets/sprites/world/maps/hometown/apartment.png" width="280" height="372"/>
  </imagelayer>
  <objectgroup id="40" name="objects_above_morning">
   <object id="227" gid="459" x="3440" y="706" width="280" height="372">
    <properties>
     <property name="sunrise" type="int" value="1"/>
    </properties>
   </object>
   <object id="228" gid="459" x="3720" y="706" width="280" height="372">
    <properties>
     <property name="sunrise" type="int" value="1"/>
    </properties>
   </object>
   <object id="233" gid="472" x="552" y="126" width="314" height="118">
    <properties>
     <property name="sunrise" type="int" value="1"/>
    </properties>
   </object>
  </objectgroup>
 </group>
 <group id="32" name="shadows" visible="0">
  <objectgroup id="42" name="objects_shadows_evening_topcutout"/>
  <objectgroup id="41" name="objects_shadows_morning_topcutout">
   <object id="235" gid="472" x="552" y="126" width="314" height="118"/>
  </objectgroup>
  <objectgroup id="35" name="objects_shadows_evening_cutout" visible="0">
   <object id="255" gid="345" x="1000" y="240" width="446" height="280"/>
   <object id="267" gid="565" x="740" y="220" width="98" height="222"/>
   <object id="268" gid="565" x="740" y="234" width="78" height="14"/>
   <object id="269" gid="565" x="818" y="232" width="8" height="12"/>
   <object id="270" gid="565" x="826" y="230" width="4" height="10"/>
   <object id="271" gid="565" x="830" y="228" width="2" height="8"/>
   <object id="272" gid="565" x="832" y="226" width="2" height="6"/>
   <object id="273" gid="565" x="834" y="224" width="2" height="4"/>
   <object id="274" gid="472" x="552" y="126" width="314" height="118">
    <properties>
     <property name="sunrise" type="int" value="1"/>
    </properties>
   </object>
   <object id="275" gid="565" x="1886" y="212" width="412" height="214"/>
   <object id="276" gid="565" x="2384" y="220" width="152" height="108"/>
   <object id="277" gid="558" x="2360" y="112" width="42" height="62"/>
   <object id="278" gid="567" x="2324" y="100" width="110" height="120"/>
   <object id="279" gid="567" x="2244" y="100" width="110" height="120"/>
   <object id="280" gid="568" x="1760" y="220" width="120" height="120"/>
   <object id="281" gid="557" x="1760" y="100" width="120" height="40"/>
   <object id="282" gid="557" x="1760" y="60" width="120" height="40"/>
   <object id="283" gid="557" x="1760" y="20" width="120" height="40"/>
   <object id="284" gid="568" x="1440" y="140" width="120" height="120"/>
   <object id="285" gid="557" x="1440" y="20" width="120" height="40"/>
   <object id="287" gid="567" x="924" y="100" width="110" height="120"/>
   <object id="288" gid="567" x="844" y="100" width="110" height="120"/>
   <object id="289" gid="567" x="484" y="100" width="110" height="120"/>
   <object id="290" gid="567" x="404" y="100" width="110" height="120"/>
   <object id="291" gid="567" x="324" y="100" width="110" height="120"/>
   <object id="292" gid="567" x="244" y="100" width="110" height="120"/>
   <object id="293" gid="567" x="164" y="100" width="110" height="120"/>
   <object id="294" gid="567" x="84" y="100" width="110" height="120"/>
   <object id="296" gid="557" x="0" y="100" width="120" height="40"/>
   <object id="297" gid="557" x="0" y="60" width="120" height="40"/>
   <object id="298" gid="557" x="0" y="180" width="120" height="40"/>
   <object id="299" gid="557" x="0" y="140" width="120" height="40"/>
   <object id="300" gid="557" x="0" y="260" width="120" height="40"/>
   <object id="301" gid="557" x="0" y="220" width="120" height="40"/>
   <object id="302" gid="557" x="0" y="340" width="120" height="40"/>
   <object id="303" gid="557" x="0" y="300" width="120" height="40"/>
   <object id="304" gid="557" x="0" y="380" width="120" height="40"/>
   <object id="305" gid="557" x="0" y="460" width="120" height="40"/>
   <object id="306" gid="557" x="0" y="420" width="120" height="40"/>
   <object id="307" gid="567" x="484" y="542" width="110" height="120"/>
   <object id="308" gid="567" x="404" y="542" width="110" height="120"/>
   <object id="309" gid="567" x="324" y="542" width="110" height="120"/>
   <object id="310" gid="567" x="244" y="542" width="110" height="120"/>
   <object id="311" gid="567" x="164" y="542" width="110" height="120"/>
   <object id="312" gid="567" x="84" y="542" width="110" height="120"/>
   <object id="313" gid="567" x="964" y="542" width="110" height="120"/>
   <object id="314" gid="567" x="884" y="542" width="110" height="120"/>
   <object id="315" gid="567" x="804" y="542" width="110" height="120"/>
   <object id="316" gid="567" x="724" y="542" width="110" height="120"/>
   <object id="317" gid="567" x="644" y="542" width="110" height="120"/>
   <object id="318" gid="567" x="564" y="542" width="110" height="120"/>
   <object id="319" gid="567" x="1444" y="542" width="110" height="120"/>
   <object id="320" gid="567" x="1364" y="542" width="110" height="120"/>
   <object id="321" gid="567" x="1284" y="542" width="110" height="120"/>
   <object id="322" gid="567" x="1204" y="542" width="110" height="120"/>
   <object id="323" gid="567" x="1124" y="542" width="110" height="120"/>
   <object id="324" gid="567" x="1044" y="542" width="110" height="120"/>
   <object id="325" gid="567" x="2164" y="542" width="110" height="120"/>
   <object id="326" gid="567" x="2084" y="542" width="110" height="120"/>
   <object id="327" gid="567" x="2004" y="542" width="110" height="120"/>
   <object id="328" gid="567" x="1924" y="542" width="110" height="120"/>
   <object id="329" gid="567" x="1844" y="542" width="110" height="120"/>
   <object id="330" gid="567" x="1764" y="542" width="110" height="120"/>
   <object id="331" gid="567" x="2644" y="542" width="110" height="120"/>
   <object id="332" gid="567" x="2564" y="542" width="110" height="120"/>
   <object id="333" gid="567" x="2484" y="542" width="110" height="120"/>
   <object id="334" gid="567" x="2404" y="542" width="110" height="120"/>
   <object id="335" gid="567" x="2324" y="542" width="110" height="120"/>
   <object id="336" gid="567" x="2244" y="542" width="110" height="120"/>
   <object id="337" gid="567" x="2724" y="542" width="110" height="120"/>
   <object id="338" gid="567" x="3204" y="542" width="110" height="120"/>
   <object id="339" gid="567" x="3124" y="542" width="110" height="120"/>
   <object id="340" gid="567" x="3044" y="542" width="110" height="120"/>
   <object id="341" gid="567" x="2964" y="542" width="110" height="120"/>
   <object id="342" gid="567" x="2884" y="542" width="110" height="120"/>
   <object id="343" gid="567" x="2804" y="542" width="110" height="120"/>
   <object id="344" gid="567" x="3364" y="542" width="110" height="120"/>
   <object id="345" gid="567" x="3284" y="542" width="110" height="120"/>
   <object id="346" gid="565" x="3440" y="480" width="560" height="146"/>
   <object id="347" gid="567" x="3924" y="220" width="110" height="120"/>
   <object id="348" gid="564" x="3960" y="240" width="120" height="40"/>
   <object id="349" gid="564" x="3960" y="200" width="120" height="40"/>
   <object id="350" gid="564" x="3960" y="320" width="120" height="40"/>
   <object id="351" gid="564" x="3960" y="280" width="120" height="40"/>
   <object id="352" gid="564" x="3960" y="360" width="120" height="40"/>
   <object id="353" gid="564" x="3920" y="80" width="120" height="40"/>
   <object id="354" gid="564" x="3920" y="40" width="120" height="40"/>
   <object id="355" gid="564" x="3920" y="120" width="120" height="40"/>
   <object id="356" gid="564" x="3920" y="160" width="120" height="40"/>
   <object id="357" gid="568" x="2800" y="220" width="120" height="120"/>
   <object id="358" gid="567" x="2764" y="220" width="110" height="120"/>
   <object id="359" gid="557" x="2800" y="100" width="120" height="40"/>
   <object id="360" gid="557" x="2800" y="60" width="120" height="40"/>
   <object id="361" gid="557" x="2800" y="20" width="120" height="40"/>
   <object id="366" gid="557" x="2760" y="100" width="120" height="40"/>
   <object id="367" gid="557" x="2760" y="60" width="120" height="40"/>
   <object id="368" gid="557" x="2760" y="20" width="120" height="40"/>
   <object id="369" gid="557" x="2760" y="140" width="120" height="40"/>
   <object id="384" gid="565" x="3748" y="232" width="56" height="12"/>
   <object id="376" gid="565" x="3640" y="220" width="270" height="220"/>
   <object id="377" gid="565" x="3910" y="214" width="10" height="214"/>
   <object id="378" gid="565" x="3910" y="216" width="8" height="2"/>
   <object id="379" gid="565" x="3910" y="218" width="6" height="2"/>
   <object id="380" gid="565" x="3910" y="220" width="4" height="2"/>
   <object id="412" gid="565" x="3320" y="220" width="150" height="220"/>
   <object id="413" gid="565" x="3470" y="214" width="10" height="214"/>
   <object id="414" gid="565" x="3470" y="216" width="8" height="2"/>
   <object id="415" gid="565" x="3470" y="218" width="6" height="2"/>
   <object id="416" gid="565" x="3470" y="220" width="4" height="2"/>
   <object id="418" gid="565" x="2114" y="224.5" width="6" height="12.5"/>
   <object id="419" gid="565" x="2116" y="230" width="30" height="18"/>
   <object id="420" gid="565" x="2146" y="228" width="4" height="16"/>
   <object id="421" gid="565" x="2150" y="226" width="2" height="14"/>
   <object id="422" gid="565" x="2152" y="224" width="2" height="12"/>
   <object id="423" gid="565" x="2154" y="220" width="2" height="8"/>
  </objectgroup>
  <objectgroup id="36" name="objects_shadows_morning_cutout">
   <object id="192" gid="567" x="3924" y="220" width="110" height="120"/>
   <object id="193" gid="564" x="3960" y="200" width="120" height="40"/>
   <object id="194" gid="564" x="3960" y="240" width="120" height="40"/>
   <object id="195" gid="564" x="3960" y="280" width="120" height="40"/>
   <object id="196" gid="564" x="3960" y="320" width="120" height="40"/>
   <object id="197" gid="564" x="3960" y="360" width="120" height="40"/>
   <object id="198" gid="564" x="3960" y="400" width="120" height="40"/>
   <object id="199" gid="564" x="3960" y="440" width="120" height="40"/>
   <object id="200" gid="564" x="3960" y="480" width="120" height="40"/>
   <object id="201" gid="567" x="1764" y="220" width="110" height="120"/>
   <object id="202" gid="557" x="1760" y="140" width="120" height="40"/>
   <object id="203" gid="557" x="1760" y="100" width="120" height="40"/>
   <object id="204" gid="557" x="1760" y="60" width="120" height="40"/>
   <object id="205" gid="557" x="1760" y="20" width="120" height="40"/>
   <object id="206" gid="567" x="1444" y="140" width="110" height="120"/>
   <object id="207" gid="567" x="1444" y="100" width="110" height="120"/>
   <object id="208" gid="557" x="1440" y="60" width="120" height="40"/>
   <object id="209" gid="567" x="2764" y="220" width="110" height="120"/>
   <object id="210" gid="567" x="2764" y="180" width="110" height="120"/>
   <object id="211" gid="557" x="2760" y="140" width="120" height="40"/>
   <object id="212" gid="567" x="2804" y="220" width="110" height="120"/>
   <object id="213" gid="567" x="2804" y="180" width="110" height="120"/>
   <object id="214" gid="557" x="2800" y="140" width="120" height="40"/>
   <object id="170" gid="567" x="1764" y="542" width="110" height="120"/>
   <object id="171" gid="567" x="1844" y="542" width="110" height="120"/>
   <object id="172" gid="567" x="1924" y="542" width="110" height="120"/>
   <object id="173" gid="567" x="2004" y="542" width="110" height="120"/>
   <object id="174" gid="567" x="2084" y="542" width="110" height="120"/>
   <object id="175" gid="567" x="2164" y="542" width="110" height="120"/>
   <object id="176" gid="567" x="2244" y="542" width="110" height="120"/>
   <object id="177" gid="567" x="2324" y="542" width="110" height="120"/>
   <object id="178" gid="567" x="2404" y="542" width="110" height="120"/>
   <object id="179" gid="567" x="2484" y="542" width="110" height="120"/>
   <object id="180" gid="567" x="2564" y="542" width="110" height="120"/>
   <object id="181" gid="567" x="2644" y="542" width="110" height="120"/>
   <object id="182" gid="567" x="2724" y="542" width="110" height="120"/>
   <object id="183" gid="567" x="2804" y="542" width="110" height="120"/>
   <object id="184" gid="567" x="2884" y="542" width="110" height="120"/>
   <object id="185" gid="567" x="2964" y="542" width="110" height="120"/>
   <object id="186" gid="567" x="3044" y="542" width="110" height="120"/>
   <object id="187" gid="567" x="3124" y="542" width="110" height="120"/>
   <object id="188" gid="567" x="3204" y="542" width="110" height="120"/>
   <object id="189" gid="567" x="3284" y="542" width="110" height="120"/>
   <object id="190" gid="567" x="3364" y="542" width="110" height="120"/>
   <object id="146" gid="567" x="84" y="542" width="110" height="120"/>
   <object id="147" gid="567" x="2" y="540" width="110" height="120"/>
   <object id="148" gid="567" x="-78" y="540" width="110" height="120"/>
   <object id="149" gid="567" x="164" y="542" width="110" height="120"/>
   <object id="154" gid="567" x="244" y="542" width="110" height="120"/>
   <object id="155" gid="567" x="324" y="542" width="110" height="120"/>
   <object id="156" gid="567" x="404" y="542" width="110" height="120"/>
   <object id="157" gid="567" x="484" y="542" width="110" height="120"/>
   <object id="158" gid="567" x="564" y="542" width="110" height="120"/>
   <object id="159" gid="567" x="644" y="542" width="110" height="120"/>
   <object id="160" gid="567" x="724" y="542" width="110" height="120"/>
   <object id="161" gid="567" x="804" y="542" width="110" height="120"/>
   <object id="162" gid="567" x="884" y="542" width="110" height="120"/>
   <object id="163" gid="567" x="964" y="542" width="110" height="120"/>
   <object id="164" gid="567" x="1044" y="542" width="110" height="120"/>
   <object id="165" gid="567" x="1124" y="542" width="110" height="120"/>
   <object id="166" gid="567" x="1204" y="542" width="110" height="120"/>
   <object id="167" gid="567" x="1284" y="542" width="110" height="120"/>
   <object id="168" gid="567" x="1364" y="542" width="110" height="120"/>
   <object id="169" gid="567" x="1444" y="542" width="110" height="120"/>
   <object id="191" gid="565" x="3440" y="660" width="560" height="326"/>
  </objectgroup>
  <objectgroup id="38" name="objects_shadows_evening" visible="0">
   <object id="250" gid="596" x="292" y="226" width="246" height="178"/>
   <object id="259" gid="3221226059" x="1564" y="126.696" width="138.696" height="27.264" rotation="-90"/>
   <object id="260" gid="3221226059" x="3794" y="347.391" width="103.391" height="27.264" rotation="-90"/>
   <object id="261" gid="3221226059" x="1568" y="219.391" width="103.391" height="27.264" rotation="-90"/>
   <object id="262" gid="587" x="1556" y="238" width="104" height="24"/>
   <object id="253" gid="579" x="746" y="240" width="256" height="220"/>
   <object id="264" gid="596" x="2036" y="230" width="80" height="18"/>
   <object id="252" gid="579" x="110" y="480" width="1404" height="58"/>
   <object id="254" gid="579" x="1002" y="240" width="48" height="220"/>
   <object id="256" gid="579" x="1564" y="220" width="250" height="220"/>
   <object id="263" gid="579" x="1806" y="212" width="80" height="213"/>
   <object id="370" gid="579" x="2290" y="212" width="92" height="154"/>
   <object id="371" gid="579" x="2712" y="222" width="148" height="62"/>
   <object id="372" gid="579" x="2712" y="160" width="68" height="38"/>
   <object id="373" gid="596" x="3002" y="232" width="28" height="14"/>
   <object id="374" gid="596" x="3282" y="232" width="28" height="14"/>
   <object id="375" gid="579" x="3480" y="186" width="156" height="186"/>
   <object id="382" gid="596" x="3722" y="232" width="28" height="14"/>
   <object id="390" gid="3221226059" x="3790" y="254.696" width="138.696" height="27.264" rotation="-90"/>
   <object id="392" gid="579" x="3790" y="340" width="190" height="126"/>
   <object id="393" gid="579" x="3920" y="214" width="60" height="214"/>
   <object id="394" gid="579" x="1580" y="480" width="1860" height="58"/>
   <object id="395" gid="3221226059" x="1580" y="558.696" width="138.696" height="27.264" rotation="-90"/>
   <object id="396" gid="579" x="100" y="100" width="210" height="50"/>
   <object id="397" gid="579" x="1440" y="140" width="54" height="140"/>
   <object id="398" gid="579" x="530" y="226" width="12" height="138"/>
   <object id="402" gid="579" x="538" y="230" width="4" height="4"/>
   <object id="403" gid="579" x="536" y="228" width="2" height="2"/>
  </objectgroup>
  <objectgroup id="47" name="objects_evening_shadow_collision" visible="0">
   <object id="404" name="eveningshadowfull" x="298" y="48" width="234" height="178">
    <properties>
     <property name="sunset" type="int" value="1"/>
    </properties>
   </object>
   <object id="405" name="eveningshadowfull" x="746" y="20" width="304" height="220">
    <properties>
     <property name="sunset" type="int" value="1"/>
    </properties>
   </object>
   <object id="406" name="eveningshadowfull" x="1558" y="0" width="256" height="220">
    <properties>
     <property name="sunset" type="int" value="1"/>
    </properties>
   </object>
   <object id="407" name="eveningshadowfull" x="2298" y="150" width="84" height="62">
    <properties>
     <property name="sunset" type="int" value="1"/>
    </properties>
   </object>
   <object id="409" name="eveningshadowfull" x="3480" y="0" width="160" height="186">
    <properties>
     <property name="sunset" type="int" value="1"/>
    </properties>
   </object>
   <object id="410" name="eveningshadowfull" x="3790" y="120" width="240" height="320">
    <properties>
     <property name="sunset" type="int" value="1"/>
    </properties>
   </object>
   <object id="411" name="eveningshadowfull" x="1540" y="440" width="240" height="40">
    <properties>
     <property name="sunset" type="int" value="1"/>
    </properties>
   </object>
  </objectgroup>
  <objectgroup id="37" name="objects_shadows_morning">
   <object id="73" gid="587" x="302" y="440" width="80" height="24" rotation="-90"/>
   <object id="74" gid="587" x="304" y="362" width="80" height="24" rotation="-90"/>
   <object id="75" gid="587" x="304" y="286" width="80" height="24" rotation="-90"/>
   <object id="76" gid="587" x="276" y="224" width="80" height="24"/>
   <object id="77" gid="587" x="356" y="224" width="80" height="24"/>
   <object id="78" gid="587" x="436" y="224" width="80" height="24"/>
   <object id="79" gid="587" x="516" y="224" width="80" height="24"/>
   <object id="95" gid="584" x="1832" y="192" width="48" height="40"/>
   <object id="96" gid="582" x="1866" y="160" width="14" height="40"/>
   <object id="97" gid="582" x="1866" y="120" width="14" height="40"/>
   <object id="98" gid="582" x="1866" y="80" width="14" height="40"/>
   <object id="99" gid="579" x="1874" y="40" width="6" height="12"/>
   <object id="100" gid="579" x="1872" y="40" width="2" height="6"/>
   <object id="106" gid="584" x="2872" y="192" width="48" height="40"/>
   <object id="107" gid="582" x="2906" y="160" width="14" height="40"/>
   <object id="108" gid="582" x="2906" y="120" width="14" height="40"/>
   <object id="109" gid="582" x="2906" y="80" width="14" height="40"/>
   <object id="110" gid="579" x="2914" y="40" width="6" height="12"/>
   <object id="111" gid="579" x="2912" y="40" width="2" height="6"/>
   <object id="85" gid="579" x="1947" y="359" width="42" height="199.5" rotation="-45"/>
   <object id="86" gid="579" x="1806" y="218" width="4" height="2"/>
   <object id="88" gid="579" x="1808" y="216" width="16" height="26"/>
   <object id="89" gid="579" x="1824" y="216" width="8" height="24"/>
   <object id="94" gid="579" x="1832" y="214" width="48" height="22"/>
   <object id="101" gid="579" x="2954.5" y="365.5" width="71.4178" height="208.692" rotation="-45"/>
   <object id="102" gid="579" x="2806" y="218" width="4" height="2"/>
   <object id="103" gid="579" x="2808" y="216" width="16" height="26"/>
   <object id="104" gid="579" x="2824" y="216" width="8" height="24"/>
   <object id="105" gid="579" x="2832" y="214" width="8" height="24"/>
   <object id="112" gid="579" x="2872" y="240" width="48" height="48"/>
   <object id="113" gid="583" x="3956" y="202" width="18" height="40"/>
   <object id="114" gid="583" x="3956" y="240" width="18" height="40"/>
   <object id="115" gid="583" x="3956" y="280" width="18" height="40"/>
   <object id="116" gid="583" x="3956" y="320" width="18" height="40"/>
   <object id="117" gid="583" x="3956" y="360" width="18" height="40"/>
   <object id="118" gid="582" x="1546" y="40" width="14" height="40"/>
   <object id="119" gid="582" x="1546" y="80" width="14" height="40"/>
   <object id="120" gid="576" x="1488" y="120" width="80" height="46"/>
   <object id="121" gid="576" x="1408" y="120" width="80" height="46"/>
   <object id="122" gid="579" x="1440" y="80" width="4" height="80"/>
   <object id="123" gid="579" x="1004" y="40" width="36" height="40"/>
   <object id="124" gid="579" x="530" y="40" width="30" height="40"/>
   <object id="125" gid="576" x="928" y="80" width="80" height="46"/>
   <object id="126" gid="576" x="848" y="80" width="80" height="46"/>
   <object id="127" gid="576" x="448" y="80" width="80" height="46"/>
   <object id="128" gid="576" x="368" y="80" width="80" height="46"/>
   <object id="129" gid="576" x="288" y="80" width="80" height="46"/>
   <object id="130" gid="576" x="208" y="80" width="80" height="46"/>
   <object id="131" gid="576" x="114" y="80" width="94" height="46"/>
   <object id="132" gid="582" x="108" y="80" width="14" height="40"/>
   <object id="133" gid="582" x="106" y="120" width="14" height="40"/>
   <object id="134" gid="582" x="106" y="160" width="14" height="40"/>
   <object id="135" gid="582" x="106" y="200" width="14" height="40"/>
   <object id="136" gid="582" x="106" y="240" width="14" height="40"/>
   <object id="137" gid="582" x="106" y="280" width="14" height="40"/>
   <object id="138" gid="582" x="106" y="320" width="14" height="40"/>
   <object id="139" gid="582" x="106" y="360" width="14" height="40"/>
   <object id="140" gid="582" x="106" y="400" width="14" height="40"/>
   <object id="142" gid="585" x="106" y="424" width="14" height="24"/>
   <object id="143" gid="579" x="112" y="80" width="8" height="6"/>
   <object id="144" gid="579" x="114" y="74" width="6" height="6"/>
   <object id="215" gid="579" x="2270" y="4" width="34" height="24"/>
   <object id="216" gid="579" x="2268" y="12" width="34" height="24"/>
   <object id="219" gid="579" x="2290" y="20" width="8" height="8"/>
   <object id="220" gid="576" x="1800" y="40" width="80" height="46"/>
   <object id="80" gid="587" x="1744" y="280" width="80" height="24" rotation="-90"/>
   <object id="82" gid="587" x="1746" y="200" width="80" height="24" rotation="-90"/>
   <object id="83" gid="587" x="1746" y="120" width="80" height="24" rotation="-90"/>
   <object id="84" gid="587" x="1746" y="40" width="80" height="24" rotation="-90"/>
   <object id="428" gid="583" x="3916" y="160" width="18" height="40"/>
   <object id="429" gid="583" x="3916" y="120" width="18" height="40"/>
   <object id="431" gid="583" x="3916" y="80" width="18" height="40"/>
   <object id="432" gid="583" x="3916" y="40" width="18" height="40"/>
  </objectgroup>
  <layer id="33" name="tiles_shadows_evening" width="102" height="12">
   <data encoding="csv">
0,0,0,0,0,0,0,0,0,0,0,0,0,0,0,0,0,0,0,0,0,0,0,0,0,0,0,0,0,0,0,0,0,0,0,0,0,0,0,0,0,0,0,0,0,0,0,0,0,0,0,0,0,0,0,0,0,0,0,0,0,0,0,0,0,0,0,0,0,0,0,0,0,0,0,0,0,0,0,0,0,0,0,0,0,0,0,0,0,0,0,0,0,0,0,0,0,0,0,0,0,0,
0,0,0,0,0,0,0,0,0,0,0,0,0,0,0,0,0,0,0,0,0,0,0,0,0,0,0,0,0,0,0,0,0,0,0,0,0,0,0,0,0,0,0,0,0,0,0,0,0,0,0,0,0,0,0,0,0,0,0,0,0,0,0,0,0,0,0,0,0,0,0,0,0,0,0,0,0,0,0,0,0,0,0,0,0,0,0,0,0,0,0,0,0,0,0,0,0,0,0,0,0,0,
0,0,0,0,0,0,0,0,0,0,0,0,0,0,0,0,0,0,0,0,0,0,0,0,0,0,0,0,0,0,0,0,0,0,0,0,0,0,0,0,0,0,0,0,0,0,0,0,0,0,0,0,0,0,0,0,0,0,0,0,0,0,0,0,0,0,0,0,0,0,0,0,0,0,0,0,0,0,0,0,0,0,0,0,0,0,0,0,0,0,0,0,0,0,0,0,0,0,0,0,0,0,
0,0,0,0,0,0,0,0,0,0,0,0,0,0,0,0,0,0,0,0,0,0,0,0,0,0,0,0,0,0,0,0,0,0,0,0,0,0,0,0,0,0,0,0,0,0,0,0,0,0,0,0,0,0,0,0,0,0,0,0,0,0,0,0,0,0,0,0,0,0,0,0,0,0,0,0,0,0,0,0,0,0,0,0,0,0,0,0,0,0,0,0,0,0,0,0,0,0,0,0,0,0,
0,0,0,0,0,0,0,0,0,0,0,0,0,0,0,0,0,0,0,0,0,0,0,0,0,0,0,0,0,0,0,0,0,0,0,0,0,0,0,0,0,0,0,0,0,0,0,0,0,0,0,0,0,0,0,0,0,0,0,0,0,0,0,0,0,0,0,0,0,0,0,0,0,0,0,0,0,0,0,0,0,0,0,0,0,0,0,0,0,0,0,0,0,0,0,0,0,0,0,0,0,0,
0,0,0,0,0,0,0,0,0,0,0,0,0,0,0,0,0,0,0,0,0,0,0,0,0,0,0,0,0,0,0,0,0,0,0,0,0,0,0,0,0,0,0,0,0,0,0,0,0,0,0,0,0,0,0,0,0,0,0,0,0,0,0,0,0,0,0,0,0,0,0,0,0,0,0,0,0,0,0,0,0,0,0,0,0,0,0,0,0,0,0,0,0,0,0,0,0,0,0,0,0,0,
0,0,0,0,0,0,0,0,0,0,0,0,0,0,0,0,0,0,0,0,0,0,0,0,0,0,0,0,0,0,0,0,0,0,0,0,0,0,0,0,0,0,0,0,0,0,0,0,0,0,0,0,0,0,0,0,0,0,0,0,0,0,0,0,0,0,0,0,0,0,0,0,0,0,0,0,0,0,0,0,0,0,0,0,0,0,0,0,0,0,0,0,0,0,0,0,0,0,0,0,0,0,
0,0,0,0,0,0,0,0,0,0,0,0,0,0,0,0,0,0,0,0,0,0,0,0,0,0,0,0,0,0,0,0,0,0,0,0,0,0,0,0,0,0,0,0,0,0,0,0,0,0,0,0,0,0,0,0,0,0,0,0,0,0,0,0,0,0,0,0,0,0,0,0,0,0,0,0,0,0,0,0,0,0,0,0,0,0,0,0,0,0,0,0,0,0,0,0,0,0,0,0,0,0,
0,0,0,0,0,0,0,0,0,0,0,0,0,0,0,0,0,0,0,0,0,0,0,0,0,0,0,0,0,0,0,0,0,0,0,0,0,0,0,0,0,0,0,0,0,0,0,0,0,0,0,0,0,0,0,0,0,0,0,0,0,0,0,0,0,0,0,0,0,0,0,0,0,0,0,0,0,0,0,0,0,0,0,0,0,0,0,0,0,0,0,0,0,0,0,0,0,0,0,0,0,0,
0,0,0,0,0,0,0,0,0,0,0,0,0,0,0,0,0,0,0,0,0,0,0,0,0,0,0,0,0,0,0,0,0,0,0,0,0,0,0,0,0,0,0,0,0,0,0,0,0,0,0,0,0,0,0,0,0,0,0,0,0,0,0,0,0,0,0,0,0,0,0,0,0,0,0,0,0,0,0,0,0,0,0,0,0,0,0,0,0,0,0,0,0,0,0,0,0,0,0,0,0,0,
0,0,0,0,0,0,0,0,0,0,0,0,0,0,0,0,0,0,0,0,0,0,0,0,0,0,0,0,0,0,0,0,0,0,0,0,0,0,0,0,0,0,0,0,0,0,0,0,0,0,0,0,0,0,0,0,0,0,0,0,0,0,0,0,0,0,0,0,0,0,0,0,0,0,0,0,0,0,0,0,0,0,0,0,0,0,0,0,0,0,0,0,0,0,0,0,0,0,0,0,0,0,
0,0,0,0,0,0,0,0,0,0,0,0,0,0,0,0,0,0,0,0,0,0,0,0,0,0,0,0,0,0,0,0,0,0,0,0,0,0,0,0,0,0,0,0,0,0,0,0,0,0,0,0,0,0,0,0,0,0,0,0,0,0,0,0,0,0,0,0,0,0,0,0,0,0,0,0,0,0,0,0,0,0,0,0,0,0,0,0,0,0,0,0,0,0,0,0,0,0,0,0,0,0
</data>
  </layer>
  <layer id="34" name="tiles_shadows_morning" width="102" height="12">
   <data encoding="csv">
0,0,0,0,0,0,0,0,0,0,0,0,0,0,496,496,496,496,496,496,496,499,0,0,0,0,496,496,496,496,496,496,496,496,496,496,0,0,0,496,496,496,496,0,0,0,0,496,496,496,496,496,496,496,496,496,496,499,0,0,0,0,0,0,0,0,0,0,0,0,0,0,0,496,496,496,496,496,496,496,496,496,496,496,496,496,496,496,496,496,496,496,496,496,496,496,496,496,0,0,0,0,
0,0,0,496,496,496,496,496,496,496,496,496,496,496,496,496,496,496,496,496,496,496,496,496,496,496,496,496,496,496,496,496,496,496,496,496,0,0,0,496,496,496,496,0,0,0,0,496,496,496,496,496,496,496,496,496,496,496,499,0,0,0,0,0,0,0,0,0,0,0,0,0,0,496,496,496,496,496,496,496,496,496,496,496,496,496,496,496,496,496,496,496,496,496,496,496,496,496,0,0,0,0,
0,0,0,496,496,496,496,496,496,496,496,496,496,496,496,496,496,496,496,496,496,496,496,496,496,496,496,496,496,496,496,496,496,496,496,496,496,496,496,496,496,496,496,0,0,0,0,496,496,496,496,496,496,496,496,496,496,496,496,499,0,0,0,0,0,0,0,0,0,0,0,0,0,496,496,496,496,496,496,496,496,496,496,496,496,496,496,496,496,496,496,496,496,496,496,496,496,496,0,0,0,0,
0,0,0,496,496,496,496,496,496,496,496,496,496,496,496,496,496,496,496,496,496,496,496,496,496,496,496,496,496,496,496,496,496,496,496,496,496,496,496,496,496,496,496,0,0,0,0,496,496,496,496,496,496,496,496,496,496,496,496,496,499,0,0,0,0,0,0,0,0,0,0,0,0,496,496,496,496,496,496,496,496,496,496,496,496,496,496,496,496,496,496,496,496,496,496,496,496,496,0,0,0,0,
0,0,0,496,496,496,496,496,496,496,496,496,496,496,496,496,496,496,496,496,496,496,496,496,496,496,496,496,496,496,496,496,496,496,496,496,496,496,496,496,496,496,496,0,0,0,0,496,496,496,496,496,496,496,496,496,496,496,496,496,496,499,0,0,0,0,0,0,0,0,0,0,0,496,496,496,496,496,496,496,496,496,496,496,496,496,496,496,496,496,496,496,496,496,496,496,496,496,496,0,0,0,
0,0,0,496,496,496,496,0,0,0,0,0,0,496,496,496,496,496,496,496,496,496,496,496,496,496,496,496,496,496,496,496,496,496,496,496,496,496,496,496,496,496,496,0,0,0,496,496,496,496,496,496,496,496,496,496,496,496,496,496,496,496,499,0,0,0,0,0,0,0,0,0,0,496,496,496,496,496,496,496,496,496,496,496,496,496,496,496,496,496,496,496,496,496,496,496,496,496,496,0,0,0,
0,0,0,496,496,496,496,0,0,0,0,0,0,503,496,496,496,496,496,496,496,496,496,496,496,496,496,496,496,496,496,496,496,496,496,496,496,496,496,496,496,496,496,0,0,0,0,496,496,496,496,496,496,496,496,496,496,496,496,496,496,496,496,499,0,0,0,0,0,0,0,0,0,503,496,496,496,496,496,496,496,496,496,496,496,496,496,496,496,496,496,496,496,496,496,496,496,496,496,0,0,0,
0,0,0,496,496,496,496,0,0,0,0,0,0,0,503,496,496,496,496,496,496,496,496,496,496,496,496,496,496,496,496,496,496,496,496,496,496,496,496,496,496,496,496,499,0,0,0,0,496,496,496,496,496,496,496,496,496,496,496,496,496,496,496,496,499,0,0,0,0,0,0,0,0,0,503,496,496,496,496,496,496,496,496,496,496,496,496,496,496,496,496,496,496,496,496,496,496,496,496,0,0,0,
0,0,0,496,496,496,496,0,0,0,0,0,0,0,0,503,496,496,496,496,496,496,496,496,496,496,496,496,496,496,496,496,496,496,496,496,496,496,496,496,496,496,496,496,499,0,0,0,1073742329,496,496,496,496,496,496,496,496,496,496,496,496,496,496,496,496,499,0,0,0,0,0,0,0,1073742329,496,496,496,496,496,496,496,496,496,496,496,496,496,496,496,496,496,496,496,496,496,496,496,496,496,0,0,0,
0,0,0,496,496,496,496,0,0,0,0,0,0,0,0,0,503,496,496,496,496,496,496,496,496,496,496,496,496,496,496,496,496,496,496,496,496,496,496,496,496,496,496,496,496,499,0,0,505,496,496,496,496,496,496,496,496,496,496,496,496,496,496,496,496,496,499,0,0,0,0,0,0,505,496,496,496,496,496,496,496,496,496,496,496,496,0,0,0,0,0,0,0,0,0,0,0,0,0,0,0,0,
0,0,0,496,496,496,496,0,0,0,0,0,0,0,0,0,0,503,496,496,496,496,496,496,496,496,496,496,496,496,496,496,496,496,496,496,496,496,496,496,496,496,496,496,496,496,499,0,0,505,496,506,503,496,496,496,496,496,496,496,496,496,496,496,496,496,496,499,0,0,0,0,0,0,505,496,506,503,496,496,496,496,496,496,496,496,0,0,0,0,0,0,0,0,0,0,0,0,0,0,0,0,
0,0,0,0,0,0,0,0,0,0,0,0,0,0,0,0,0,0,503,496,496,496,496,496,496,496,496,496,496,496,496,496,496,496,496,496,496,496,496,496,496,496,496,496,496,496,496,0,0,0,0,0,0,503,496,496,496,496,496,496,496,496,496,496,496,496,496,1073742323,0,0,0,0,0,0,0,0,0,0,0,0,0,0,0,0,0,0,0,0,0,0,0,0,0,0,0,0,0,0,0,0,0,0
</data>
  </layer>
 </group>
 <objectgroup color="#00aa00" id="30" name="objects_overlay">
  <object id="60" name="hometowndaynight" x="0" y="0">
   <point/>
  </object>
 </objectgroup>
</map>
