<?xml version="1.0" encoding="UTF-8"?>
<map version="1.11" tiledversion="1.11.2" orientation="orthogonal" renderorder="right-down" width="19" height="13" tilewidth="40" tileheight="40" infinite="0" nextlayerid="27" nextobjectid="31">
 <editorsettings>
  <export target="darkjamroom1chara1.lua" format="lua"/>
 </editorsettings>
 <tileset firstgid="1" source="../../../tilesets/jam_26_doors.tsx"/>
 <tileset firstgid="7" source="../../../tilesets/topfloor.tsx"/>
 <layer id="1" name="Tile Layer 1" width="19" height="13">
  <data encoding="csv">
0,0,13,14,14,14,14,14,14,14,34,14,14,14,14,14,15,13,14,
0,0,13,14,14,22,23,24,14,14,22,23,24,14,14,35,15,13,14,
0,0,13,14,36,28,29,30,14,14,28,29,30,14,14,14,15,13,14,
0,0,19,20,20,20,20,20,20,20,20,20,20,20,20,20,21,13,14,
0,0,25,26,26,26,26,26,26,26,26,26,26,26,26,26,27,13,14,
0,0,31,32,32,32,32,32,32,32,32,32,32,32,32,32,33,13,14,
0,0,31,32,32,32,32,32,32,32,32,32,32,32,32,32,33,13,14,
0,0,31,32,32,32,32,32,32,32,32,32,32,32,32,32,33,13,14,
0,0,31,32,32,32,32,32,32,32,32,32,32,32,32,32,33,13,14,
0,0,31,32,32,32,32,32,32,32,32,32,32,32,32,32,33,13,14,
0,0,37,38,38,38,38,38,32,32,38,38,38,38,38,38,39,19,20,
0,0,0,0,0,0,0,0,31,33,0,0,0,0,0,0,0,0,0,
0,0,0,0,0,0,0,0,31,33,0,0,0,0,0,0,0,0,0
</data>
 </layer>
 <layer id="20" name="Tile Layer 2" width="19" height="13">
  <data encoding="csv">
0,0,0,0,0,0,0,41,0,0,0,0,0,0,0,0,0,0,0,
0,0,41,0,0,10,11,12,0,0,10,11,12,41,0,0,0,41,0,
0,0,0,41,0,16,17,18,0,41,16,17,18,0,0,41,0,0,0,
0,0,0,0,0,0,0,0,0,0,0,0,0,0,0,0,0,0,0,
0,0,0,0,0,0,0,0,0,0,0,0,0,0,0,0,0,0,41,
0,0,0,0,0,0,0,0,0,0,0,0,0,0,0,0,0,0,0,
0,0,0,0,0,22,23,24,0,0,22,23,24,0,0,0,0,0,0,
0,0,0,0,0,28,29,30,0,0,28,29,30,0,0,0,0,41,0,
0,0,0,0,0,0,0,0,0,0,0,0,0,0,0,0,0,0,0,
0,0,0,0,0,0,0,0,0,0,0,0,0,0,0,0,0,0,41,
0,0,0,0,0,0,0,0,0,0,0,0,0,0,0,0,0,0,0,
0,0,0,0,0,0,0,0,0,0,0,0,0,0,0,0,0,0,0,
0,0,0,0,0,0,0,0,0,0,0,0,0,0,0,0,0,0,0
</data>
 </layer>
 <objectgroup color="#0000ff" id="21" name="collision">
  <object id="18" x="80" y="440" width="240" height="80"/>
  <object id="19" x="40" y="160" width="40" height="280"/>
  <object id="20" x="80" y="120" width="560" height="40"/>
  <object id="21" x="640" y="120" width="40" height="40"/>
  <object id="22" x="680" y="160" width="80" height="80"/>
  <object id="23" x="680" y="320" width="80" height="120"/>
  <object id="24" x="400" y="440" width="280" height="80"/>
  <object id="30" name="there used to be a door here" x="680" y="240" width="80" height="80"/>
 </objectgroup>
 <objectgroup color="#ff0000" id="22" name="paths"/>
 <objectgroup color="#ff00ff" id="23" name="objects">
  <object id="26" name="transition" x="320" y="520" width="80" height="40">
   <properties>
    <property name="map" value="floor2/jam/main"/>
    <property name="marker" value="entry_door1"/>
   </properties>
  </object>
 </objectgroup>
 <objectgroup color="#00c000" id="24" name="controllers"/>
 <objectgroup color="#7f00ff" id="25" name="markers">
  <object id="27" name="spawn" x="360" y="480">
   <point/>
  </object>
 </objectgroup>
 <objectgroup color="#00ff00" id="26" name="battleareas"/>
</map>
