<?xml version="1.0" encoding="UTF-8"?>
<map version="1.11" tiledversion="1.12.2" orientation="orthogonal" renderorder="right-down" width="43" height="15" tilewidth="40" tileheight="40" infinite="0" nextlayerid="6" nextobjectid="37">
 <properties>
  <property name="music" value="mainhub"/>
 </properties>
 <tileset firstgid="1" source="../../../tilesets/floor2.tsx"/>
 <tileset firstgid="171" source="../../../tilesets/jam_26_doors.tsx"/>
 <layer id="1" name="tiles" width="43" height="15">
  <data encoding="csv">
4,36,36,36,36,36,36,36,36,36,36,36,36,36,36,36,36,36,36,36,36,36,36,36,36,36,36,36,36,36,36,36,36,36,36,36,36,36,36,36,36,36,5,
37,53,53,53,53,53,53,53,53,53,53,53,53,53,53,53,53,53,53,53,53,53,53,53,53,53,53,53,53,53,53,53,53,53,53,53,53,53,53,53,53,53,35,
54,53,53,53,53,53,53,53,53,53,53,53,53,53,53,53,53,53,53,53,53,53,53,53,53,53,53,53,53,53,53,53,53,53,53,53,53,53,53,53,53,53,52,
54,53,53,53,53,53,53,53,53,53,53,53,53,53,53,53,53,53,53,53,53,53,53,53,53,53,53,53,53,53,53,53,53,53,53,53,53,53,53,53,53,53,52,
54,53,53,53,53,53,53,53,53,53,53,53,53,53,53,53,53,53,53,53,53,53,53,53,53,53,53,53,53,53,53,53,53,53,53,53,53,53,53,53,53,53,52,
54,70,70,70,70,70,70,70,70,70,70,70,70,70,70,70,70,70,70,70,70,70,70,70,70,70,70,70,70,70,70,70,70,70,70,70,70,70,70,70,70,70,52,
54,6,7,7,7,7,7,7,7,7,7,7,7,7,7,7,7,7,7,7,7,7,7,7,7,7,7,7,7,7,7,7,7,7,7,7,7,7,7,7,7,8,52,
71,23,24,24,24,24,24,24,24,24,24,24,24,24,24,24,24,24,24,24,24,24,24,24,24,24,24,24,24,24,24,24,24,24,24,24,24,24,24,24,24,25,69,
7,9,24,24,24,24,24,24,24,24,24,24,24,24,24,24,24,24,24,24,24,24,24,24,24,24,24,24,24,24,24,24,24,24,24,24,24,24,24,24,24,10,7,
24,24,24,24,24,24,24,24,24,24,24,24,24,24,24,24,24,24,24,24,24,24,24,24,24,24,24,24,24,24,24,24,24,24,24,24,24,24,24,24,24,24,24,
41,26,24,24,24,24,24,24,24,24,24,24,24,24,24,24,24,24,24,24,24,24,24,24,24,24,24,24,24,24,24,24,24,24,24,24,24,24,24,24,24,27,41,
3,23,24,24,24,24,24,24,24,24,24,24,24,24,24,24,24,24,24,24,24,24,24,24,24,24,24,24,24,24,24,24,24,24,24,24,24,24,24,24,24,25,1,
20,40,41,41,41,41,41,41,41,41,41,41,41,41,41,41,41,41,41,41,41,41,41,41,41,41,41,41,41,41,41,41,41,41,41,41,41,41,41,41,41,42,18,
21,2,2,2,2,2,2,2,2,2,2,2,2,2,2,2,2,2,2,2,2,2,2,2,2,2,2,2,2,2,2,2,2,2,2,2,2,2,2,2,2,2,22,
0,0,0,0,0,0,0,0,0,0,0,0,0,0,0,0,0,0,0,0,0,0,0,0,0,0,0,0,0,0,0,0,0,0,0,0,0,0,0,0,0,0,0
</data>
 </layer>
 <layer id="2" name="decal" width="43" height="15">
  <data encoding="csv">
0,0,0,0,0,0,0,0,0,0,0,0,0,0,0,0,0,0,0,0,0,0,0,0,0,0,0,0,0,0,0,0,0,0,0,0,0,0,0,0,0,0,0,
0,0,0,0,0,0,0,0,0,0,0,0,0,0,0,0,0,0,0,0,0,0,0,0,0,0,0,0,0,0,0,0,0,0,0,0,0,0,0,0,0,0,0,
0,0,0,0,0,0,109,110,111,0,109,110,111,0,0,0,0,0,0,0,0,0,0,0,0,0,0,0,0,0,0,0,0,0,0,0,0,0,0,0,0,0,0,
0,0,0,0,0,0,126,127,128,0,126,127,128,0,0,0,0,0,0,0,0,0,0,0,0,0,0,0,0,0,0,0,0,0,0,0,0,0,0,0,0,0,0,
0,0,80,81,0,0,143,144,145,0,143,144,145,0,0,0,0,0,0,0,0,0,0,0,0,0,0,0,0,0,0,0,0,0,0,0,0,0,80,81,0,0,0,
0,0,0,0,0,0,160,161,162,0,160,161,162,0,176,0,0,0,175,0,0,0,174,0,0,0,173,0,0,0,172,0,0,0,171,0,0,0,0,0,0,0,0,
0,0,0,0,0,0,0,0,0,0,0,0,0,0,0,0,0,0,0,0,0,0,0,0,0,0,0,0,0,0,0,0,0,0,0,0,0,0,0,0,0,0,0,
0,0,0,0,0,0,0,0,0,0,0,0,0,0,0,0,0,0,0,0,0,0,0,0,0,0,0,0,0,0,0,0,0,0,0,0,0,0,0,0,0,0,0,
0,0,0,0,0,0,0,0,0,0,0,0,0,0,0,0,0,0,0,0,0,0,0,0,0,0,0,0,0,0,0,0,0,0,0,0,0,0,0,0,0,0,0,
0,0,0,0,0,0,0,0,0,0,0,0,0,0,0,0,0,0,0,0,0,0,0,0,0,0,0,0,0,0,0,0,0,0,0,0,0,0,0,0,0,0,0,
0,0,0,0,0,0,0,0,0,0,0,0,0,0,0,0,0,0,0,0,0,0,0,0,0,0,0,0,0,0,0,0,0,0,0,0,0,0,0,0,0,0,0,
0,0,0,0,0,0,0,0,0,0,0,0,0,0,0,0,0,0,0,0,0,0,0,0,0,0,0,0,0,0,0,0,0,0,0,0,0,0,0,0,0,0,0,
0,0,0,0,0,0,0,0,0,0,0,0,0,0,0,0,0,0,0,0,0,0,0,0,0,0,0,0,0,0,0,0,0,0,0,0,0,0,0,0,0,0,0,
0,0,0,0,0,0,0,0,0,0,0,0,0,0,0,0,0,0,0,0,0,0,0,0,0,0,0,0,0,0,0,0,0,0,0,0,0,0,0,0,0,0,0,
0,0,0,0,0,0,0,0,0,0,0,0,0,0,0,0,0,0,0,0,0,0,0,0,0,0,0,0,0,0,0,0,0,0,0,0,0,0,0,0,0,0,0
</data>
 </layer>
 <objectgroup color="#0000ff" id="3" name="collision" visible="0">
  <object id="6" x="1680" y="240" width="40" height="80"/>
  <object id="7" x="1680" y="440" width="40" height="80"/>
  <object id="8" x="40" y="520" width="1640" height="40"/>
  <object id="10" x="0" y="440" width="40" height="80"/>
  <object id="11" x="0" y="240" width="40" height="80"/>
  <object id="12" x="40" y="200" width="240" height="40"/>
  <object id="13" x="320" y="200" width="120" height="40"/>
  <object id="14" x="480" y="200" width="120" height="40"/>
  <object id="15" x="640" y="200" width="120" height="40"/>
  <object id="16" x="800" y="200" width="120" height="40"/>
  <object id="17" x="960" y="200" width="120" height="40"/>
  <object id="18" x="1120" y="200" width="120" height="40"/>
  <object id="19" x="1280" y="200" width="120" height="40"/>
  <object id="20" x="1440" y="200" width="240" height="40"/>
 </objectgroup>
 <objectgroup color="#ff00ff" id="4" name="objects" visible="0">
  <object id="1" name="interactable" x="1520" y="200" width="80" height="40">
   <properties>
    <property name="text1" value="* (This room has the rooms that will be used for the Dark Jam 2026.)"/>
    <property name="text2" value="* (Rest assured these will be used soon enough.)"/>
   </properties>
  </object>
  <object id="2" name="interactable" x="80" y="200" width="80" height="40">
   <properties>
    <property name="text1" value="* (The next room has the rooms that will be used for the Dark Jam 2027.)"/>
    <property name="text2" value="* (Coming soon.)"/>
   </properties>
  </object>
  <object id="3" name="dogconegroup" x="0" y="360" width="40" height="40">
   <properties>
    <property name="default_state" type="bool" value="true"/>
   </properties>
  </object>
  <object id="4" name="dogconegroup" x="0" y="400" width="40" height="40">
   <properties>
    <property name="default_state" type="bool" value="true"/>
   </properties>
  </object>
  <object id="5" name="dogconegroup" x="0" y="320" width="40" height="40">
   <properties>
    <property name="default_state" type="bool" value="true"/>
   </properties>
  </object>
  <object id="27" name="interactable" x="280" y="200" width="40" height="40">
   <properties>
    <property name="solid" type="bool" value="true"/>
    <property name="text" value="* (Room 8.)"/>
   </properties>
  </object>
  <object id="30" name="interactable" x="600" y="200" width="40" height="40">
   <properties>
    <property name="solid" type="bool" value="true"/>
    <property name="text" value="* (Room 6.)"/>
   </properties>
  </object>
  <object id="32" name="interactable" x="920" y="200" width="40" height="40">
   <properties>
    <property name="solid" type="bool" value="true"/>
    <property name="text" value="* (Room 4.)"/>
   </properties>
  </object>
  <object id="34" name="interactable" x="1240" y="200" width="40" height="40">
   <properties>
    <property name="solid" type="bool" value="true"/>
    <property name="text" value="* (Room 2.)"/>
   </properties>
  </object>
  <object id="28" name="interactable" x="440" y="200" width="40" height="40">
   <properties>
    <property name="solid" type="bool" value="true"/>
    <property name="text" value="* (Room 7.)"/>
   </properties>
  </object>
  <object id="29" name="interactable" x="760" y="200" width="40" height="40">
   <properties>
    <property name="solid" type="bool" value="true"/>
    <property name="text" value="* (Room 5.)"/>
   </properties>
  </object>
  <object id="31" name="interactable" x="1080" y="200" width="40" height="40">
   <properties>
    <property name="solid" type="bool" value="true"/>
    <property name="text" value="* (Room 3.)"/>
   </properties>
  </object>
  <object id="33" name="interactable" x="1400" y="200" width="40" height="40">
   <properties>
    <property name="solid" type="bool" value="true"/>
    <property name="text" value="* (Room 1.)"/>
   </properties>
  </object>
  <object id="36" name="transition" x="1720" y="320" width="40" height="120">
   <properties>
    <property name="map" value="floor2/main_2"/>
    <property name="marker" value="entry_left"/>
   </properties>
  </object>
 </objectgroup>
 <objectgroup color="#7f00ff" id="5" name="markers">
  <object id="35" name="entry_main_2" x="1680" y="400">
   <point/>
  </object>
 </objectgroup>
</map>
