<?xml version="1.0" encoding="UTF-8"?>
<map version="1.11" tiledversion="1.12.2" orientation="orthogonal" renderorder="right-down" width="16" height="12" tilewidth="40" tileheight="40" infinite="0" nextlayerid="8" nextobjectid="15">
 <properties>
  <property name="music" value="lost_room"/>
 </properties>
 <tileset firstgid="1" source="../../../tilesets/floor2.tsx"/>
 <layer id="1" name="tiles" width="16" height="12">
  <data encoding="csv">
0,0,13,0,0,0,0,0,0,0,0,0,0,0,0,40,
0,0,0,0,0,0,0,0,0,0,0,0,0,0,0,0,
0,0,0,0,75,0,0,0,0,0,0,0,0,0,0,0,
0,0,0,0,0,0,0,1,2,2,2,2,2,3,0,0,
0,0,0,0,0,0,0,18,0,0,0,0,0,20,0,0,
36,36,36,36,36,36,36,18,0,0,0,0,0,20,0,0,
2,2,2,2,2,2,2,18,0,0,0,0,0,20,0,0,
0,0,0,0,0,0,0,18,0,0,0,0,0,20,0,0,
0,0,0,0,5,0,0,35,36,36,36,36,36,37,0,69,
0,0,0,0,0,0,0,0,0,0,0,0,0,0,0,0,
0,0,0,0,0,0,0,0,0,0,0,83,0,0,0,0,
0,80,0,0,0,0,0,0,0,0,0,0,0,0,0,0
</data>
 </layer>
 <layer id="6" name="door" width="16" height="12" offsetx="0" offsety="-16">
  <data encoding="csv">
0,0,0,0,0,0,0,0,0,0,0,0,0,0,0,0,
0,0,0,0,0,0,0,0,0,0,0,0,0,0,0,0,
0,0,0,0,0,0,0,0,0,0,0,0,0,0,0,0,
0,0,0,0,0,0,0,0,0,0,0,0,0,0,0,0,
0,0,0,0,0,0,0,0,0,0,0,0,0,0,0,0,
0,0,0,0,0,0,0,0,0,0,0,0,0,0,0,0,
0,0,0,0,0,0,0,0,0,0,0,0,0,0,0,0,
0,0,0,0,0,0,0,0,0,0,0,0,0,0,0,0,
0,0,0,0,0,0,0,0,0,0,0,0,0,0,0,0,
0,0,0,0,0,0,0,0,0,0,0,0,0,0,0,0,
0,0,0,0,0,0,0,0,0,0,0,0,0,0,0,0,
0,0,0,0,0,0,0,0,0,0,0,0,0,0,0,0
</data>
 </layer>
 <layer id="2" name="decal" width="16" height="12">
  <data encoding="csv">
0,0,0,0,0,0,0,0,0,0,0,0,0,0,0,0,
0,0,0,0,0,0,0,0,0,0,0,0,0,0,0,0,
0,0,0,0,0,0,0,0,0,0,0,0,0,0,0,0,
0,0,0,0,0,0,0,0,0,0,0,0,0,0,0,0,
0,0,0,0,0,0,0,0,0,0,0,0,0,0,0,0,
0,0,0,0,0,0,0,0,0,0,0,0,0,0,0,0,
0,0,0,0,0,0,0,0,0,0,0,0,0,0,0,0,
0,0,0,0,0,0,0,0,0,0,0,0,0,0,0,0,
0,0,0,0,0,0,0,0,0,0,0,0,0,0,0,0,
0,0,0,0,0,0,0,0,0,0,0,0,0,0,0,0,
0,0,0,0,0,0,0,0,0,0,0,0,0,0,0,0,
0,0,0,0,0,0,0,0,0,0,0,0,0,0,0,0
</data>
 </layer>
 <objectgroup color="#0000ff" id="3" name="collision">
  <object id="3" x="0" y="280" width="240" height="40"/>
  <object id="4" x="0" y="160" width="240" height="40"/>
  <object id="5" x="240" y="120" width="40" height="80"/>
  <object id="6" x="240" y="280" width="40" height="80"/>
  <object id="7" x="280" y="360" width="280" height="40"/>
  <object id="8" x="280" y="80" width="280" height="40"/>
  <object id="9" x="560" y="120" width="40" height="240"/>
 </objectgroup>
 <objectgroup color="#ff00ff" id="4" name="objects">
  <object id="2" name="transition" x="-40" y="200" width="40" height="80">
   <properties>
    <property name="map" value="floor2/apartments_right"/>
    <property name="marker" value="rent"/>
   </properties>
  </object>
  <object id="12" name="mandoor" x="364" y="130" width="112" height="136"/>
 </objectgroup>
 <objectgroup color="#ff00ff" id="7" name="objects_top">
  <object id="14" name="doorglitch" x="360" y="160" width="120" height="40"/>
 </objectgroup>
 <objectgroup color="#7f00ff" id="5" name="markers">
  <object id="1" name="entry" x="40" y="240">
   <point/>
  </object>
 </objectgroup>
</map>
