<?xml version="1.0" encoding="UTF-8"?>
<map version="1.11" tiledversion="1.12.2" orientation="orthogonal" renderorder="right-down" width="16" height="12" tilewidth="40" tileheight="40" infinite="0" nextlayerid="6" nextobjectid="13">
 <properties>
  <property name="music" value="deltarune/tv_changingroom"/>
 </properties>
 <tileset firstgid="1" source="../../../tilesets/floor2.tsx"/>
 <layer id="1" name="tiles" width="16" height="12">
  <data encoding="csv">
0,0,0,0,0,0,0,0,0,0,0,0,0,0,0,0,
0,4,36,36,36,36,36,36,36,2147483684,2147483684,2147483684,2147483684,2147483684,2147483652,0,
0,20,6,7,7,7,7,7,7,7,7,7,7,8,2147483668,0,
0,20,23,24,28,28,28,28,28,2147483676,2147483676,2147483676,2147483676,25,2147483668,0,
0,20,23,28,28,28,28,28,28,2147483676,2147483676,2147483676,2147483676,25,2147483668,0,
0,20,23,28,28,28,28,28,28,2147483676,2147483676,2147483676,2147483676,25,2147483668,0,
0,20,23,28,28,28,28,28,28,2147483676,2147483676,2147483676,2147483676,25,2147483668,0,
0,20,23,28,28,28,28,28,28,2147483676,2147483676,2147483676,2147483676,25,2147483668,0,
0,20,23,28,28,28,28,28,28,2147483676,2147483676,2147483676,2147483676,25,2147483668,0,
0,20,40,41,41,41,41,26,27,41,41,41,41,42,2147483668,0,
0,21,2,2,2,2,3,23,25,2147483651,2147483650,2147483650,2147483650,2147483650,2147483669,0,
0,0,0,0,0,0,20,23,25,2147483668,0,0,0,0,0,0
</data>
 </layer>
 <layer id="2" name="decal" width="16" height="12">
  <data encoding="csv">
0,0,0,0,0,0,0,0,0,0,0,0,0,0,0,0,
0,0,0,0,0,0,0,0,0,0,0,0,0,0,0,0,
0,0,0,0,0,0,0,0,0,0,0,0,0,0,0,0,
0,0,0,0,0,0,0,0,0,0,0,0,0,0,0,0,
0,0,0,0,0,0,0,0,0,0,0,0,0,0,0,0,
0,0,0,0,0,0,0,0,0,0,0,0,0,0,0,0,
0,0,0,0,0,0,0,0,0,0,0,0,0,0,0,0,
0,0,0,0,0,0,0,0,0,0,0,0,0,0,0,0,
0,0,0,0,0,0,0,0,0,0,0,0,0,0,0,0,
0,0,0,0,0,0,0,0,0,0,0,0,0,0,0,0,
0,0,0,0,0,0,0,0,0,0,0,0,0,0,0,0,
0,0,0,0,0,0,0,0,0,0,0,0,0,0,0,0
</data>
 </layer>
 <objectgroup color="#0000ff" id="3" name="collision">
  <object id="2" x="240" y="440" width="40" height="40"/>
  <object id="3" x="360" y="440" width="40" height="40"/>
  <object id="4" x="80" y="400" width="200" height="40"/>
  <object id="5" x="360" y="400" width="200" height="40"/>
  <object id="6" x="560" y="80" width="40" height="320"/>
  <object id="7" x="40" y="80" width="40" height="320"/>
  <object id="8" x="80" y="40" width="480" height="40"/>
 </objectgroup>
 <objectgroup color="#ff00ff" id="4" name="objects">
  <object id="9" name="transition" x="280" y="480" width="80" height="40">
   <properties>
    <property name="map" value="floor2/apartments_right"/>
    <property name="marker" value="rent"/>
   </properties>
  </object>
  <object id="12" name="rentTable" x="290" y="180" width="64" height="80"/>
 </objectgroup>
 <objectgroup color="#7f00ff" id="5" name="markers">
  <object id="10" name="entry" x="320" y="440">
   <point/>
  </object>
 </objectgroup>
</map>
