<?xml version="1.0" encoding="UTF-8"?>
<map version="1.11" tiledversion="1.11.2" orientation="orthogonal" renderorder="right-down" width="25" height="15" tilewidth="40" tileheight="40" infinite="0" nextlayerid="9" nextobjectid="30">
 <editorsettings>
  <export target="doorsroom.lua" format="lua"/>
 </editorsettings>
 <properties>
  <property name="music" value="doorsroom"/>
 </properties>
 <tileset firstgid="1" source="../../tilesets/church.tsx"/>
 <tileset firstgid="583" source="../../tilesets/hell.tsx"/>
 <layer id="8" name="Tile Layer 2" width="25" height="15">
  <data encoding="csv">
0,0,0,0,0,0,0,0,0,0,0,0,0,0,0,0,0,0,0,0,0,0,0,0,0,
0,0,0,0,0,0,0,0,0,21,22,23,23,0,0,0,0,0,0,0,0,0,0,0,0,
0,0,0,0,0,0,0,0,0,27,28,29,29,0,0,0,0,0,0,0,0,0,0,0,0,
0,0,0,0,0,0,0,0,0,2,3,4,4,565,566,0,0,0,0,0,0,0,0,0,0,
0,0,0,0,0,0,0,0,0,7,8,9,10,567,568,0,0,0,0,0,0,0,0,0,0,
0,0,0,0,0,0,0,0,0,13,14,15,16,365,366,0,0,0,0,0,0,0,0,0,0,
0,0,0,91,92,92,92,92,92,92,92,92,92,92,92,93,0,0,0,0,0,0,0,0,0,
0,0,0,97,98,98,98,98,98,98,98,98,98,98,98,99,0,0,0,0,0,0,0,0,0,
0,0,0,97,98,98,98,98,98,98,98,98,98,98,98,99,0,0,0,0,0,0,0,0,0,
0,0,0,103,104,104,104,104,104,104,104,104,104,104,104,105,0,0,0,0,0,0,0,0,0,
0,0,0,0,0,0,0,0,0,0,0,0,0,0,0,0,0,0,0,0,0,0,0,0,0,
0,0,0,0,0,0,0,0,0,0,0,0,0,0,0,0,0,0,0,0,0,0,0,0,0,
0,0,0,0,0,0,0,0,0,0,0,0,0,0,0,0,0,0,0,0,0,0,0,0,0,
0,0,0,0,0,0,0,0,0,0,0,0,0,0,0,0,0,0,0,0,0,0,0,0,0,
0,0,0,0,0,0,0,0,0,0,0,0,0,0,0,0,0,0,0,0,0,0,0,0,0
</data>
 </layer>
 <layer id="1" name="Tile Layer 1" width="25" height="15">
  <data encoding="csv">
0,0,0,0,0,0,0,0,0,0,0,0,0,0,0,0,0,0,0,0,0,0,0,0,0,
0,0,0,0,0,0,0,0,0,0,0,0,0,0,0,0,0,0,0,0,0,0,0,0,0,
0,0,0,0,0,0,0,0,0,0,0,0,0,0,0,0,0,0,0,0,622,623,624,0,0,
0,0,0,0,0,0,19,20,0,0,0,0,0,0,0,0,0,0,0,0,629,630,631,0,0,
0,0,0,0,0,0,25,26,136,137,138,0,0,0,0,0,0,0,0,0,636,637,638,0,0,
0,0,0,0,0,0,31,32,142,143,144,548,0,0,0,0,0,0,0,0,0,0,0,0,0,
0,0,0,0,0,0,37,38,154,155,150,560,0,0,0,0,0,0,0,0,584,585,586,0,0,
0,175,176,177,0,0,43,44,0,0,0,0,0,0,0,0,0,0,0,0,591,592,593,0,0,
0,181,182,183,0,0,0,0,0,0,0,0,0,0,0,0,0,0,0,0,598,599,600,0,0,
0,0,0,0,0,0,0,0,0,0,0,0,0,0,0,0,0,0,0,0,0,0,0,0,0,
0,0,0,0,0,0,0,0,0,0,0,0,0,0,0,0,0,0,0,0,0,0,0,0,0,
0,0,0,0,0,0,0,0,0,0,0,0,0,0,0,0,0,0,0,0,0,0,0,0,0,
0,0,0,0,0,0,0,0,0,0,0,0,0,0,0,0,0,0,0,0,0,0,0,0,0,
0,0,0,0,0,0,0,0,0,0,0,0,0,0,0,0,0,0,0,0,0,0,0,0,0,
0,0,0,0,0,0,0,0,0,0,0,0,0,0,0,0,0,0,0,0,0,0,0,0,0
</data>
 </layer>
 <objectgroup color="#0000ff" id="2" name="collision">
  <object id="1" x="0" y="240" width="120" height="160"/>
  <object id="3" x="120" y="80" width="120" height="160"/>
  <object id="4" x="480" y="40" width="120" height="80"/>
  <object id="5" x="600" y="40" width="80" height="200"/>
  <object id="6" x="80" y="400" width="600" height="200"/>
  <object id="7" x="680" y="0" width="320" height="40"/>
  <object id="8" x="960" y="40" width="40" height="560"/>
  <object id="9" x="680" y="560" width="280" height="40"/>
  <object id="10" x="800" y="80" width="120" height="120"/>
  <object id="11" x="800" y="240" width="120" height="120"/>
  <object id="12" x="320" y="80" width="200" height="160"/>
  <object id="13" x="240" y="40" width="80" height="40"/>
  <object id="20" x="320" y="240" width="160" height="40"/>
 </objectgroup>
 <objectgroup color="#ff0000" id="3" name="paths"/>
 <objectgroup color="#ff00ff" id="4" name="objects">
  <object id="22" name="npc" x="120" y="316">
   <properties>
    <property name="actor" value="bubbles"/>
    <property name="text" value="* You go left, [color:yellow]right[color:reset]? NoooOOO!!! You go [color:yellow]RIIIIGGHHTTT[color:reset]!!!"/>
   </properties>
   <point/>
  </object>
  <object id="23" name="transition" x="240" y="80" width="80" height="40">
   <properties>
    <property name="map" value="floor1/highroom"/>
    <property name="marker" value="stairs"/>
   </properties>
  </object>
  <object id="24" name="cameratarget" x="120" y="120" width="520" height="280">
   <properties>
    <property name="lockx" type="bool" value="true"/>
    <property name="locky" type="bool" value="false"/>
    <property name="target" value="stairs"/>
   </properties>
  </object>
  <object id="26" name="interactable" x="330" y="240" width="58" height="40">
   <properties>
    <property name="cutscene" value="loopness.door1"/>
   </properties>
  </object>
  <object id="27" name="interactable" x="400" y="240" width="80" height="40">
   <properties>
    <property name="text" value="* ...It's broken."/>
   </properties>
  </object>
  <object id="28" name="interactable" x="520" y="120" width="80" height="80">
   <properties>
    <property name="text" value="* It appears to not work, currently."/>
   </properties>
  </object>
  <object id="29" name="interactable" x="800" y="240" width="120" height="120">
   <properties>
    <property name="text" value="* It's solid..."/>
   </properties>
  </object>
 </objectgroup>
 <objectgroup color="#00c000" id="5" name="controllers"/>
 <objectgroup color="#7f00ff" id="6" name="markers">
  <object id="14" name="stairs" x="280" y="160">
   <point/>
  </object>
  <object id="15" name="spawn" x="400" y="360">
   <point/>
  </object>
  <object id="16" name="door1" x="360" y="308">
   <point/>
  </object>
  <object id="17" name="door2" x="420" y="309">
   <point/>
  </object>
  <object id="18" name="door3" x="462" y="311">
   <point/>
  </object>
 </objectgroup>
 <objectgroup color="#00ff00" id="7" name="battleareas"/>
</map>
