<?xml version="1.0" encoding="UTF-8"?>
<map version="1.11" tiledversion="1.11.2" orientation="orthogonal" renderorder="right-down" width="22" height="20" tilewidth="40" tileheight="40" infinite="0" nextlayerid="15" nextobjectid="29">
 <editorsettings>
  <export target="highroom.lua" format="lua"/>
 </editorsettings>
 <properties>
  <property name="music" value="doorsroom"/>
 </properties>
 <tileset firstgid="1" source="../../tilesets/main_area.tsx"/>
 <tileset firstgid="209" source="../../tilesets/hotland.tsx"/>
 <tileset firstgid="497" source="../../tilesets/Tilesetthingy.tsx"/>
 <layer id="11" name="Tile Layer 5" width="22" height="20">
  <data encoding="csv">
393,393,393,393,393,393,393,393,393,393,393,393,393,393,393,393,393,393,393,393,393,393,
393,393,393,393,393,393,393,393,393,393,393,393,393,393,393,393,393,393,393,393,393,393,
393,393,393,393,393,393,393,393,393,393,393,393,393,393,393,393,393,393,393,393,393,393,
393,393,393,393,393,393,393,393,393,393,393,393,393,393,393,393,393,393,393,393,393,393,
393,393,393,393,393,393,393,393,393,393,393,393,393,393,393,393,393,393,393,393,393,393,
393,393,393,393,393,393,393,393,393,393,393,393,393,393,393,393,393,393,393,393,393,393,
393,393,393,393,393,393,393,393,393,393,393,393,393,393,393,393,393,393,393,393,393,393,
393,393,393,393,393,393,393,393,393,393,393,393,393,393,393,393,393,393,393,393,393,393,
393,393,393,393,393,393,393,393,393,393,393,393,393,393,393,393,393,393,393,393,393,393,
393,393,393,393,393,393,393,393,393,393,393,393,393,393,393,393,393,393,393,393,393,393,
393,393,393,393,393,393,393,393,393,393,393,393,393,393,393,393,393,393,393,393,393,393,
393,393,393,393,393,393,393,393,393,393,393,393,393,393,393,393,393,393,393,393,393,393,
393,393,393,393,393,393,393,393,393,393,393,393,393,393,393,393,393,393,393,393,393,393,
393,393,393,393,393,393,393,393,393,393,393,393,393,393,393,393,393,393,393,393,393,393,
393,393,393,393,393,393,393,393,393,393,393,393,393,393,393,393,393,393,393,393,393,393,
393,393,393,393,393,393,393,393,393,393,393,393,393,393,393,393,393,393,393,393,393,393,
393,393,393,393,393,393,393,393,393,393,393,393,393,393,393,393,393,393,393,393,393,393,
393,393,393,393,393,393,393,393,393,393,393,393,393,393,393,393,393,393,393,393,393,393,
393,393,393,393,393,393,393,393,393,393,393,393,393,393,393,393,393,393,393,393,393,393,
393,393,393,393,393,393,393,393,393,393,393,393,393,393,393,393,393,393,393,393,393,393
</data>
 </layer>
 <layer id="14" name="Tile Layer 8" width="22" height="20">
  <data encoding="csv">
0,0,0,0,0,0,0,0,0,0,0,0,0,0,0,0,0,0,0,0,0,0,
0,0,0,0,0,0,0,0,0,0,0,0,0,0,0,0,0,0,0,0,0,0,
0,0,0,0,0,0,0,0,0,0,0,0,0,0,0,0,0,0,0,0,0,0,
0,0,0,0,0,0,0,0,0,0,0,0,0,0,0,0,0,0,0,0,0,0,
0,0,428,429,429,429,429,430,0,0,0,0,0,0,0,0,0,0,0,0,0,0,
0,0,446,447,447,447,447,448,0,0,0,0,0,0,0,0,0,0,0,0,0,0,
0,0,464,465,465,465,465,466,0,0,0,0,0,0,0,0,0,0,0,0,0,0,
0,0,0,0,0,0,0,0,0,0,0,0,0,0,0,0,0,0,0,0,0,0,
0,0,0,0,0,0,0,0,0,0,0,0,0,0,0,0,0,0,0,0,0,0,
0,0,0,0,0,0,0,0,0,0,0,0,0,0,0,0,0,0,0,0,0,0,
0,0,0,0,0,0,0,0,0,0,0,0,0,0,0,0,0,0,0,0,0,0,
0,0,0,0,0,0,0,0,0,0,0,0,0,0,0,0,0,0,0,0,0,0,
0,0,0,0,0,0,0,0,0,0,0,0,0,0,0,0,0,0,0,0,0,0,
0,0,0,0,0,0,0,0,0,0,0,0,0,0,0,0,0,0,0,0,0,0,
0,0,0,0,0,0,0,0,0,0,0,0,0,0,0,0,0,0,0,0,0,0,
0,0,0,0,0,0,0,0,0,0,0,0,0,0,0,0,0,0,0,0,0,0,
0,0,0,0,0,0,0,0,0,0,0,0,0,0,0,0,0,0,0,0,0,0,
0,0,0,0,0,0,0,0,0,0,0,0,0,0,0,0,0,0,0,0,0,0,
0,0,0,0,0,0,0,0,0,0,0,0,0,0,0,0,0,0,0,0,0,0,
0,0,0,0,0,0,0,0,0,0,0,0,0,0,0,0,0,0,0,0,0,0
</data>
 </layer>
 <layer id="12" name="Tile Layer 6" width="22" height="20" opacity="0.2">
  <data encoding="csv">
504,504,504,504,504,504,504,504,504,504,504,504,504,504,504,504,504,504,504,504,504,504,
504,504,504,504,504,504,504,504,504,504,504,504,504,504,504,504,504,504,504,504,504,504,
504,504,504,504,504,504,504,504,504,504,504,504,504,504,504,504,504,504,504,504,504,504,
504,504,504,504,504,504,504,504,504,504,504,504,504,504,504,504,504,504,504,504,504,504,
504,504,504,504,504,504,504,504,504,504,504,504,504,504,504,504,504,504,504,504,504,504,
504,504,504,504,504,504,504,504,504,504,504,504,504,504,504,504,504,504,504,504,504,504,
504,504,504,504,504,504,504,504,504,504,504,504,504,504,504,504,504,504,504,504,504,504,
504,504,504,504,504,504,504,504,504,504,504,504,504,504,504,504,504,504,504,504,504,504,
504,504,504,504,504,504,504,504,504,504,504,504,504,504,504,504,504,504,504,504,504,504,
504,504,504,504,504,504,504,504,504,504,504,504,504,504,504,504,504,504,504,504,504,504,
504,504,504,504,504,504,504,504,504,504,504,504,504,504,504,504,504,504,504,504,504,504,
504,504,504,504,504,504,504,504,504,504,504,504,504,504,504,504,504,504,504,504,504,504,
504,504,504,504,504,504,504,504,504,504,504,504,504,504,504,504,504,504,504,504,504,504,
504,504,504,504,504,504,504,504,504,504,504,504,504,504,504,504,504,504,504,504,504,504,
504,504,504,504,504,504,504,504,504,504,504,504,504,504,504,504,504,504,504,504,504,504,
504,504,504,504,504,504,504,504,504,504,504,504,504,504,504,504,504,504,504,504,504,504,
504,504,504,504,504,504,504,504,504,504,504,504,504,504,504,504,504,504,504,504,504,504,
504,504,504,504,504,504,504,504,504,504,504,504,504,504,504,504,504,504,504,504,504,504,
504,504,504,504,504,504,504,504,504,504,504,504,504,504,504,504,504,504,504,504,504,504,
504,504,504,504,504,504,504,504,504,504,504,504,504,504,504,504,504,504,504,504,504,504
</data>
 </layer>
 <layer id="13" name="Tile Layer 6" width="22" height="20" opacity="0.2" parallaxx="0.5" parallaxy="0.5">
  <data encoding="csv">
504,504,504,504,504,504,504,504,504,504,504,504,504,504,504,504,504,504,504,504,504,504,
504,504,504,504,504,504,504,504,504,504,504,504,504,504,504,504,504,504,504,504,504,504,
504,504,504,504,504,504,504,504,504,504,504,504,504,504,504,504,504,504,504,504,504,504,
504,504,504,504,504,504,504,504,504,504,504,504,504,504,504,504,504,504,504,504,504,504,
504,504,504,504,504,504,504,504,504,504,504,504,504,504,504,504,504,504,504,504,504,504,
504,504,504,504,504,504,504,504,504,504,504,504,504,504,504,504,504,504,504,504,504,504,
504,504,504,504,504,504,504,504,504,504,504,504,504,504,504,504,504,504,504,504,504,504,
504,504,504,504,504,504,504,504,504,504,504,504,504,504,504,504,504,504,504,504,504,504,
504,504,504,504,504,504,504,504,504,504,504,504,504,504,504,504,504,504,504,504,504,504,
504,504,504,504,504,504,504,504,504,504,504,504,504,504,504,504,504,504,504,504,504,504,
504,504,504,504,504,504,504,504,504,504,504,504,504,504,504,504,504,504,504,504,504,504,
504,504,504,504,504,504,504,504,504,504,504,504,504,504,504,504,504,504,504,504,504,504,
504,504,504,504,504,504,504,504,504,504,504,504,504,504,504,504,504,504,504,504,504,504,
504,504,504,504,504,504,504,504,504,504,504,504,504,504,504,504,504,504,504,504,504,504,
504,504,504,504,504,504,504,504,504,504,504,504,504,504,504,504,504,504,504,504,504,504,
504,504,504,504,504,504,504,504,504,504,504,504,504,504,504,504,504,504,504,504,504,504,
504,504,504,504,504,504,504,504,504,504,504,504,504,504,504,504,504,504,504,504,504,504,
504,504,504,504,504,504,504,504,504,504,504,504,504,504,504,504,504,504,504,504,504,504,
504,504,504,504,504,504,504,504,504,504,504,504,504,504,504,504,504,504,504,504,504,504,
504,504,504,504,504,504,504,504,504,504,504,504,504,504,504,504,504,504,504,504,504,504
</data>
 </layer>
 <layer id="9" name="Tile Layer 3" width="22" height="20">
  <data encoding="csv">
0,0,0,0,0,0,0,0,0,0,0,0,0,0,0,0,0,0,0,0,0,0,
0,0,0,0,0,0,0,0,0,0,0,0,0,0,0,0,0,0,0,0,0,0,
0,0,0,0,0,0,0,0,0,0,0,0,0,0,0,0,0,0,0,0,0,0,
0,0,0,0,0,0,0,0,0,0,0,0,0,0,0,0,0,0,0,0,0,0,
0,0,0,0,0,0,0,0,347,348,349,0,350,351,352,0,0,0,0,0,0,0,
0,0,0,0,0,0,0,0,365,366,367,0,368,369,370,0,0,0,0,0,0,0,
0,0,0,0,0,0,0,0,383,384,385,0,386,387,388,0,0,0,0,0,0,0,
0,0,0,0,0,0,0,0,401,402,403,0,404,405,406,0,0,0,0,0,0,0,
0,0,0,0,0,0,0,0,419,420,421,0,422,423,424,0,0,0,0,0,0,0,
0,0,0,0,0,0,0,0,437,438,439,0,440,441,442,0,0,0,0,0,0,0,
0,0,0,0,0,0,0,0,0,0,0,0,0,0,0,0,0,0,0,0,0,0,
0,0,0,0,0,0,0,0,0,0,0,0,0,0,0,0,0,0,0,0,0,0,
0,0,0,0,0,0,0,0,0,0,0,0,0,0,0,0,0,0,0,0,0,0,
0,0,0,0,0,0,0,0,0,0,0,0,0,0,0,0,0,0,0,0,0,0,
0,0,0,0,0,0,0,0,0,0,0,0,0,0,0,0,0,0,0,0,0,0,
0,0,0,0,0,0,0,0,0,0,0,0,0,0,0,0,0,0,0,0,0,0,
0,303,303,0,0,0,0,0,0,0,0,0,0,0,0,0,0,0,0,303,303,0,
303,457,458,303,0,0,0,0,0,0,0,0,0,0,0,0,0,0,303,457,458,303,
456,475,476,455,0,0,0,0,0,0,0,0,0,0,0,0,0,0,456,475,476,455,
474,471,472,473,0,0,0,0,0,0,0,0,0,0,0,0,0,0,474,471,472,473
</data>
 </layer>
 <layer id="1" name="Tile Layer 1" width="22" height="20">
  <data encoding="csv">
0,0,0,0,0,0,0,0,0,0,0,0,0,0,0,0,0,0,0,0,0,0,
0,0,0,0,0,0,0,0,0,0,0,0,0,0,0,0,0,0,0,0,0,0,
0,0,374,375,375,375,375,376,0,0,0,0,0,0,0,0,0,0,0,0,0,0,
0,0,410,411,411,411,411,412,0,0,0,67,0,0,0,0,0,0,0,0,0,0,
0,0,0,0,0,0,0,0,8,9,10,80,11,12,13,0,0,0,0,0,0,0,
0,0,0,0,0,0,0,0,21,22,23,80,24,25,26,0,0,0,0,0,0,0,
0,0,0,0,0,0,0,0,34,35,36,80,37,38,39,0,0,0,0,0,0,0,
0,0,0,329,0,0,331,0,47,48,49,80,50,51,52,0,0,0,0,0,0,0,
0,0,0,0,0,0,0,40,41,41,41,93,41,41,41,42,0,0,0,0,0,0,
0,0,0,0,0,0,0,15,54,54,54,54,54,54,54,55,0,0,0,0,0,0,
0,0,0,0,0,0,0,15,54,54,54,54,54,54,54,55,0,0,0,0,0,0,
0,0,0,0,0,0,0,53,54,54,54,54,54,54,54,55,0,0,0,0,0,0,
0,0,0,0,0,0,0,0,0,0,15,15,15,0,0,0,0,0,0,0,0,0,
0,0,0,0,0,0,0,79,80,80,43,44,45,80,80,81,0,0,0,0,0,0,
0,0,0,0,0,0,0,79,80,80,43,44,45,80,80,81,0,0,0,0,0,0,
0,0,0,0,0,0,0,79,80,80,43,44,45,80,80,81,0,0,0,0,0,0,
0,0,0,0,0,0,0,79,80,80,43,44,45,80,80,81,0,0,0,0,0,0,
0,0,0,0,0,0,0,79,80,80,43,44,45,80,80,81,0,0,0,0,0,0,
0,0,0,0,0,0,0,79,80,80,43,44,45,80,80,81,0,0,0,0,0,0,
0,0,0,0,0,0,0,79,80,80,43,44,45,80,80,81,0,0,0,0,0,0
</data>
 </layer>
 <layer id="8" name="Tile Layer 2" width="22" height="20">
  <data encoding="csv">
0,0,0,0,0,0,0,0,0,0,0,0,0,0,0,0,0,0,0,0,0,0,
0,0,377,378,0,379,380,381,0,0,1,2,2,2,2,3,0,0,0,0,0,0,
0,0,395,396,0,397,398,399,0,0,27,28,28,28,28,29,0,0,0,0,0,0,
0,0,0,0,0,0,0,0,0,0,0,0,0,0,0,0,0,0,0,0,0,0,
0,0,0,0,237,237,0,0,0,0,0,0,0,0,0,0,0,0,0,0,0,0,
0,0,0,0,255,237,0,0,0,0,0,0,0,0,0,0,0,0,0,0,0,0,
0,0,0,0,251,237,0,0,0,0,0,62,0,0,0,0,382,0,0,0,0,0,
0,0,0,0,233,233,0,0,0,0,0,75,0,0,0,0,400,0,0,0,0,0,
0,0,0,0,233,251,0,0,0,0,0,0,0,0,0,0,225,0,0,0,0,0,
0,0,0,0,251,269,270,0,0,0,0,0,0,0,0,0,243,0,0,0,0,0,
0,0,0,0,269,270,270,0,0,0,0,0,0,0,0,0,0,0,0,0,0,0,
0,0,0,0,0,0,0,0,0,0,0,0,0,0,0,0,0,0,0,0,0,0,
0,0,0,0,0,0,0,0,0,0,0,0,0,0,0,0,0,0,0,0,0,0,
0,0,0,0,0,0,0,0,0,0,0,0,0,0,0,0,0,0,0,0,0,0,
0,0,0,0,0,0,0,0,0,0,0,0,0,0,0,0,0,0,0,0,0,0,
0,0,0,0,0,226,0,0,0,0,0,0,0,0,0,0,0,0,0,0,0,0,
0,0,0,0,0,244,0,0,0,0,0,0,0,0,0,0,0,0,0,0,0,0,
0,0,0,0,0,244,0,0,0,0,0,0,0,0,0,0,0,0,0,0,0,0,
0,0,0,0,0,262,0,0,0,0,0,0,0,0,0,0,0,0,0,0,0,0,
0,0,0,0,0,0,0,0,0,0,0,0,0,0,0,0,0,0,0,0,0,0
</data>
 </layer>
 <objectgroup color="#0000ff" id="2" name="collision">
  <object id="1" x="280" y="520" width="120" height="280"/>
  <object id="2" x="520" y="520" width="120" height="280"/>
  <object id="3" x="640" y="320" width="40" height="200"/>
  <object id="4" x="480" y="120" width="160" height="200"/>
  <object id="5" x="320" y="120" width="120" height="200"/>
  <object id="6" x="280" y="160" width="40" height="160"/>
  <object id="7" x="240" y="160" width="56" height="200"/>
  <object id="8" x="320" y="40" width="80" height="80"/>
  <object id="9" x="80" y="40" width="240" height="40"/>
  <object id="10" x="80" y="160" width="80" height="280"/>
  <object id="11" x="120" y="440" width="176" height="80"/>
  <object id="12" x="40" y="40" width="40" height="320"/>
  <object id="14" x="640" y="0" width="40" height="160"/>
  <object id="15" x="360" y="0" width="280" height="40"/>
  <object id="18" x="480" y="320" width="5" height="40"/>
  <object id="19" x="435" y="320" width="5" height="40"/>
  <object id="24" x="203" y="64" width="120" height="40"/>
  <object id="27" x="80" y="62" width="80" height="40"/>
 </objectgroup>
 <objectgroup color="#ff0000" id="3" name="paths"/>
 <objectgroup color="#ff00ff" id="4" name="objects">
  <object id="17" name="slidearea" x="440" y="120" width="40" height="240">
   <properties>
    <property name="solid" type="bool" value="true"/>
   </properties>
  </object>
  <object id="20" name="transition" x="400" y="800" width="120" height="40">
   <properties>
    <property name="map" value="floor1/doorsroom"/>
    <property name="marker" value="stairs"/>
   </properties>
  </object>
  <object id="21" name="interactable" x="440" y="320" width="40" height="40">
   <properties>
    <property name="text" value="* (It's a flier, advertising some 'Test FUCKING dialogue')"/>
   </properties>
  </object>
  <object id="22" name="interactable" x="202" y="62" width="120" height="40">
   <properties>
    <property name="cutscene" value="loopness.door3"/>
   </properties>
  </object>
  <object id="23" name="npc" x="600" y="344">
   <properties>
    <property name="actor" value="tearful"/>
    <property name="text1" value="* (It seems to be crying! But why?)"/>
    <property name="text2" value="* (It cries to cry, that is why?                       )"/>
   </properties>
   <point/>
  </object>
  <object id="26" name="npc" x="600" y="80">
   <properties>
    <property name="actor" value="gumbler"/>
    <property name="cutscene" value="loopness.gumbler"/>
   </properties>
   <point/>
  </object>
  <object id="28" name="interactable" x="80" y="60" width="80" height="40">
   <properties>
    <property name="cutscene" value="loopness.console"/>
   </properties>
  </object>
 </objectgroup>
 <objectgroup color="#00c000" id="5" name="controllers"/>
 <objectgroup color="#7f00ff" id="6" name="markers">
  <object id="13" name="spawn" x="460" y="80">
   <point/>
  </object>
  <object id="25" name="stairs" x="463" y="760">
   <point/>
  </object>
 </objectgroup>
 <objectgroup color="#00ff00" id="7" name="battleareas"/>
 <layer id="10" name="Tile Layer 4" width="22" height="20">
  <data encoding="csv">
0,0,0,0,0,0,0,0,0,0,0,0,0,0,0,0,0,0,0,0,0,0,
0,0,0,0,0,0,0,0,0,0,0,0,0,0,0,0,0,0,0,0,0,0,
0,0,0,0,0,0,0,0,0,0,0,0,0,0,0,0,0,0,0,0,0,0,
0,0,0,0,0,0,0,0,0,0,0,0,0,0,0,0,0,0,0,0,0,0,
0,0,0,0,0,0,0,0,0,0,0,0,0,0,0,0,0,0,0,0,0,0,
0,0,0,0,0,0,0,0,0,0,0,0,0,0,0,0,0,0,0,0,0,0,
0,0,0,0,0,0,0,0,0,0,0,0,0,0,0,0,0,0,0,0,0,0,
0,0,0,0,0,0,0,0,0,0,0,0,0,0,0,0,0,0,0,0,0,0,
0,0,0,0,0,0,0,0,0,0,0,0,0,0,0,0,0,0,0,0,0,0,
0,0,0,0,0,0,0,0,0,0,0,0,0,0,0,0,0,0,0,0,0,0,
0,0,0,0,0,0,0,0,0,0,0,0,0,0,0,0,0,0,0,0,0,0,
0,0,0,0,0,0,0,0,0,0,0,0,0,0,0,0,0,0,0,0,0,0,
0,0,0,0,0,0,0,66,67,67,0,0,0,67,67,68,0,0,0,0,0,0,
0,0,0,0,0,0,0,0,0,0,0,0,0,0,0,0,0,0,0,0,0,0,
0,0,0,0,0,0,0,0,0,0,0,0,0,0,0,0,0,0,0,0,0,0,
0,0,0,0,0,0,0,0,0,0,0,0,0,0,0,0,0,0,0,0,0,0,
0,0,0,0,0,0,0,0,0,0,0,0,0,0,0,0,0,0,0,0,0,0,
0,0,0,0,0,0,0,0,0,0,0,0,0,0,0,0,0,0,0,0,0,0,
0,0,0,0,0,0,0,0,0,0,0,0,0,0,0,0,0,0,0,0,0,0,
0,0,0,0,0,0,0,0,0,0,0,0,0,0,0,0,0,0,0,0,0,0
</data>
 </layer>
</map>
