<?xml version="1.0" encoding="UTF-8"?>
<map version="1.11" tiledversion="1.11.2" orientation="orthogonal" renderorder="right-down" width="20" height="14" tilewidth="40" tileheight="40" infinite="0" nextlayerid="13" nextobjectid="13">
 <editorsettings>
  <export target="strangeroom.lua" format="lua"/>
 </editorsettings>
 <properties>
  <property name="music" value="evilnoises"/>
 </properties>
 <tileset firstgid="1" source="../../tilesets/Tilesetthingy.tsx"/>
 <layer id="8" name="Tile Layer 2" width="20" height="14">
  <data encoding="csv">
26,26,26,26,26,26,26,26,26,26,26,26,26,26,26,26,26,26,26,26,
26,26,26,26,26,26,26,26,26,26,26,26,26,26,26,26,26,26,26,26,
26,26,26,26,26,26,26,26,26,26,26,26,26,26,26,26,26,26,26,26,
26,26,26,26,26,26,26,26,26,26,26,26,26,26,26,26,26,26,26,26,
26,26,26,26,26,26,26,26,26,26,26,26,26,26,26,26,26,26,26,26,
26,26,26,26,26,26,26,26,26,26,26,26,26,26,26,26,26,26,26,26,
26,26,26,26,26,26,26,26,26,26,26,26,26,26,13,13,13,13,13,13,
26,26,26,26,26,26,26,26,26,26,26,26,26,26,13,13,13,13,13,13,
26,26,26,26,26,26,26,26,26,26,26,26,26,26,26,26,26,26,26,26,
26,26,26,26,26,26,26,26,26,26,26,26,26,26,26,26,26,26,26,26,
26,26,26,26,26,26,26,26,26,26,26,26,26,26,26,26,26,26,26,26,
26,26,26,26,26,26,26,26,26,26,26,26,26,26,26,26,26,26,26,26,
26,26,26,26,26,26,26,26,26,26,26,26,26,26,26,26,26,26,26,26,
26,26,26,26,26,26,26,26,26,26,26,26,26,26,26,26,26,26,26,26
</data>
 </layer>
 <layer id="9" name="Tile Layer 3" width="20" height="14">
  <data encoding="csv">
0,0,0,0,0,0,0,0,0,0,0,0,0,0,0,0,0,0,0,0,
0,0,0,0,0,0,0,0,0,0,0,0,0,0,0,0,0,0,0,0,
0,0,0,0,0,0,0,0,0,0,0,0,0,0,0,0,0,0,0,0,
0,0,0,0,0,0,0,0,0,0,0,0,0,0,0,0,0,0,0,0,
0,0,0,0,0,0,0,0,0,0,0,0,0,0,0,0,0,0,0,0,
0,0,0,0,0,0,0,0,0,0,0,0,0,0,0,0,0,0,0,0,
0,0,0,0,0,0,0,0,0,0,0,0,0,0,42,42,42,42,42,42,
0,0,0,0,0,0,0,0,0,0,0,0,0,0,58,58,58,58,58,58,
0,0,0,0,0,0,0,0,0,0,0,0,0,0,0,0,0,0,0,0,
0,0,0,0,0,0,0,0,0,0,0,0,0,0,0,0,0,0,0,0,
0,0,0,0,0,0,0,0,0,0,0,0,0,0,0,0,0,0,0,0,
0,0,0,0,0,0,0,0,0,0,0,0,0,0,0,0,0,0,0,0,
0,0,0,0,0,0,0,0,0,0,0,0,0,0,0,0,0,0,0,0,
0,0,0,0,0,0,0,0,0,0,0,0,0,0,0,0,0,0,0,0
</data>
 </layer>
 <layer id="12" name="Tile Layer 6" width="20" height="14">
  <data encoding="csv">
47,47,47,47,47,47,47,47,47,47,47,47,47,47,47,47,47,47,47,47,
47,47,47,47,47,47,47,47,47,47,47,47,47,47,47,47,47,47,47,47,
47,47,47,47,47,47,47,47,47,47,47,47,47,47,47,47,47,47,47,47,
47,47,47,47,47,47,47,47,47,47,47,47,47,47,47,47,47,47,47,47,
47,47,47,47,47,47,47,47,47,47,47,47,47,47,47,47,47,47,47,47,
47,47,47,47,47,47,47,47,47,47,47,47,47,47,47,47,47,47,47,47,
47,47,47,47,47,47,47,47,47,47,47,47,47,47,47,47,47,47,47,47,
47,47,47,47,47,47,47,47,47,47,47,47,47,47,47,47,47,47,47,47,
47,47,47,47,47,47,47,47,47,47,47,47,47,47,47,47,47,47,47,47,
47,47,47,47,47,47,47,47,47,47,47,47,47,47,47,47,47,47,47,47,
47,47,47,47,47,47,47,47,47,47,47,47,47,47,47,47,47,47,47,47,
47,47,47,47,47,47,47,47,47,47,47,47,47,47,47,47,47,47,47,47,
47,47,47,47,47,47,47,47,47,47,47,47,47,47,47,47,47,47,47,47,
47,47,47,47,47,47,47,47,47,47,47,47,47,47,47,47,47,47,47,47
</data>
 </layer>
 <layer id="10" name="Tile Layer 4" width="20" height="14" opacity="0.2" parallaxy="0.7">
  <data encoding="csv">
8,8,8,8,8,8,8,8,8,8,8,8,8,8,8,8,8,8,8,8,
8,8,8,8,8,8,8,8,8,8,8,8,8,8,8,8,8,8,8,8,
8,8,8,8,8,8,8,8,8,8,8,8,8,8,8,8,8,8,8,8,
8,8,8,8,8,8,8,8,8,8,8,8,8,8,8,8,8,8,8,8,
8,8,8,8,8,8,8,8,8,8,8,8,8,8,8,8,8,8,8,8,
8,8,8,8,8,8,8,8,8,8,8,8,8,8,8,8,8,8,8,8,
8,8,8,8,8,8,8,8,8,8,8,8,8,8,8,8,8,8,8,8,
8,8,8,8,8,8,8,8,8,8,8,8,8,8,8,8,8,8,8,8,
8,8,8,8,8,8,8,8,8,8,8,8,8,8,8,8,8,8,8,8,
8,8,8,8,8,8,8,8,8,8,8,8,8,8,8,8,8,8,8,8,
8,8,8,8,8,8,8,8,8,8,8,8,8,8,8,8,8,8,8,8,
8,8,8,8,8,8,8,8,8,8,8,8,8,8,8,8,8,8,8,8,
8,8,8,8,8,8,8,8,8,8,8,8,8,8,8,8,8,8,8,8,
8,8,8,8,8,8,8,8,8,8,8,8,8,8,8,8,8,8,8,8
</data>
 </layer>
 <layer id="1" name="Tile Layer 1" width="20" height="14">
  <data encoding="csv">
0,0,0,0,0,0,0,0,0,0,0,0,0,0,0,0,0,0,0,0,
0,0,0,0,0,0,0,0,0,0,0,0,0,0,0,0,0,0,0,0,
0,0,0,0,0,0,0,0,0,0,0,0,0,0,0,0,0,0,0,0,
0,0,0,0,0,0,0,0,17,18,18,18,18,18,19,0,0,0,0,0,
0,0,0,0,0,0,0,0,25,26,26,26,26,26,27,0,0,0,0,0,
0,0,0,0,0,0,0,0,25,26,26,26,26,26,27,0,0,0,0,0,
0,0,0,0,0,0,0,0,25,26,26,26,26,26,27,0,0,0,0,0,
0,0,0,0,0,0,0,0,25,26,26,26,26,26,27,0,0,0,0,0,
0,0,0,0,0,0,0,0,33,34,34,7,34,34,35,0,0,0,0,0,
0,0,0,0,0,0,0,0,9,10,10,28,10,10,11,0,0,0,0,0,
0,0,0,0,0,0,0,0,9,10,10,29,10,10,11,0,0,0,0,0,
0,0,0,0,0,0,0,0,9,10,10,29,10,10,11,0,0,0,0,0,
0,0,0,0,0,0,0,0,9,10,10,29,10,10,11,0,0,0,0,0,
0,0,0,0,0,0,0,0,9,10,10,29,10,10,11,0,0,0,0,0
</data>
 </layer>
 <layer id="11" name="Tile Layer 5" width="20" height="14">
  <data encoding="csv">
0,0,0,0,0,0,0,0,0,0,0,0,0,0,0,0,0,0,0,0,
0,0,0,0,0,0,0,0,0,0,0,0,0,0,0,0,0,0,0,0,
0,0,0,0,0,0,0,0,0,0,0,0,0,0,0,0,0,0,0,0,
0,0,0,0,0,0,0,0,0,0,0,0,0,0,0,0,0,0,0,0,
0,0,0,0,0,0,0,0,0,0,0,0,0,0,0,0,0,0,0,0,
0,0,0,0,0,0,0,0,0,0,0,0,0,0,0,0,0,0,0,0,
0,0,0,0,0,0,0,0,0,0,0,0,0,0,0,0,0,0,0,0,
0,0,0,0,0,0,0,0,0,0,0,0,0,0,0,0,0,0,0,0,
0,0,0,0,0,0,0,0,0,0,0,0,0,0,0,0,0,0,0,0,
0,0,0,0,0,0,0,0,0,23,39,39,0,39,0,0,0,0,0,0,
0,0,0,0,0,0,0,0,0,0,0,0,0,0,0,0,0,0,0,0,
0,0,0,0,0,0,0,0,0,0,0,0,0,0,0,0,0,0,0,0,
0,0,0,0,0,0,0,0,0,0,0,0,0,0,0,0,0,0,0,0,
0,0,0,0,0,0,0,0,0,0,0,0,0,0,0,0,0,0,0,0
</data>
 </layer>
 <objectgroup color="#0000ff" id="2" name="collision">
  <object id="1" x="480" y="352" width="120" height="208"/>
  <object id="2" x="600" y="320" width="200" height="80"/>
  <object id="3" x="600" y="120" width="200" height="120"/>
  <object id="4" x="280" y="80" width="400" height="40"/>
  <object id="5" x="280" y="120" width="40" height="280"/>
  <object id="6" x="320" y="351" width="120" height="209"/>
 </objectgroup>
 <objectgroup color="#ff0000" id="3" name="paths"/>
 <objectgroup color="#ff00ff" id="4" name="objects">
  <object id="7" name="slidearea" x="440" y="352" width="40" height="208"/>
  <object id="8" name="transition" x="400" y="520" width="120" height="40">
   <properties>
    <property name="map" value="floor1/groundarea"/>
    <property name="marker" value="slidearea"/>
   </properties>
  </object>
  <object id="11" name="transition" x="760" y="240" width="40" height="80">
   <properties>
    <property name="map" value="floor1/roomloop"/>
    <property name="marker" value="Exit"/>
   </properties>
  </object>
  <object id="12" name="npc" x="560" y="160">
   <properties>
    <property name="actor" value="basicnpc"/>
    <property name="text1">* Oh, buzz buzz!
* Oh, BUZZ! BUZZ!</property>
    <property name="text2" value="* I buzz my heart out to you fools!"/>
   </properties>
   <point/>
  </object>
 </objectgroup>
 <objectgroup color="#00c000" id="5" name="controllers"/>
 <objectgroup color="#7f00ff" id="6" name="markers">
  <object id="9" name="spawn" x="440" y="240">
   <point/>
  </object>
  <object id="10" name="sidedoor" x="720" y="280">
   <point/>
  </object>
 </objectgroup>
 <objectgroup color="#00ff00" id="7" name="battleareas"/>
</map>
