<?xml version="1.0" encoding="UTF-8"?>
<map version="1.11" tiledversion="1.12.2" orientation="orthogonal" renderorder="right-down" width="16" height="12" tilewidth="40" tileheight="40" infinite="0" nextlayerid="6" nextobjectid="14">
 <properties>
  <property name="music" value="gabrielcito_nap_theme"/>
 </properties>
 <tileset firstgid="1" source="../../../../tilesets/floor2.tsx"/>
 <layer id="1" name="tiles" width="16" height="12">
  <data encoding="csv">
0,0,0,0,0,0,0,0,0,0,0,0,0,0,0,0,
0,0,0,0,0,0,0,0,0,0,0,0,0,0,0,0,
0,0,0,0,0,0,0,0,0,0,0,0,0,0,0,0,
0,0,6,7,7,7,7,7,7,7,7,7,8,0,0,0,
0,0,23,24,24,24,24,24,24,24,24,24,25,0,0,0,
0,0,23,24,24,24,24,24,24,24,24,24,25,0,0,0,
0,0,23,24,24,24,24,24,24,24,24,24,25,0,0,0,
0,0,23,24,24,24,24,24,24,24,24,24,25,0,0,0,
0,0,23,24,24,24,24,24,24,24,24,24,25,0,0,0,
0,0,40,41,41,41,26,24,27,41,41,41,42,0,0,0,
0,0,0,0,0,0,23,24,25,0,0,0,0,0,0,0,
0,0,0,0,0,0,23,24,25,0,0,0,0,0,0,0
</data>
 </layer>
 <layer id="2" name="decal" width="16" height="12">
  <data encoding="csv">
0,0,0,0,0,0,0,0,0,0,0,0,0,0,0,0,
0,0,0,0,0,0,0,0,0,0,0,0,0,0,0,0,
0,0,0,0,0,0,0,0,0,0,0,0,0,0,0,0,
0,0,0,0,0,0,0,0,0,0,0,0,0,0,0,0,
0,0,0,0,0,0,0,0,0,0,0,0,0,0,0,0,
0,0,0,0,0,0,0,0,0,0,0,0,0,0,0,0,
0,0,0,0,0,0,0,0,0,0,0,0,0,0,0,0,
0,0,0,0,0,0,0,0,0,0,0,0,0,0,0,0,
0,0,0,0,0,0,0,0,0,0,0,0,0,0,0,0,
0,0,0,0,0,0,0,0,0,0,0,0,0,0,0,0,
0,0,0,0,0,0,0,0,0,0,0,0,0,0,0,0,
0,0,0,0,0,0,0,0,0,0,0,0,0,0,0,0
</data>
 </layer>
 <objectgroup color="#0000ff" id="3" name="collision">
  <object id="1" x="80" y="80" width="440" height="40"/>
  <object id="2" x="360" y="400" width="160" height="80"/>
  <object id="3" x="520" y="120" width="40" height="280"/>
  <object id="4" x="40" y="120" width="40" height="280"/>
  <object id="5" x="80" y="400" width="160" height="80"/>
 </objectgroup>
 <objectgroup color="#ff00ff" id="4" name="objects">
  <object id="8" name="script" x="240" y="480" width="120" height="40">
   <properties>
    <property name="cutscene" value="floor2.jam26"/>
    <property name="id" type="int" value="-6"/>
    <property name="once" type="bool" value="false"/>
   </properties>
  </object>
  <object id="9" name="gabrielcito_nap" x="300" y="260">
   <point/>
  </object>
  <object id="11" name="interactable" x="240" y="230" width="120" height="40">
   <properties>
    <property name="solid" type="bool" value="true"/>
    <property name="text1_1" value="* (It appears to be asleep.)"/>
    <property name="text1_2" value="* (...[wait:5] Better to let her sleep.)"/>
    <property name="text2_1" value="* (A sleeping cat...?)"/>
   </properties>
  </object>
 </objectgroup>
 <objectgroup color="#7f00ff" id="5" name="markers">
  <object id="7" name="entry_main" x="300" y="440">
   <point/>
  </object>
  <object id="13" name="spawn" x="300" y="320">
   <point/>
  </object>
 </objectgroup>
</map>
