<?xml version="1.0" encoding="UTF-8"?>
<map version="1.11" tiledversion="1.12.1" orientation="orthogonal" renderorder="right-down" width="102" height="56" tilewidth="32" tileheight="32" infinite="0" nextlayerid="11" nextobjectid="94">
 <editorsettings>
  <export target="data.lua" format="lua"/>
 </editorsettings>
 <tileset firstgid="1" source="../../../../../../tilesets/jam26ddelta_kikkyworld_tiles.tsx"/>
 <tileset firstgid="151" source="../../../../../../tilesets/floor2.tsx"/>
 <layer id="10" name="tiles_house_floor" width="102" height="56">
  <data encoding="csv">
0,0,0,0,0,0,0,0,0,0,0,0,0,0,0,0,0,0,0,0,0,0,0,0,0,0,0,0,0,0,0,0,0,0,0,0,0,0,0,0,0,0,0,0,0,0,0,0,0,0,0,0,0,0,0,0,0,0,0,0,0,0,0,0,0,0,0,0,0,0,0,0,0,0,0,0,0,0,0,0,0,0,0,0,0,0,0,0,0,0,0,0,0,0,0,0,0,0,0,0,0,0,
0,0,0,0,0,0,0,0,0,0,0,0,0,0,0,0,0,0,0,0,0,0,0,0,0,0,0,0,0,0,0,0,0,0,0,0,0,0,0,0,0,0,0,0,0,0,0,0,0,0,0,0,0,0,0,0,0,0,0,0,0,0,0,0,0,0,0,0,0,0,0,0,0,0,0,0,0,0,0,0,0,0,0,0,0,0,0,0,0,0,0,0,0,0,0,0,0,0,0,0,0,0,
0,0,0,0,0,0,0,0,0,0,0,0,0,0,0,0,0,0,0,0,0,0,0,0,0,0,0,0,0,0,0,0,0,0,0,0,0,0,0,0,0,0,0,0,0,0,0,0,0,0,0,0,0,0,0,0,0,0,0,0,0,0,0,0,0,0,0,0,0,0,0,0,0,0,0,0,0,0,0,0,0,0,0,0,0,0,0,0,0,0,0,0,0,0,0,0,0,0,0,0,0,0,
0,0,0,0,0,0,0,0,0,0,0,0,0,0,0,0,0,0,0,0,0,0,0,0,0,0,0,0,0,0,0,0,0,0,0,0,0,0,0,0,0,31,31,31,31,31,31,31,31,31,31,0,0,69,68,68,68,68,68,68,69,0,0,0,0,0,0,0,0,0,0,0,0,0,0,0,0,0,0,0,0,0,0,0,0,0,0,0,0,0,0,0,0,0,0,0,0,0,0,0,0,0,
0,0,0,0,0,0,0,0,0,0,0,0,0,0,0,0,0,0,0,0,0,0,0,0,0,0,0,0,0,0,0,0,0,0,0,0,0,0,0,0,31,31,31,75,76,76,76,77,31,31,31,84,68,69,69,69,69,69,69,69,69,69,0,0,0,0,0,0,0,0,0,0,0,0,0,0,0,0,0,0,0,0,0,0,0,0,0,0,0,0,0,0,0,0,0,0,0,0,0,0,0,0,
0,0,0,0,0,0,0,0,0,0,0,0,0,0,0,0,0,0,0,0,0,0,0,0,0,0,0,0,0,0,0,0,0,0,0,0,0,0,0,0,31,31,31,95,96,96,96,97,31,31,31,94,69,69,69,69,69,69,69,69,69,69,0,0,0,0,0,0,0,0,0,0,0,0,0,0,0,0,0,0,0,0,0,0,0,0,0,0,0,0,0,0,0,0,0,0,0,0,0,0,0,0,
0,0,0,0,0,0,0,0,0,0,0,0,0,0,0,0,0,0,0,0,0,0,0,0,0,0,0,0,0,0,0,0,0,0,0,0,0,0,0,0,0,31,0,0,0,0,0,0,0,0,0,0,0,0,0,0,0,0,0,0,118,0,0,0,0,0,0,0,0,0,0,0,0,0,0,0,0,0,0,0,0,0,0,0,0,0,0,0,0,0,0,0,0,0,0,0,0,0,0,0,0,0,
0,0,0,0,0,0,0,0,0,0,0,0,0,0,0,0,0,0,0,0,0,0,0,0,0,0,0,0,0,0,0,0,0,0,0,0,0,0,0,0,0,0,0,0,0,0,0,0,0,0,0,0,0,0,0,0,0,0,0,0,118,0,0,0,0,0,0,0,0,0,0,0,0,0,0,0,0,0,0,0,0,0,0,0,0,0,0,0,0,0,0,0,0,0,0,0,0,0,0,0,0,0,
0,0,0,0,0,0,0,0,0,0,0,0,0,0,0,0,0,0,0,0,0,0,0,0,0,0,0,0,0,0,0,0,0,0,0,0,0,0,0,0,0,0,0,0,0,0,0,0,0,0,0,0,0,0,0,0,0,0,0,0,118,0,0,0,0,0,0,0,0,0,0,0,0,0,0,0,0,0,0,0,0,0,0,0,0,0,0,0,0,0,0,0,0,0,0,0,0,0,0,0,0,0,
0,0,0,0,0,0,0,0,0,0,0,0,0,0,0,0,0,0,0,0,0,0,0,0,0,0,0,0,0,0,0,0,0,0,0,0,0,0,0,0,0,0,0,0,0,0,0,0,0,0,0,0,0,0,0,0,0,0,0,0,118,0,0,0,0,0,0,0,0,0,0,0,0,0,0,0,0,0,0,0,0,0,0,0,0,0,0,0,0,0,0,0,0,0,0,0,0,0,0,0,0,0,
0,0,0,0,0,0,0,0,0,0,0,0,0,0,0,0,0,0,0,0,0,0,0,0,0,0,0,0,0,0,0,0,0,0,0,0,0,0,0,0,0,0,0,0,0,0,0,0,0,0,0,0,0,0,31,31,31,31,31,31,31,31,31,0,0,0,0,0,0,0,0,0,0,0,0,0,0,0,0,0,0,0,0,0,0,0,0,0,0,0,0,0,0,0,0,0,0,0,0,0,0,0,
0,0,0,0,0,0,0,0,0,0,0,0,0,0,0,0,0,0,0,0,0,0,0,0,0,0,0,0,0,0,0,0,0,0,0,0,0,0,0,0,0,0,0,0,0,0,0,0,0,0,0,0,0,0,31,31,31,31,31,31,31,31,31,0,0,0,0,0,0,0,0,0,0,0,0,0,0,0,0,0,0,0,0,0,0,0,0,0,0,0,0,0,0,0,0,0,0,0,0,0,0,0,
0,0,0,0,0,0,0,0,0,0,0,0,0,0,0,0,0,0,0,0,0,0,0,0,0,0,0,0,0,0,0,0,0,0,0,0,0,0,0,0,0,0,0,0,0,0,0,0,0,0,0,0,0,0,31,31,31,31,31,31,31,31,31,0,0,0,0,0,0,0,0,0,0,0,0,0,0,0,0,0,0,0,0,0,0,0,0,0,0,0,0,0,0,0,0,0,0,0,0,0,0,0,
0,0,0,0,0,0,0,0,0,0,0,0,0,0,0,0,0,0,0,0,0,0,0,0,0,0,0,0,0,0,0,0,0,0,0,0,0,0,0,0,0,0,0,0,0,0,0,0,0,0,0,0,0,0,0,0,0,0,0,0,0,0,0,0,0,0,0,0,0,0,0,0,0,0,0,0,0,0,0,0,0,0,0,0,0,0,0,0,0,0,0,0,0,0,0,0,0,0,0,0,0,0,
0,0,0,0,0,0,0,0,0,0,0,0,0,0,0,0,0,0,0,0,0,0,0,0,0,0,0,0,0,0,0,0,0,0,0,0,0,0,0,0,0,0,0,0,0,0,0,0,0,0,0,0,0,0,0,0,0,0,0,0,0,0,0,0,0,0,0,0,0,0,0,0,0,0,0,0,0,0,0,0,0,0,0,0,0,0,0,0,0,0,0,0,0,0,0,0,0,0,0,0,0,0,
0,0,0,0,0,0,0,0,0,0,0,0,0,0,0,0,0,0,0,0,0,0,0,0,0,0,0,0,0,0,0,0,0,0,0,0,0,0,0,0,0,0,0,0,0,0,0,0,0,0,0,0,0,0,0,0,0,0,0,0,0,0,0,0,0,0,0,0,0,0,0,0,0,0,0,0,0,0,0,0,0,0,0,0,0,0,0,0,0,0,0,0,0,0,0,0,0,0,0,0,0,0,
0,0,0,0,0,0,0,0,0,0,0,0,0,0,0,0,0,0,0,0,0,0,0,0,0,0,0,0,0,0,0,0,0,0,0,0,0,0,0,0,0,0,0,0,0,0,0,0,0,0,0,0,0,0,0,0,0,0,0,0,0,0,0,0,0,0,0,0,0,0,0,0,0,0,0,0,0,0,0,0,0,0,0,0,0,0,0,0,0,0,0,0,0,0,0,0,0,0,0,0,0,0,
0,0,0,0,0,0,0,0,0,0,0,0,0,0,0,0,0,0,0,0,0,0,0,0,0,0,0,0,0,0,0,0,0,0,0,0,0,0,0,0,0,0,0,0,0,0,0,0,0,0,0,0,0,0,0,0,0,0,0,0,0,0,0,0,0,0,0,0,0,0,0,0,0,0,0,0,0,0,0,0,0,0,0,0,0,0,0,0,0,0,0,0,0,0,0,0,0,0,0,0,0,0,
0,0,0,0,0,0,0,0,0,0,0,0,0,0,0,0,0,0,0,0,0,0,0,0,0,0,0,0,0,0,0,0,0,0,0,0,0,0,0,0,0,0,0,0,0,0,0,0,0,0,0,0,0,0,0,0,0,0,0,0,0,0,0,0,0,0,0,0,0,0,0,0,0,0,0,0,0,0,0,0,0,0,0,0,0,0,0,0,0,0,0,0,0,0,0,0,0,0,0,0,0,0,
0,0,0,0,0,0,0,0,0,0,0,0,0,0,0,0,0,0,0,0,0,0,0,0,0,0,0,0,0,0,0,0,0,0,0,0,0,0,0,0,0,0,0,0,0,0,0,0,0,0,0,0,0,0,0,0,0,0,0,0,0,0,0,0,0,0,0,0,0,0,0,0,0,0,0,0,0,0,0,0,0,0,0,0,0,0,0,0,0,0,0,0,0,0,0,0,0,0,0,0,0,0,
0,0,0,0,0,0,0,0,0,0,0,0,0,0,0,0,0,0,0,0,0,0,0,0,0,0,0,0,0,0,0,0,0,0,0,0,0,0,0,0,0,0,0,0,0,0,0,0,0,0,0,0,0,0,0,0,0,0,0,0,0,0,0,0,0,0,0,0,0,0,0,0,0,0,0,0,0,0,0,0,0,0,0,0,0,0,0,0,0,0,0,0,0,0,0,0,0,0,0,0,0,0,
0,0,0,0,0,0,0,0,0,0,0,0,0,0,0,0,0,0,0,0,0,0,0,0,0,0,0,0,0,0,0,0,0,0,0,0,0,0,0,0,0,0,0,0,0,0,0,0,0,0,0,0,0,0,0,0,0,0,0,0,0,0,0,0,0,0,0,0,0,0,0,0,0,0,0,0,0,0,0,0,0,0,0,0,0,0,0,0,0,0,0,0,0,0,0,0,0,0,0,0,0,0,
0,0,0,0,0,0,0,0,0,0,0,0,0,0,0,0,0,0,0,0,0,0,0,0,0,0,0,0,0,0,0,0,0,0,0,0,0,0,0,0,0,0,0,0,0,0,0,0,0,0,0,0,0,0,0,0,0,0,0,0,0,0,0,0,0,0,0,0,0,0,0,0,0,0,0,0,0,0,0,0,0,0,0,0,0,0,0,0,0,0,0,0,0,0,0,0,0,0,0,0,0,0,
0,0,0,0,0,0,0,0,0,0,0,0,0,0,0,0,0,0,0,0,0,0,0,0,0,0,0,0,0,0,0,0,0,0,0,0,0,0,0,0,0,0,0,0,0,0,0,0,0,0,0,0,0,0,0,0,0,0,0,0,0,0,0,0,0,0,0,0,0,0,0,0,0,0,0,0,0,0,0,0,0,0,0,0,0,0,0,0,0,0,0,0,0,0,0,0,0,0,0,0,0,0,
0,0,0,0,0,0,0,0,0,0,0,0,0,0,0,0,0,0,0,0,0,0,0,0,0,0,0,0,0,0,0,0,0,0,0,0,0,0,0,0,0,0,0,0,0,0,0,0,0,0,0,0,0,0,0,0,0,0,0,0,0,0,0,0,0,0,0,0,0,0,0,0,0,0,0,0,0,0,0,0,0,0,0,0,0,0,0,0,0,0,0,0,0,0,0,0,0,0,0,0,0,0,
0,0,0,0,0,0,0,0,0,0,0,0,0,0,0,0,0,0,0,0,0,0,0,0,0,0,0,0,0,0,0,0,0,0,0,0,0,0,0,0,0,0,0,0,0,0,0,0,0,0,0,0,0,0,0,0,0,0,0,0,0,0,0,0,0,0,0,0,0,0,0,0,0,0,0,0,0,0,0,0,0,0,0,0,0,0,0,0,0,0,0,0,0,0,0,0,0,0,0,0,0,0,
0,0,0,0,0,0,0,0,0,0,0,0,0,0,0,0,0,0,0,0,0,0,0,0,0,0,0,0,0,0,0,0,0,0,0,0,0,0,0,0,0,0,0,0,0,0,0,0,0,0,0,0,0,0,0,0,0,0,0,0,0,0,0,0,0,0,0,0,0,0,0,0,0,0,0,0,0,0,0,0,0,0,0,0,0,0,0,0,0,0,0,0,0,0,0,0,0,0,0,0,0,0,
0,0,0,0,0,0,0,0,0,0,0,0,0,0,0,0,0,0,0,0,0,0,0,0,0,0,0,0,0,0,0,0,0,0,0,0,0,0,0,0,0,0,0,0,0,0,0,0,0,0,0,0,0,0,0,0,0,0,0,0,0,0,0,0,0,0,0,0,0,0,0,0,0,0,0,0,0,0,0,0,0,0,0,0,0,0,0,0,0,0,0,0,0,0,0,0,0,0,0,0,0,0,
0,0,0,0,0,0,0,0,0,0,0,0,0,0,0,0,0,0,0,0,0,0,0,0,0,0,0,0,0,0,0,0,0,0,0,0,0,0,0,0,0,0,0,0,0,0,0,0,0,0,0,0,0,0,0,0,0,0,0,0,0,0,0,0,0,0,0,0,0,0,0,0,0,0,0,0,0,0,0,0,0,0,0,0,0,0,0,0,0,0,0,0,0,0,0,0,0,0,0,0,0,0,
0,0,0,0,0,0,0,0,0,0,0,0,0,0,0,0,0,0,0,0,0,0,0,0,0,0,0,0,0,0,0,0,0,0,0,0,0,0,0,0,0,0,0,0,0,0,0,0,0,0,0,0,0,0,0,0,0,0,0,0,0,0,0,0,0,0,0,0,0,0,0,0,0,0,0,0,0,0,0,0,0,0,0,0,0,0,0,0,0,0,0,0,0,0,0,0,0,0,0,0,0,0,
0,0,0,0,0,0,0,0,0,0,0,0,0,0,0,0,0,0,0,0,0,0,0,0,0,0,0,0,0,0,0,0,0,0,0,0,0,0,0,0,0,0,0,0,0,0,0,0,0,0,0,0,0,0,0,0,0,0,0,0,0,0,0,0,0,0,0,0,0,0,0,0,0,0,0,0,0,0,0,0,0,0,0,0,0,0,0,0,0,0,0,0,0,0,0,0,0,0,0,0,0,0,
0,0,0,0,0,0,0,0,0,0,0,0,0,0,0,0,0,0,0,0,0,0,0,0,0,0,0,0,0,0,0,0,0,0,0,0,0,0,0,0,0,0,0,0,0,0,0,0,0,0,0,0,0,0,0,0,0,0,0,0,0,0,0,0,0,0,0,0,0,0,0,0,0,0,0,0,0,0,0,0,0,0,0,0,0,0,0,0,0,0,0,0,0,0,0,0,0,0,0,0,0,0,
0,0,0,0,0,0,0,0,0,0,0,0,0,0,0,0,0,0,0,0,0,0,0,0,0,0,0,0,0,0,0,0,0,0,0,0,0,0,0,0,0,0,0,0,0,0,0,0,0,0,0,0,0,0,0,0,0,0,0,0,0,0,0,0,0,0,0,0,0,0,0,0,0,0,0,0,0,0,0,0,0,0,0,0,0,0,0,0,0,0,0,0,0,0,0,0,0,0,0,0,0,0,
0,0,0,0,0,0,0,0,0,0,0,0,0,0,0,0,0,0,0,0,0,0,0,0,0,0,0,0,0,0,0,0,0,0,0,0,0,0,0,0,0,0,0,0,0,0,0,0,0,0,0,0,0,0,0,0,0,0,0,0,0,0,0,0,0,0,0,0,0,0,0,0,0,0,0,0,0,0,0,0,0,0,0,0,0,0,0,0,0,0,0,0,0,0,0,0,0,0,0,0,0,0,
0,0,0,0,0,0,0,0,0,0,0,0,0,0,0,0,0,0,0,0,0,0,0,0,0,0,0,0,0,0,0,0,0,0,0,0,0,0,0,0,0,0,0,0,0,0,0,0,0,0,0,0,0,0,0,0,0,0,0,0,0,0,0,0,0,0,0,0,0,0,0,0,0,0,0,0,0,0,0,0,0,0,0,0,0,0,0,0,0,0,0,0,0,0,0,0,0,0,0,0,0,0,
0,0,0,0,0,0,0,0,0,0,0,0,0,0,0,0,0,0,0,0,0,0,0,0,0,0,0,0,0,0,0,0,0,0,0,0,0,0,0,0,0,0,0,0,0,0,0,0,0,0,0,0,0,0,0,0,0,0,0,0,0,0,0,0,0,0,0,0,0,0,0,0,0,0,0,0,0,0,0,0,0,0,0,0,0,0,0,0,0,0,0,0,0,0,0,0,0,0,0,0,0,0,
0,0,0,0,0,0,0,0,0,0,0,0,0,0,0,0,0,0,0,0,0,0,0,0,0,0,0,0,0,0,0,0,0,0,0,0,0,0,0,0,0,0,0,0,0,0,0,0,0,0,0,0,0,0,0,0,0,0,0,0,0,0,0,0,0,0,0,0,0,0,0,0,0,0,0,0,0,0,0,0,0,0,0,0,0,0,0,0,0,0,0,0,0,0,0,0,0,0,0,0,0,0,
0,0,0,0,0,0,0,0,0,0,0,0,0,0,0,0,0,0,0,0,0,0,0,0,0,0,0,0,0,0,0,0,0,0,0,0,0,0,0,0,0,0,0,0,0,0,0,0,0,0,0,0,0,0,0,0,0,0,0,0,0,0,0,0,0,0,0,0,0,0,0,0,0,0,0,0,0,0,0,0,0,0,0,0,0,0,0,0,0,0,0,0,0,0,0,0,0,0,0,0,0,0,
0,0,0,0,0,0,0,0,0,0,0,0,0,0,0,0,0,0,0,0,0,0,0,0,0,0,0,0,0,0,0,0,0,0,0,0,0,0,0,0,0,0,0,0,0,0,0,0,0,0,0,0,0,0,0,0,0,0,0,0,0,0,0,0,0,0,0,0,0,0,0,0,0,0,0,0,0,0,0,0,0,0,0,0,0,0,0,0,0,0,0,0,0,0,0,0,0,0,0,0,0,0,
0,0,0,0,0,0,0,0,0,0,0,0,0,0,0,0,0,0,0,0,0,0,0,0,0,0,0,0,0,0,0,0,0,0,0,0,0,0,0,0,0,0,0,0,0,0,0,0,0,0,0,0,0,0,0,0,0,0,0,0,0,0,0,0,0,0,0,0,0,0,0,0,0,0,0,0,0,0,0,0,0,0,0,0,0,0,0,0,0,0,0,0,0,0,0,0,0,0,0,0,0,0,
0,0,0,0,0,0,0,0,0,0,0,0,0,0,0,0,0,0,0,0,0,0,0,0,0,0,0,0,0,0,0,0,0,0,0,0,0,0,0,0,0,0,0,0,0,0,0,0,0,0,0,0,0,0,0,0,0,0,0,0,0,0,0,0,0,0,0,0,0,0,0,0,0,0,0,0,0,0,0,0,0,0,0,0,0,0,0,0,0,0,0,0,0,0,0,0,0,0,0,0,0,0,
0,0,0,0,0,0,0,0,0,0,0,0,0,0,0,0,0,0,0,0,0,0,0,0,0,0,0,0,0,0,0,0,0,0,0,0,0,0,0,0,0,0,0,0,0,0,0,0,0,0,0,0,0,0,0,0,0,0,0,0,0,0,0,0,0,0,0,0,0,0,0,0,0,0,0,0,0,0,0,0,0,0,0,0,0,0,0,0,0,0,0,0,0,0,0,0,0,0,0,0,0,0,
0,0,0,0,0,0,0,0,0,0,0,0,0,0,0,0,0,0,0,0,0,0,0,0,0,0,0,0,0,0,0,0,0,0,0,0,0,0,0,0,0,0,0,0,0,0,0,0,0,0,0,0,0,0,0,0,0,0,0,0,0,0,0,0,0,0,0,0,0,0,0,0,0,0,0,0,0,0,0,0,0,0,0,0,0,0,0,0,0,0,0,0,0,0,0,0,0,0,0,0,0,0,
0,0,0,0,0,0,0,0,0,0,0,0,0,0,0,0,0,0,0,0,0,0,0,0,0,0,0,0,0,0,0,0,0,0,0,0,0,0,0,0,0,0,0,0,0,0,0,0,0,0,0,0,0,0,0,0,0,0,0,0,0,0,0,0,0,0,0,0,0,0,0,0,0,0,0,0,0,0,0,0,0,0,0,0,0,0,0,0,0,0,0,0,0,0,0,0,0,0,0,0,0,0,
0,0,0,0,0,0,0,0,0,0,0,0,0,0,0,0,0,0,0,0,0,0,0,0,0,0,0,0,0,0,0,0,0,0,0,0,0,0,0,0,0,0,0,0,0,0,0,0,0,0,0,0,0,0,0,0,0,0,0,0,0,0,0,0,0,0,0,0,0,0,0,0,0,0,0,0,0,0,0,0,0,0,0,0,0,0,0,0,0,0,0,0,0,0,0,0,0,0,0,0,0,0,
0,0,0,0,0,0,0,0,0,0,0,0,0,0,0,0,0,0,0,0,0,0,0,0,0,0,0,0,0,0,0,0,0,0,0,0,0,0,0,0,0,0,0,0,0,0,0,0,0,0,0,0,0,0,0,0,0,0,0,0,0,0,0,0,0,0,0,0,0,0,0,0,0,0,0,0,0,0,0,0,0,0,0,0,0,0,0,0,0,0,0,0,0,0,0,0,0,0,0,0,0,0,
0,0,0,0,0,0,0,0,0,0,0,0,0,0,0,0,0,0,0,0,0,0,0,0,0,0,0,0,0,0,0,0,0,0,0,0,0,0,0,0,0,0,0,0,0,0,0,0,0,0,0,0,0,0,0,0,0,0,0,0,0,0,0,0,0,0,0,0,0,0,0,0,0,0,0,0,0,0,0,0,0,0,0,0,0,0,0,0,0,0,0,0,0,0,0,0,0,0,0,0,0,0,
0,0,0,0,0,0,0,0,0,0,0,0,0,0,0,0,0,0,0,0,0,0,0,0,0,0,0,0,0,0,0,0,0,0,0,0,0,0,0,0,0,0,0,0,0,0,0,0,0,0,0,0,0,0,0,0,0,0,0,0,0,0,0,0,0,0,0,0,0,0,0,0,0,0,0,0,0,0,0,0,0,0,0,0,0,0,0,0,0,0,0,0,0,0,0,0,0,0,0,0,0,0,
0,0,0,0,0,0,0,0,0,0,0,0,0,0,0,0,0,0,0,0,0,0,0,0,0,0,0,0,0,0,0,0,0,0,0,0,0,0,0,0,0,0,0,0,0,0,0,0,0,0,0,0,0,0,0,0,0,0,0,0,0,0,0,0,0,0,0,0,0,0,0,0,0,0,0,0,0,0,0,0,0,0,0,0,0,0,0,0,0,0,0,0,0,0,0,0,0,0,0,0,0,0,
0,0,0,0,0,0,0,0,0,0,0,0,0,0,0,0,0,0,0,0,0,0,0,0,0,0,0,0,0,0,0,0,0,0,0,0,0,0,0,0,0,0,0,0,0,0,0,0,0,0,0,0,0,0,0,0,0,0,0,0,0,0,0,0,0,0,0,0,0,0,0,0,0,0,0,0,0,0,0,0,0,0,0,0,0,0,0,0,0,0,0,0,0,0,0,0,0,0,0,0,0,0,
0,0,0,0,0,0,0,0,0,0,0,0,0,0,0,0,0,0,0,0,0,0,0,0,0,0,0,0,0,0,0,0,0,0,0,0,0,0,0,0,0,0,0,0,0,0,0,0,0,0,0,0,0,0,0,0,0,0,0,0,0,0,0,0,0,0,0,0,0,0,0,0,0,0,0,0,0,0,0,0,0,0,0,0,0,0,0,0,0,0,0,0,0,0,0,0,0,0,0,0,0,0,
0,0,0,0,0,0,0,0,0,0,0,0,0,0,0,0,0,0,0,0,0,0,0,0,0,0,0,0,0,0,0,0,0,0,0,0,0,0,0,0,0,0,0,0,0,0,0,0,0,0,0,0,0,0,0,0,0,0,0,0,0,0,0,0,0,0,0,0,0,0,0,0,0,0,0,0,0,0,0,0,0,0,0,0,0,0,0,0,0,0,0,0,0,0,0,0,0,0,0,0,0,0,
0,0,0,0,0,0,0,0,0,0,0,0,0,0,0,0,0,0,0,0,0,0,0,0,0,0,0,0,0,0,0,0,0,0,0,0,0,0,0,0,0,0,0,0,0,0,0,0,0,0,0,0,0,0,0,0,0,0,0,0,0,0,0,0,0,0,0,0,0,0,0,0,0,0,0,0,0,0,0,0,0,0,0,0,0,0,0,0,0,0,0,0,0,0,0,0,0,0,0,0,0,0,
0,0,0,0,0,0,0,0,0,0,0,0,0,0,0,0,0,0,0,0,0,0,0,0,0,0,0,0,0,0,0,0,0,0,0,0,0,0,0,0,0,0,0,0,0,0,0,0,0,0,0,0,0,0,0,0,0,0,0,0,0,0,0,0,0,0,0,0,0,0,0,0,0,0,0,0,0,0,0,0,0,0,0,0,0,0,0,0,0,0,0,0,0,0,0,0,0,0,0,0,0,0,
0,0,0,0,0,0,0,0,0,0,0,0,0,0,0,0,0,0,0,0,0,0,0,0,0,0,0,0,0,0,0,0,0,0,0,0,0,0,0,0,0,0,0,0,0,0,0,0,0,0,0,0,0,0,0,0,0,0,0,0,0,0,0,0,0,0,0,0,0,0,0,0,0,0,0,0,0,0,0,0,0,0,0,0,0,0,0,0,0,0,0,0,0,0,0,0,0,0,0,0,0,0,
0,0,0,0,0,0,0,0,0,0,0,0,0,0,0,0,0,0,0,0,0,0,0,0,0,0,0,0,0,0,0,0,0,0,0,0,0,0,0,0,0,0,0,0,0,0,0,0,0,0,0,0,0,0,0,0,0,0,0,0,0,0,0,0,0,0,0,0,0,0,0,0,0,0,0,0,0,0,0,0,0,0,0,0,0,0,0,0,0,0,0,0,0,0,0,0,0,0,0,0,0,0
</data>
 </layer>
 <layer id="1" name="tiles" width="102" height="56">
  <data encoding="csv">
2,2,2,2,2,2,2,2,28,2,2,2,2,2,2,2,2,2,2,2,2,2,28,2,2,28,2,2,2,2,2,2,2,2,1,1,1,1,1,31,66,66,31,31,31,31,31,31,31,66,31,31,31,66,31,31,31,31,31,31,66,66,31,1,1,1,1,1,1,1,1,1,1,1,1,1,1,1,1,1,1,1,1,1,1,0,0,0,0,0,0,0,0,0,0,0,0,0,0,0,0,0,
2,1,1,1,17,10,1,6,28,3,1,1,1,1,1,15,1,5,1,16,1,1,28,27,18,30,12,1,11,1,1,1,4,2,1,1,1,1,1,31,66,66,31,31,31,31,31,31,31,66,31,31,31,66,31,31,31,31,31,31,66,66,31,1,1,1,1,1,1,1,1,1,31,31,31,31,31,31,31,31,31,1,1,1,1,0,0,0,0,0,0,0,0,0,0,0,0,0,0,0,0,0,
2,1,1,1,3,1,1,12,28,11,1,1,4,1,1,7,1,1,1,1,1,21,29,19,30,16,1,1,5,1,21,1,1,2,1,1,1,1,1,31,66,66,56,56,56,56,56,56,56,66,31,31,31,66,56,56,56,56,56,56,66,66,31,1,1,1,1,1,1,1,1,1,31,31,31,31,31,31,31,31,31,1,1,1,1,0,0,0,0,0,0,0,0,0,0,0,0,0,0,0,0,0,
2,1,13,1,1,1,16,1,29,19,19,19,36,19,19,20,1,12,1,1,1,14,1,1,1,8,9,15,1,1,1,4,1,2,1,1,1,1,1,31,66,59,0,0,0,0,0,0,0,58,56,56,56,59,0,0,0,0,0,0,58,66,31,1,1,1,1,1,1,1,1,1,31,31,31,31,31,31,31,31,31,1,1,1,1,0,0,0,0,0,0,0,0,0,0,0,0,0,0,0,0,0,
2,1,1,1,12,1,8,9,1,1,1,1,1,1,4,28,21,1,4,1,15,1,1,1,1,5,1,1,1,1,15,1,1,2,1,1,1,1,1,31,59,0,0,0,0,0,0,0,0,0,0,0,0,0,0,0,0,0,0,0,0,58,31,1,1,1,1,1,1,1,1,1,31,31,31,31,31,31,31,31,31,1,1,1,1,0,0,0,0,0,0,0,0,0,0,0,0,0,0,0,0,0,
2,14,1,15,1,1,1,1,1,15,1,5,1,12,1,28,16,7,1,1,1,1,1,13,1,1,1,12,6,1,1,11,16,2,1,1,1,1,1,47,0,0,0,0,0,0,0,0,0,0,0,0,0,0,0,0,0,0,0,0,0,0,45,1,1,1,1,1,1,1,1,1,1,1,1,31,31,31,1,1,1,1,1,1,1,0,0,0,0,0,0,0,0,0,0,0,0,0,0,0,0,0,
2,2,2,2,2,2,2,2,2,2,2,2,2,2,2,28,2,2,2,2,2,2,2,2,2,2,2,2,2,2,2,2,2,2,1,1,1,1,1,1,1,0,1,1,1,1,1,1,1,1,1,1,1,1,1,1,1,1,1,1,0,1,1,1,1,1,1,1,1,1,1,1,1,1,1,31,31,31,1,1,1,1,1,1,1,0,0,0,0,0,0,0,0,0,0,0,0,0,0,0,0,0,
0,0,0,0,0,0,0,0,0,0,0,0,0,0,0,0,0,31,31,31,31,31,31,31,31,31,31,31,31,31,31,31,25,31,0,0,0,0,0,0,0,0,0,0,0,0,0,0,0,0,0,1,1,1,66,66,66,66,66,67,0,65,66,1,1,1,1,1,0,0,0,0,0,0,0,0,0,0,0,0,0,0,0,0,0,0,0,0,0,0,0,0,0,0,0,0,0,0,0,0,0,0,
0,0,0,0,0,0,0,0,0,0,0,0,0,0,0,0,0,31,25,31,31,31,31,24,31,31,31,31,31,24,31,31,31,31,0,0,0,0,0,0,0,0,0,0,0,0,0,0,0,0,0,1,1,1,66,66,66,66,66,67,0,65,66,1,1,1,1,1,0,0,0,0,0,0,0,0,0,0,0,0,0,0,0,0,0,0,0,0,0,0,0,0,0,0,0,0,0,0,0,0,0,0,
0,0,0,0,0,0,0,0,0,0,0,0,0,0,0,0,0,31,31,31,22,31,31,31,31,31,25,31,31,31,31,31,31,31,0,0,0,0,0,0,0,0,0,0,0,0,0,0,0,0,0,1,1,1,129,129,129,129,129,130,0,128,129,1,1,1,1,1,0,0,0,0,0,0,0,0,0,0,0,0,0,0,0,0,0,0,0,0,0,0,0,0,0,0,0,0,0,0,0,0,0,0,
0,0,0,0,0,0,0,0,0,0,0,0,0,0,0,0,0,31,31,31,31,35,31,31,31,32,31,31,31,31,23,31,31,31,0,0,0,0,0,0,0,0,0,0,0,0,0,0,0,0,0,1,1,1,0,0,0,0,0,0,0,0,0,1,1,1,1,1,0,0,0,0,0,0,0,0,0,0,0,0,0,0,0,0,0,0,0,0,0,0,0,0,0,0,0,0,0,0,0,0,0,0,
0,0,0,0,0,0,0,0,0,0,0,0,0,0,0,0,0,34,31,31,31,31,31,31,31,31,31,31,31,31,31,31,31,31,0,0,0,0,0,0,0,0,0,0,0,0,0,0,0,0,0,1,1,1,0,0,0,0,0,0,0,0,0,1,1,1,1,1,0,0,0,0,0,0,0,0,0,0,0,0,0,0,0,0,0,0,0,0,0,0,0,0,0,0,0,0,0,0,0,0,0,0,
0,0,0,0,0,0,0,0,0,0,0,0,0,0,0,0,0,31,31,33,31,31,31,31,31,31,31,31,34,31,31,31,32,31,0,0,0,0,0,0,0,0,0,0,0,0,0,0,0,0,0,1,1,1,0,0,0,0,0,0,0,0,0,1,1,1,1,1,0,0,0,0,0,0,0,0,0,0,0,0,0,0,0,0,0,0,0,0,0,0,0,0,0,0,0,0,0,0,0,0,0,0,
0,0,0,0,0,0,0,0,0,0,0,0,0,0,0,0,0,31,31,31,31,31,31,23,31,31,31,31,31,31,31,35,31,31,0,0,0,0,0,0,0,0,0,0,0,0,0,0,0,0,0,1,1,1,1,1,1,1,1,1,1,1,1,1,1,1,1,1,0,0,0,0,0,0,0,0,0,0,0,0,0,0,0,0,0,0,0,0,0,0,0,0,0,0,0,0,0,0,0,0,0,0,
31,31,31,31,31,31,31,31,31,31,31,31,31,31,31,25,31,31,31,31,31,31,31,31,31,31,31,31,31,31,31,31,25,31,31,31,31,31,31,31,31,31,31,31,31,31,31,31,31,25,31,31,31,31,31,31,31,31,31,31,31,31,31,31,31,31,25,31,31,31,31,31,31,31,31,31,31,31,31,31,31,31,31,25,31,31,31,31,31,31,31,31,31,31,31,31,31,31,31,31,25,31,
31,25,31,31,31,31,24,31,31,31,31,31,24,31,31,31,31,31,25,31,31,31,31,24,31,31,31,31,31,24,31,31,31,31,31,25,31,31,31,31,24,31,31,31,31,31,24,31,31,31,31,31,25,31,31,31,31,24,31,31,31,31,31,24,31,31,31,31,31,25,31,31,31,31,24,31,31,31,31,31,24,31,31,31,31,31,25,31,31,31,31,24,31,31,31,31,31,24,31,31,31,31,
31,31,31,22,31,31,31,31,31,25,31,31,31,31,31,31,31,31,31,31,22,31,31,31,31,31,25,31,31,31,31,31,31,31,31,31,31,22,31,31,31,31,31,25,31,31,31,31,31,31,31,31,31,31,22,31,31,31,31,31,25,31,31,31,31,31,31,31,31,31,31,22,31,31,31,31,31,25,31,31,31,31,31,31,31,31,31,31,22,31,31,31,31,31,25,31,31,31,31,31,31,31,
31,31,31,31,35,31,31,31,32,31,31,31,31,23,31,31,31,31,31,31,31,35,31,31,31,32,31,31,31,31,23,31,31,31,31,31,31,31,35,31,31,31,32,31,31,31,31,23,31,31,31,31,31,31,31,35,31,31,31,32,31,31,31,31,23,31,31,31,31,31,31,31,35,31,31,31,32,31,31,31,31,23,31,31,31,31,31,31,31,35,31,31,31,32,31,31,31,31,23,31,31,31,
34,31,31,31,31,31,31,31,31,31,31,31,31,31,31,31,31,34,31,31,31,31,31,31,31,31,31,31,31,31,31,31,31,31,34,31,31,31,31,31,31,31,31,31,31,31,31,31,31,31,31,34,31,31,31,31,31,31,31,31,31,31,31,31,31,31,31,31,34,31,31,31,31,31,31,31,31,31,31,31,31,31,31,31,31,34,31,31,31,31,31,31,31,31,31,31,31,31,31,31,31,31,
31,31,33,31,31,31,31,31,31,31,31,34,31,31,31,32,31,31,31,33,31,31,31,31,31,31,31,31,34,31,31,31,32,31,31,31,33,31,31,31,31,31,31,31,31,34,31,31,31,32,31,31,31,33,31,31,31,31,31,31,31,31,34,31,31,31,32,31,31,31,33,31,31,31,31,31,31,31,31,34,31,31,31,32,31,31,31,33,31,31,31,31,31,31,31,31,34,31,31,31,32,31,
31,31,31,31,31,31,23,31,31,31,31,31,31,31,35,31,31,31,31,31,31,31,31,23,31,31,31,31,31,31,31,35,31,31,31,31,31,31,31,31,23,31,31,31,31,31,31,31,35,31,31,31,31,31,31,31,31,23,31,31,31,31,31,31,31,35,31,31,31,31,31,31,31,31,23,31,31,31,31,31,31,31,35,31,31,31,31,31,31,31,31,23,31,31,31,31,31,31,31,35,31,31,
31,31,31,31,31,31,31,31,31,31,31,31,31,31,31,25,31,31,31,31,31,31,31,31,31,31,31,31,31,31,31,31,25,31,31,31,31,31,31,31,31,31,31,31,31,31,31,31,31,25,31,31,31,31,31,31,31,31,31,31,31,31,31,31,31,31,25,31,31,31,31,31,31,31,31,31,31,31,31,31,31,31,31,25,31,31,31,31,31,31,31,31,31,31,31,31,31,31,31,31,25,31,
31,25,31,31,31,31,24,31,31,31,31,31,24,31,31,31,31,31,25,31,31,31,31,24,31,31,31,31,31,24,31,31,31,31,31,25,31,31,31,31,24,31,31,31,31,31,24,31,31,31,31,31,25,31,31,31,31,24,31,31,31,31,31,24,31,31,31,31,31,25,31,31,31,31,24,31,31,31,31,31,24,31,31,31,31,31,25,31,31,31,31,24,31,31,31,31,31,24,31,31,31,31,
31,31,31,22,31,31,31,31,31,25,31,31,31,31,31,31,31,31,31,31,22,31,31,31,31,31,25,31,31,31,31,31,31,31,31,31,31,22,31,31,31,31,31,25,31,31,31,31,31,31,31,31,31,31,22,31,31,31,31,31,25,31,31,31,31,31,31,31,31,31,31,22,31,31,31,31,31,25,31,31,31,31,31,31,31,31,31,31,22,31,31,31,31,31,25,31,31,31,31,31,31,31,
31,31,31,31,35,31,31,31,32,31,31,31,31,23,31,31,31,31,31,31,31,35,31,31,31,32,31,31,31,31,23,31,31,31,31,31,31,31,35,31,31,31,32,31,31,31,31,23,31,31,31,31,31,31,31,35,31,31,31,32,31,31,31,31,23,31,31,31,31,31,31,31,35,31,31,31,32,31,31,31,31,23,31,31,31,31,31,31,31,35,31,31,31,32,31,31,31,31,23,31,31,31,
34,31,31,31,31,31,31,31,31,31,31,31,31,31,31,31,31,34,31,31,31,31,31,31,31,31,31,31,31,31,31,31,31,31,34,31,31,31,31,31,31,31,31,31,31,31,31,31,31,31,31,34,31,31,31,31,31,31,31,31,31,31,31,31,31,31,31,31,34,31,31,31,31,31,31,31,31,31,31,31,31,31,31,31,31,34,31,31,31,31,31,31,31,31,31,31,31,31,31,31,31,31,
31,31,33,31,31,31,31,31,31,31,31,34,31,31,31,32,31,31,31,33,31,31,31,31,31,31,31,31,34,31,31,31,32,31,31,31,33,31,31,31,31,31,31,31,31,34,31,31,31,32,31,31,31,33,31,31,31,31,31,31,31,31,34,31,31,31,32,31,31,31,33,31,31,31,31,31,31,31,31,34,31,31,31,32,31,31,31,33,31,31,31,31,31,31,31,31,34,31,31,31,32,31,
31,31,31,31,31,31,23,31,31,31,31,31,31,31,35,31,31,31,31,31,31,31,31,23,31,31,31,31,31,31,31,35,31,31,31,31,31,31,31,31,23,31,31,31,31,31,31,31,35,31,31,31,31,31,31,31,31,23,31,31,31,31,31,31,31,35,31,31,31,31,31,31,31,31,23,31,31,31,31,31,31,31,35,31,31,31,31,31,31,31,31,23,31,31,31,31,31,31,31,35,31,31,
31,31,31,31,31,31,31,31,31,31,31,31,31,31,31,25,31,31,31,31,31,31,31,31,31,31,31,31,31,31,31,31,25,31,31,31,31,31,31,31,31,31,31,31,31,31,31,31,31,25,31,31,31,31,31,31,31,31,31,31,31,31,31,31,31,31,25,31,31,31,31,31,31,31,31,31,31,31,31,31,31,31,31,25,31,31,31,31,31,31,31,31,31,31,31,31,31,31,31,31,25,31,
31,25,31,31,31,31,24,31,31,31,31,31,24,31,31,31,31,31,25,31,31,31,31,24,31,31,31,31,31,24,31,31,31,31,31,25,31,31,31,31,24,31,31,31,31,31,24,31,31,31,31,31,25,31,31,31,31,24,31,31,31,31,31,24,31,31,31,31,31,25,31,31,31,31,24,31,31,31,31,31,24,31,31,31,31,31,25,31,31,31,31,24,31,31,31,31,31,24,31,31,31,31,
31,31,31,22,31,31,31,31,31,25,31,31,31,31,31,31,31,31,31,31,22,31,31,31,31,31,25,31,31,31,31,31,31,31,31,31,31,22,31,31,31,31,31,25,31,31,31,31,31,31,31,31,31,31,22,31,31,31,31,31,25,31,31,31,31,31,31,31,31,31,31,22,31,31,31,31,31,25,31,31,31,31,31,31,31,31,31,31,22,31,31,31,31,31,25,31,31,31,31,31,31,31,
31,31,31,31,35,31,31,31,32,31,31,31,31,23,31,31,31,31,31,31,31,35,31,31,31,32,31,31,31,31,23,31,31,31,31,31,31,31,35,31,31,31,32,31,31,31,31,23,31,31,31,31,31,31,31,35,31,31,31,32,31,31,31,31,23,31,31,31,31,31,31,31,35,31,31,31,32,31,31,31,31,23,31,31,31,31,31,31,31,35,31,31,31,32,31,31,31,31,23,31,31,31,
34,31,31,31,31,31,31,31,31,31,31,31,31,31,31,31,31,34,31,31,31,31,31,31,31,31,31,31,31,31,31,31,31,31,34,31,31,31,31,31,31,31,31,31,31,31,31,31,31,31,31,34,31,31,31,31,31,31,31,31,31,31,31,31,31,31,31,31,34,31,31,31,31,31,31,31,31,31,31,31,31,31,31,31,31,34,31,31,31,31,31,31,31,31,31,31,31,31,31,31,31,31,
31,31,33,31,31,31,31,31,31,31,31,34,31,31,31,32,31,31,31,33,31,31,31,31,31,31,31,31,34,31,31,31,32,31,31,31,33,31,31,31,31,31,31,31,31,34,31,31,31,32,31,31,31,33,31,31,31,31,31,31,31,31,34,31,31,31,32,31,31,31,33,31,31,31,31,31,31,31,31,34,31,31,31,32,31,31,31,33,31,31,31,31,31,31,31,31,34,31,31,31,32,31,
31,31,31,31,31,31,23,31,31,31,31,31,31,31,35,31,31,31,31,31,31,31,31,23,31,31,31,31,31,31,31,35,31,31,31,31,31,31,31,31,23,31,31,31,31,31,31,31,35,31,31,31,31,31,31,31,31,23,31,31,31,31,31,31,31,35,31,31,31,31,31,31,31,31,23,31,31,31,31,31,31,31,35,31,31,31,31,31,31,31,31,23,31,31,31,31,31,31,31,35,31,31,
31,31,31,31,31,31,31,31,31,31,31,31,31,31,31,25,31,31,31,31,31,31,31,31,31,31,31,31,31,31,31,31,25,31,31,31,31,31,31,31,31,31,31,31,31,31,31,31,31,25,31,31,31,31,31,31,31,31,31,31,31,31,31,31,31,31,25,31,31,31,31,31,31,31,31,31,31,31,31,31,31,31,31,25,31,31,31,31,31,31,31,31,31,31,31,31,31,31,31,31,25,31,
31,25,31,31,31,31,24,31,31,31,31,31,24,31,31,31,31,31,25,31,31,31,31,24,31,31,31,31,31,24,31,31,31,31,31,25,31,31,31,31,24,31,31,31,31,31,24,31,31,31,31,31,25,31,31,31,31,24,31,31,31,31,31,24,31,31,31,31,31,25,31,31,31,31,24,31,31,31,31,31,24,31,31,31,31,31,25,31,31,31,31,24,31,31,31,31,31,24,31,31,31,31,
31,31,31,22,31,31,31,31,31,25,31,31,31,31,31,31,31,31,31,31,22,31,31,31,31,31,25,31,31,31,31,31,31,31,31,31,31,22,31,31,31,31,31,25,31,31,31,31,31,31,31,31,31,31,22,31,31,31,31,31,25,31,31,31,31,31,31,31,31,31,31,22,31,31,31,31,31,25,31,31,31,31,31,31,31,31,31,31,22,31,31,31,31,31,25,31,31,31,31,31,31,31,
31,31,31,31,35,31,31,31,32,31,31,31,31,23,31,31,31,31,31,31,31,35,31,31,31,32,31,31,31,31,23,31,31,31,31,31,31,31,35,31,31,31,32,31,31,31,31,23,31,31,31,31,31,31,31,35,31,31,31,32,31,31,31,31,23,31,31,31,31,31,31,31,35,31,31,31,32,31,31,31,31,23,31,31,31,31,31,31,31,35,31,31,31,32,31,31,31,31,23,31,31,31,
34,31,31,31,31,31,31,31,31,31,31,31,31,31,31,31,31,34,31,31,31,31,31,31,31,31,31,31,31,31,31,31,31,31,34,31,31,31,31,31,31,31,31,31,31,31,31,31,31,31,31,34,31,31,31,31,31,31,31,31,31,31,31,31,31,31,31,31,34,31,31,31,31,31,31,31,31,31,31,31,31,31,31,31,31,34,31,31,31,31,31,31,31,31,31,31,31,31,31,31,31,31,
31,31,33,31,31,31,31,31,31,31,31,34,31,31,31,32,31,31,31,33,31,31,31,31,31,31,31,31,34,31,31,31,32,31,31,31,33,31,31,31,31,31,31,31,31,34,31,31,31,32,31,31,31,33,31,31,31,31,31,31,31,31,34,31,31,31,32,31,31,31,33,31,31,31,31,31,31,31,31,34,31,31,31,32,31,31,31,33,31,31,31,31,31,31,31,31,34,31,31,31,32,31,
31,31,31,31,31,31,23,31,31,31,31,31,31,31,35,31,31,31,31,31,31,31,31,23,31,31,31,31,31,31,31,35,31,31,31,31,31,31,31,31,23,31,31,31,31,31,31,31,35,31,31,31,31,31,31,31,31,23,31,31,31,31,31,31,31,35,31,31,31,31,31,31,31,31,23,31,31,31,31,31,31,31,35,31,31,31,31,31,31,31,31,23,31,31,31,31,31,31,31,35,31,31,
31,31,31,31,31,31,31,31,31,31,31,31,31,31,31,25,31,31,31,31,31,31,31,31,31,31,31,31,31,31,31,31,25,31,31,31,31,31,31,31,31,31,31,31,31,31,31,31,31,25,31,31,31,31,31,31,31,31,31,31,31,31,31,31,31,31,25,31,31,31,31,31,31,31,31,31,31,31,31,31,31,31,31,25,31,31,31,31,31,31,31,31,31,31,31,31,31,31,31,31,25,31,
31,25,31,31,31,31,24,31,31,31,31,31,24,31,31,31,31,31,25,31,31,31,31,24,31,31,31,31,31,24,31,31,31,31,31,25,31,31,31,31,24,31,31,31,31,31,24,31,31,31,31,31,25,31,31,31,31,24,31,31,31,31,31,24,31,31,31,31,31,25,31,31,31,31,24,31,31,31,31,31,24,31,31,31,31,31,25,31,31,31,31,24,31,31,31,31,31,24,31,31,31,31,
31,31,31,22,31,31,31,31,31,25,31,31,31,31,31,31,31,31,31,31,22,31,31,31,31,31,25,31,31,31,31,31,31,31,31,31,31,22,31,31,31,31,31,25,31,31,31,31,31,31,31,31,31,31,22,31,31,31,31,31,25,31,31,31,31,31,31,31,31,31,31,22,31,31,31,31,31,25,31,31,31,31,31,31,31,31,31,31,22,31,31,31,31,31,25,31,31,31,31,31,31,31,
31,31,31,31,35,31,31,31,32,31,31,31,31,23,31,31,31,31,31,31,31,35,31,31,31,32,31,31,31,31,23,31,31,31,31,31,31,31,35,31,31,31,32,31,31,31,31,23,31,31,31,31,31,31,31,35,31,31,31,32,31,31,31,31,23,31,31,31,31,31,31,31,35,31,31,31,32,31,31,31,31,23,31,31,31,31,31,31,31,35,31,31,31,32,31,31,31,31,23,31,31,31,
34,31,31,31,31,31,31,31,31,31,31,31,31,31,31,31,31,34,31,31,31,31,31,31,31,31,31,31,31,31,31,31,31,31,34,31,31,31,31,31,31,31,31,31,31,31,31,31,31,31,31,34,31,31,31,31,31,31,31,31,31,31,31,31,31,31,31,31,34,31,31,31,31,31,31,31,31,31,31,31,31,31,31,31,31,34,31,31,31,31,31,31,31,31,31,31,31,31,31,31,31,31,
31,31,33,31,31,31,31,31,31,31,31,34,31,31,31,32,31,31,31,33,31,31,31,31,31,31,31,31,34,31,31,31,32,31,31,31,33,31,31,31,31,31,31,31,31,34,31,31,31,32,31,31,31,33,31,31,31,31,31,31,31,31,34,31,31,31,32,31,31,31,33,31,31,31,31,31,31,31,31,34,31,31,31,32,31,31,31,33,31,31,31,31,31,31,31,31,34,31,31,31,32,31,
31,31,31,31,31,31,23,31,31,31,31,31,31,31,35,31,31,31,31,31,31,31,31,23,31,31,31,31,31,31,31,35,31,31,31,31,31,31,31,31,23,31,31,31,31,31,31,31,35,31,31,31,31,31,31,31,31,23,31,31,31,31,31,31,31,35,31,31,31,31,31,31,31,31,23,31,31,31,31,31,31,31,35,31,31,31,31,31,31,31,31,23,31,31,31,31,31,31,31,35,31,31,
31,31,31,31,31,31,31,31,31,31,31,31,31,31,31,25,31,31,31,31,31,31,31,31,31,31,31,31,31,31,31,31,25,31,31,31,31,31,31,31,31,31,31,31,31,31,31,31,31,25,31,31,31,31,31,31,31,31,31,31,31,31,31,31,31,31,25,31,31,31,31,31,31,31,31,31,31,31,31,31,31,31,31,25,31,31,31,31,31,31,31,31,31,31,31,31,31,31,31,31,25,31,
31,25,31,31,31,31,24,31,31,31,31,31,24,31,31,31,31,31,25,31,31,31,31,24,31,31,31,31,31,24,31,31,31,31,31,25,31,31,31,31,24,31,31,31,31,31,24,31,31,31,31,31,25,31,31,31,31,24,31,31,31,31,31,24,31,31,31,31,31,25,31,31,31,31,24,31,31,31,31,31,24,31,31,31,31,31,25,31,31,31,31,24,31,31,31,31,31,24,31,31,31,31,
31,31,31,22,31,31,31,31,31,25,31,31,31,31,31,31,31,31,31,31,22,31,31,31,31,31,25,31,31,31,31,31,31,31,31,31,31,22,31,31,31,31,31,25,31,31,31,31,31,31,31,31,31,31,22,31,31,31,31,31,25,31,31,31,31,31,31,31,31,31,31,22,31,31,31,31,31,25,31,31,31,31,31,31,31,31,31,31,22,31,31,31,31,31,25,31,31,31,31,31,31,31,
31,31,31,31,35,31,31,31,32,31,31,31,31,23,31,31,31,31,31,31,31,35,31,31,31,32,31,31,31,31,23,31,31,31,31,31,31,31,35,31,31,31,32,31,31,31,31,23,31,31,31,31,31,31,31,35,31,31,31,32,31,31,31,31,23,31,31,31,31,31,31,31,35,31,31,31,32,31,31,31,31,23,31,31,31,31,31,31,31,35,31,31,31,32,31,31,31,31,23,31,31,31,
34,31,31,31,31,31,31,31,31,31,31,31,31,31,31,31,31,34,31,31,31,31,31,31,31,31,31,31,31,31,31,31,31,31,34,31,31,31,31,31,31,31,31,31,31,31,31,31,31,31,31,34,31,31,31,31,31,31,31,31,31,31,31,31,31,31,31,31,34,31,31,31,31,31,31,31,31,31,31,31,31,31,31,31,31,34,31,31,31,31,31,31,31,31,31,31,31,31,31,31,31,31,
31,31,33,31,31,31,31,31,31,31,31,34,31,31,31,32,31,31,31,33,31,31,31,31,31,31,31,31,34,31,31,31,32,31,31,31,33,31,31,31,31,31,31,31,31,34,31,31,31,32,31,31,31,33,31,31,31,31,31,31,31,31,34,31,31,31,32,31,31,31,33,31,31,31,31,31,31,31,31,34,31,31,31,32,31,31,31,33,31,31,31,31,31,31,31,31,34,31,31,31,32,31,
31,31,31,31,31,31,23,31,31,31,31,31,31,31,35,31,31,31,31,31,31,31,31,23,31,31,31,31,31,31,31,35,31,31,31,31,31,31,31,31,23,31,31,31,31,31,31,31,35,31,31,31,31,31,31,31,31,23,31,31,31,31,31,31,31,35,31,31,31,31,31,31,31,31,23,31,31,31,31,31,31,31,35,31,31,31,31,31,31,31,31,23,31,31,31,31,31,31,31,35,31,31
</data>
 </layer>
 <layer id="9" name="decals" width="102" height="56">
  <data encoding="csv">
0,0,0,0,0,0,0,0,0,0,0,0,0,0,0,0,0,0,0,0,0,0,0,0,0,0,0,0,0,0,0,0,0,0,0,0,0,0,0,0,0,0,0,0,0,0,0,0,0,0,0,0,0,0,0,0,0,0,0,0,0,0,0,0,0,0,0,0,0,0,0,0,0,0,0,0,0,0,0,0,0,0,0,0,0,0,0,0,0,0,0,0,0,0,0,0,0,0,0,0,0,0,
0,0,0,0,0,0,0,0,0,0,0,0,0,0,0,0,0,0,0,0,0,0,0,0,0,0,0,0,0,0,0,0,0,0,0,0,0,0,0,0,0,0,0,105,0,0,105,0,0,0,0,0,0,0,0,105,0,0,105,0,0,0,0,0,0,0,0,0,0,0,0,0,0,0,0,0,0,0,0,0,0,0,0,0,0,0,0,0,0,0,0,0,0,0,0,0,0,0,0,0,0,0,
0,0,0,0,0,0,0,0,0,0,0,0,0,0,0,0,0,0,0,0,0,0,0,0,0,0,0,0,0,0,0,0,0,0,0,0,0,0,0,0,0,0,114,0,115,0,0,0,114,0,0,0,0,0,114,0,115,0,60,0,0,0,0,0,0,0,0,0,0,0,0,0,0,0,0,0,0,0,0,0,0,0,0,0,0,0,0,0,0,0,0,0,0,0,0,0,0,0,0,0,0,0,
0,0,0,0,0,0,0,0,0,0,0,0,0,0,0,0,0,0,0,0,0,0,0,131,0,0,0,0,0,0,0,0,0,0,0,0,0,0,0,0,0,0,82,91,92,81,0,101,0,0,0,115,0,0,0,78,79,80,70,90,0,0,0,0,0,0,0,0,0,0,0,0,0,0,0,0,0,0,0,0,0,0,0,0,0,0,0,0,0,0,0,0,0,0,0,0,0,0,0,0,0,0,
0,0,0,0,0,0,0,0,0,0,0,0,0,0,0,0,0,0,0,0,0,0,0,0,0,0,133,0,0,0,0,0,0,0,0,0,0,0,0,0,102,0,0,0,0,0,0,0,0,0,0,0,0,0,0,88,0,0,0,0,0,0,0,0,0,0,0,0,0,0,0,0,0,0,0,0,0,0,0,0,0,0,0,0,0,0,0,0,0,0,0,0,0,0,0,0,0,0,0,0,0,0,
0,0,0,0,0,0,0,0,0,0,0,0,0,0,0,0,0,0,0,0,0,0,0,0,122,0,0,0,0,0,0,0,0,0,0,0,0,0,0,0,112,0,0,0,0,0,0,0,0,0,0,0,0,0,0,0,0,0,0,0,0,0,0,0,0,0,0,0,0,0,0,0,0,0,0,0,0,0,0,0,0,0,0,0,0,0,0,0,0,0,0,0,0,0,0,0,0,0,0,0,0,0,
0,0,0,0,0,0,0,0,0,0,0,0,0,0,0,0,0,0,0,0,0,0,0,0,0,0,0,0,0,0,0,0,0,0,0,0,0,0,0,0,0,0,0,0,0,0,0,0,0,0,0,0,0,0,0,0,0,0,0,0,0,0,0,0,0,0,0,0,0,0,0,0,0,0,0,0,0,0,0,0,0,0,0,0,0,0,0,0,0,0,0,0,0,0,0,0,0,0,0,0,0,0,
0,0,0,0,0,0,0,0,0,0,0,0,0,0,0,0,0,0,0,0,0,0,0,0,131,0,0,0,0,0,0,0,0,0,0,0,0,0,0,0,0,0,0,0,0,0,0,0,0,0,0,0,0,0,0,0,0,0,0,0,0,0,0,0,0,0,0,0,0,0,0,0,0,0,0,0,0,0,0,0,0,0,0,0,0,0,0,0,0,0,0,0,0,0,0,0,0,0,0,0,0,0,
0,0,0,0,0,0,0,0,0,0,0,0,0,0,0,0,0,0,0,0,0,132,0,0,0,0,121,0,0,0,0,0,0,0,0,0,0,0,0,0,0,0,0,0,0,0,0,0,0,0,0,0,0,0,0,0,0,0,0,0,0,0,0,0,0,0,0,0,0,0,0,0,0,0,0,0,0,0,0,0,0,0,0,0,0,0,0,0,0,0,0,0,0,0,0,0,0,0,0,0,0,0,
0,0,0,0,0,0,0,0,0,0,0,0,0,0,0,0,0,0,0,0,0,0,0,122,0,0,0,0,0,0,0,0,0,0,0,0,0,0,0,0,0,0,0,0,0,0,0,0,0,0,0,0,0,0,0,0,119,0,0,0,0,0,0,0,0,0,0,0,0,0,0,0,0,0,0,0,0,0,0,0,0,0,0,0,0,0,0,0,0,0,0,0,0,0,0,0,0,0,0,0,0,0,
0,0,0,0,0,0,0,0,0,0,0,0,0,0,0,0,0,0,0,0,121,0,0,0,0,123,0,0,0,0,0,0,0,0,0,0,0,0,0,0,0,0,0,0,0,0,0,0,0,0,0,0,0,0,0,0,0,0,0,0,0,0,0,0,0,0,0,0,0,0,0,0,0,0,0,0,0,0,0,0,0,0,0,0,0,0,0,0,0,0,0,0,0,0,0,0,0,0,0,0,0,0,
0,0,0,0,0,0,0,0,0,0,0,0,0,0,0,0,0,0,0,0,0,0,133,0,0,0,0,0,132,0,0,0,0,0,0,0,0,0,0,0,0,0,0,0,0,0,0,0,0,0,0,0,0,0,0,0,0,0,0,0,0,0,0,0,0,0,0,0,0,0,0,0,0,0,0,0,0,0,0,0,0,0,0,0,0,0,0,0,0,0,0,0,0,0,0,0,0,0,0,0,0,0,
0,0,0,0,0,0,0,0,0,0,0,0,0,0,0,0,0,0,0,0,0,0,0,0,133,0,0,0,0,0,0,0,0,0,0,0,0,0,0,0,0,0,0,0,0,0,0,0,0,0,0,0,0,0,0,0,0,0,0,0,0,0,0,0,0,0,0,0,0,0,0,0,0,0,0,0,0,0,0,0,0,0,0,0,0,0,0,0,0,0,0,0,0,0,0,0,0,0,0,0,0,0,
0,0,0,0,0,0,0,0,0,0,0,0,0,0,0,0,0,0,0,0,0,0,0,0,0,0,0,0,0,0,0,0,0,0,0,0,0,0,0,0,0,0,0,0,0,0,0,0,0,0,0,0,0,0,0,0,0,0,0,0,0,0,0,0,0,0,0,0,0,0,0,0,0,0,0,0,0,0,0,0,0,0,0,0,0,0,0,0,0,0,0,0,0,0,0,0,0,0,0,0,0,0,
0,0,0,0,0,0,0,0,0,0,0,0,0,0,0,0,0,0,0,0,0,0,0,0,0,0,0,0,0,0,0,0,0,0,0,0,0,0,0,0,0,0,0,0,0,0,0,0,0,0,0,0,0,0,0,0,0,0,0,0,0,0,0,0,0,0,0,0,0,0,0,0,0,0,0,0,0,0,0,0,0,0,0,0,0,0,0,0,0,0,0,0,0,0,0,0,0,0,0,0,0,0,
0,0,0,0,0,0,0,0,0,0,0,0,0,0,0,0,0,0,0,0,0,0,0,0,0,0,0,0,0,0,0,0,0,0,0,0,0,0,0,0,0,0,0,0,0,0,0,0,0,0,0,0,0,0,0,0,0,0,0,0,0,0,0,0,0,0,0,0,0,0,0,0,0,0,0,0,0,0,0,0,0,0,0,0,0,0,0,0,0,0,0,0,0,0,0,0,0,0,0,0,0,0,
0,0,0,0,0,0,0,0,0,0,0,0,0,0,0,0,0,0,0,0,0,0,0,0,0,0,0,0,0,0,0,0,0,0,0,0,0,0,0,0,0,0,0,0,0,0,0,0,0,0,0,0,0,0,0,0,0,0,0,0,0,0,0,0,0,0,0,0,0,0,0,0,0,0,0,0,0,0,0,0,0,0,0,0,0,0,0,0,0,0,0,0,0,0,0,0,0,0,0,0,0,0,
0,0,0,0,0,0,0,0,0,0,0,0,0,0,0,0,0,0,0,0,0,0,0,0,0,0,0,0,0,0,0,0,0,0,0,0,0,0,0,0,0,0,0,0,0,0,0,0,0,0,0,0,0,0,0,0,0,0,0,0,0,0,0,0,0,0,0,0,0,0,0,0,0,0,0,0,0,0,0,0,0,0,0,0,0,0,0,0,0,0,0,0,0,0,0,0,0,0,0,0,0,0,
0,0,0,0,0,0,0,0,0,0,0,0,0,0,0,0,0,0,0,0,0,0,0,0,0,0,0,0,0,0,0,0,0,0,0,0,0,0,0,0,0,0,0,0,0,0,0,0,0,0,0,0,0,0,0,0,0,0,0,0,0,0,0,0,0,0,0,0,0,0,0,0,0,0,0,0,0,0,0,0,0,0,0,0,0,0,0,0,0,0,0,0,0,0,0,0,0,0,0,0,0,0,
0,0,0,0,0,0,0,0,0,0,0,0,0,0,0,0,0,0,0,0,0,0,0,0,0,0,0,0,0,0,0,0,0,0,0,0,0,0,0,0,0,0,0,0,0,0,0,0,0,0,0,0,0,0,0,0,0,0,0,0,0,0,0,0,0,0,0,0,0,0,0,0,0,0,0,0,0,0,0,0,0,0,0,0,0,0,0,0,0,0,0,0,0,0,0,0,0,0,0,0,0,0,
0,0,0,0,0,0,0,0,0,0,0,0,0,0,0,0,0,0,0,0,0,0,0,0,0,0,0,0,0,0,0,0,0,0,0,0,0,0,0,0,0,0,0,0,0,0,0,0,0,0,0,0,0,0,0,0,0,0,0,0,0,0,0,0,0,0,0,0,0,0,0,0,0,0,0,0,0,0,0,0,0,0,0,0,0,0,0,0,0,0,0,0,0,0,0,0,0,0,0,0,0,0,
0,0,0,0,0,0,0,0,0,0,0,0,0,0,0,0,0,0,0,0,0,0,0,0,131,0,0,0,0,0,0,0,0,0,0,0,0,0,0,0,0,0,0,0,0,0,0,0,0,0,0,0,0,0,0,0,0,0,0,0,0,0,0,0,0,0,0,0,0,0,0,0,0,0,0,0,0,0,0,0,0,0,0,0,0,0,0,0,0,0,0,0,0,0,0,0,0,0,0,0,0,0,
0,0,0,0,0,0,0,0,0,0,0,0,0,0,0,0,0,0,0,0,0,132,0,0,0,0,121,0,0,0,0,0,0,0,0,0,0,0,0,0,0,0,0,0,0,0,0,0,0,0,0,0,0,0,0,0,0,0,0,0,0,0,0,0,0,0,0,0,0,0,0,0,0,0,0,0,0,0,0,0,0,0,0,0,0,0,0,0,0,0,0,0,0,0,0,0,0,0,0,0,0,0,
0,0,0,0,0,0,0,0,0,0,0,0,0,0,0,0,0,0,0,0,0,0,0,122,0,0,0,0,0,0,0,0,0,0,0,0,0,0,0,0,0,0,0,0,0,0,0,0,0,0,0,0,0,0,0,0,0,0,0,0,0,0,0,0,0,0,0,0,0,0,0,0,0,0,0,0,0,0,0,0,0,0,0,0,0,0,0,0,0,0,0,0,0,0,0,0,0,0,0,0,0,0,
0,0,0,0,0,0,0,0,0,0,0,0,0,0,0,0,0,0,0,0,121,0,0,0,0,123,0,0,0,0,0,0,0,0,0,0,0,0,0,0,0,0,0,0,0,0,0,0,0,0,0,0,0,0,0,0,0,0,0,0,0,0,0,0,0,0,0,0,0,0,0,0,0,0,0,0,0,0,0,0,0,0,0,0,0,0,0,0,0,0,0,0,0,0,0,0,0,0,0,0,0,0,
0,0,0,0,0,0,0,0,0,0,0,0,0,0,0,0,0,0,0,0,0,0,133,0,0,0,0,0,132,0,0,0,0,0,0,0,0,0,0,0,0,0,0,0,0,0,0,0,0,0,0,0,0,0,0,0,0,0,0,0,0,0,0,0,0,0,0,0,0,0,0,0,0,0,0,0,0,0,0,0,0,0,0,0,0,0,0,0,0,0,0,0,0,0,0,0,0,0,0,0,0,0,
0,0,0,0,0,0,0,0,0,0,0,0,0,0,0,0,0,0,0,0,0,0,0,0,133,0,0,0,0,0,0,0,0,0,0,0,0,0,0,0,0,0,0,0,0,0,0,0,0,0,0,0,0,0,0,0,0,0,0,0,0,0,0,0,0,0,0,0,0,0,0,0,0,0,0,0,0,0,0,0,0,0,0,0,0,0,0,0,0,0,0,0,0,0,0,0,0,0,0,0,0,0,
0,0,0,0,0,0,0,0,0,0,0,0,0,0,0,0,0,0,0,0,0,0,0,0,0,0,0,0,0,0,0,0,0,0,0,0,0,0,0,0,0,0,0,0,0,0,0,0,0,0,0,0,0,0,0,0,0,0,0,0,0,0,0,0,0,0,0,0,0,0,0,0,0,0,0,0,0,0,0,0,0,0,0,0,0,0,0,0,0,0,0,0,0,0,0,0,0,0,0,0,0,0,
0,0,0,0,0,0,0,0,0,0,0,0,0,0,0,0,0,0,0,0,0,0,0,0,0,0,0,0,0,0,0,0,0,0,0,0,0,0,0,0,0,0,0,0,0,0,0,0,0,0,0,0,0,0,0,0,0,0,0,0,0,0,0,0,0,0,0,0,0,0,0,0,0,0,0,0,0,0,0,0,0,0,0,0,0,0,0,0,0,0,0,0,0,0,0,0,0,0,0,0,0,0,
0,0,0,0,0,0,0,0,0,0,0,0,0,0,0,0,0,0,0,0,0,0,0,0,0,0,0,0,0,0,0,0,0,0,0,0,0,0,0,0,0,0,0,0,0,0,0,0,0,0,0,0,0,0,0,0,0,0,0,0,0,0,0,0,0,0,0,0,0,0,0,0,0,0,0,0,0,0,0,0,0,0,0,0,0,0,0,0,0,0,0,0,0,0,0,0,0,0,0,0,0,0,
0,0,0,0,0,0,0,0,0,0,0,0,0,0,0,0,0,0,0,0,0,0,0,0,0,0,0,0,0,0,0,0,0,0,0,0,0,0,0,0,0,0,0,0,0,0,0,0,0,0,0,0,0,0,0,0,0,0,0,0,0,0,0,0,0,0,0,0,0,0,0,0,0,0,0,0,0,0,0,0,0,0,0,0,0,0,0,0,0,0,0,0,0,0,0,0,0,0,0,0,0,0,
0,0,0,0,0,0,0,0,0,0,0,0,0,0,0,0,0,0,0,0,0,0,0,0,0,0,0,0,0,0,0,0,0,0,0,0,0,0,0,0,0,0,0,0,0,0,0,0,0,0,0,0,0,0,0,0,0,0,0,0,0,0,0,0,0,0,0,0,0,0,0,0,0,0,0,0,0,0,0,0,0,0,0,0,0,0,0,0,0,0,0,0,0,0,0,0,0,0,0,0,0,0,
0,0,0,0,0,0,0,0,0,0,0,0,0,0,0,0,0,0,0,0,0,0,0,0,0,0,0,0,0,0,0,0,0,0,0,0,0,0,0,0,0,0,0,0,0,0,0,0,0,0,0,0,0,0,0,0,0,0,0,0,0,0,0,0,0,0,0,0,0,0,0,0,0,0,0,0,0,0,0,0,0,0,0,0,0,0,0,0,0,0,0,0,0,0,0,0,0,0,0,0,0,0,
0,0,0,0,0,0,0,0,0,0,0,0,0,0,0,0,0,0,0,0,0,0,0,0,0,0,0,0,0,0,0,0,0,0,0,0,0,0,0,0,0,0,0,0,0,0,0,0,0,0,0,0,0,0,0,0,0,0,0,0,0,0,0,0,0,0,0,0,0,0,0,0,0,0,0,0,0,0,0,0,0,0,0,0,0,0,0,0,0,0,0,0,0,0,0,0,0,0,0,0,0,0,
0,0,0,0,0,0,0,0,0,0,0,0,0,0,0,0,0,0,0,0,0,0,0,0,0,0,0,0,0,0,0,0,0,0,0,0,0,0,0,0,0,0,0,0,0,0,0,0,0,0,0,0,0,0,0,0,0,0,0,0,0,0,0,0,0,0,0,0,0,0,0,0,0,0,0,0,0,0,0,0,0,0,0,0,0,0,0,0,0,0,0,0,0,0,0,0,0,0,0,0,0,0,
0,0,0,0,0,0,0,0,0,0,0,0,0,0,0,0,0,0,0,0,0,0,0,0,0,0,0,0,0,0,0,0,0,0,0,0,0,0,0,0,0,0,0,0,0,0,0,0,0,0,0,0,0,0,0,0,0,0,0,0,0,0,0,0,0,0,0,0,0,0,0,0,0,0,0,0,0,0,0,0,0,0,0,0,0,0,0,0,0,0,0,0,0,0,0,0,0,0,0,0,0,0,
0,0,0,0,0,0,0,0,0,0,0,0,0,0,0,0,0,0,0,0,0,0,0,0,0,0,0,0,0,0,0,0,0,0,0,0,0,0,0,0,0,0,0,0,0,0,0,0,0,0,0,0,0,0,0,0,0,0,0,0,0,0,0,0,0,0,0,0,0,0,0,0,0,0,0,0,0,0,0,0,0,0,0,0,0,0,0,0,0,0,0,0,0,0,0,0,0,0,0,0,0,0,
0,0,0,0,0,0,0,0,0,0,0,0,0,0,0,0,0,0,0,0,0,0,0,0,0,0,0,0,0,0,0,0,0,0,0,0,0,0,0,0,0,0,0,0,0,0,0,0,0,0,0,0,0,0,0,0,0,0,0,0,0,0,0,0,0,0,0,0,0,0,0,0,0,0,0,0,0,0,0,0,0,0,0,0,0,0,0,0,0,0,0,0,0,0,0,0,0,0,0,0,0,0,
0,0,0,0,0,0,0,0,0,0,0,0,0,0,0,0,0,0,0,0,0,0,0,0,0,0,0,0,0,0,0,0,0,0,0,0,0,0,0,0,0,0,0,0,0,0,0,0,0,0,0,0,0,0,0,0,0,0,0,0,0,0,0,0,0,0,0,0,0,0,0,0,0,0,0,0,0,0,0,0,0,0,0,0,0,0,0,0,0,0,0,0,0,0,0,0,0,0,0,0,0,0,
0,0,0,0,0,0,0,0,0,0,0,0,0,0,0,0,0,0,0,0,0,0,0,0,0,0,0,0,0,0,0,0,0,0,0,0,0,0,0,0,0,0,0,0,0,0,0,0,0,0,0,0,0,0,0,0,0,0,0,0,0,0,0,0,0,0,0,0,0,0,0,0,0,0,0,0,0,0,0,0,0,0,0,0,0,0,0,0,0,0,0,0,0,0,0,0,0,0,0,0,0,0,
0,0,0,0,0,0,0,0,0,0,0,0,0,0,0,0,0,0,0,0,0,0,0,0,0,0,0,0,0,0,0,0,0,0,0,0,0,0,0,0,0,0,0,0,0,0,0,0,0,0,0,0,0,0,0,0,0,0,0,0,0,0,0,0,0,0,0,0,0,0,0,0,0,0,0,0,0,0,0,0,0,0,0,0,0,0,0,0,0,0,0,0,0,0,0,0,0,0,0,0,0,0,
0,0,0,0,0,0,0,0,0,0,0,0,0,0,0,0,0,0,0,0,0,0,0,0,0,0,0,0,0,0,0,0,0,0,0,0,0,0,0,0,0,0,0,0,0,0,0,0,0,0,0,0,0,0,0,0,0,0,0,0,0,0,0,0,0,0,0,0,0,0,0,0,0,0,0,0,0,0,0,0,0,0,0,0,0,0,0,0,0,0,0,0,0,0,0,0,0,0,0,0,0,0,
0,0,0,0,0,0,0,0,0,0,0,0,0,0,0,0,0,0,0,0,0,0,0,0,0,0,0,0,0,0,0,0,0,0,0,0,0,0,0,0,0,0,0,0,0,0,0,0,0,0,0,0,0,0,0,0,0,0,0,0,0,0,0,0,0,0,0,0,0,0,0,0,0,0,0,0,0,0,0,0,0,0,0,0,0,0,0,0,0,0,0,0,0,0,0,0,0,0,0,0,0,0,
0,0,0,0,0,0,0,0,0,0,0,0,0,0,0,0,0,0,0,0,0,0,0,0,0,0,0,0,0,0,0,0,0,0,0,0,0,0,0,0,0,0,0,0,0,0,0,0,0,0,0,0,0,0,0,0,0,0,0,0,0,0,0,0,0,0,0,0,0,0,0,0,0,0,0,0,0,0,0,0,0,0,0,0,0,0,0,0,0,0,0,0,0,0,0,0,0,0,0,0,0,0,
0,0,0,0,0,0,0,0,0,0,0,0,0,0,0,0,0,0,0,0,0,0,0,0,0,0,0,0,0,0,0,0,0,0,0,0,0,0,0,0,0,0,0,0,0,0,0,0,0,0,0,0,0,0,0,0,0,0,0,0,0,0,0,0,0,0,0,0,0,0,0,0,0,0,0,0,0,0,0,0,0,0,0,0,0,0,0,0,0,0,0,0,0,0,0,0,0,0,0,0,0,0,
0,0,0,0,0,0,0,0,0,0,0,0,0,0,0,0,0,0,0,0,0,0,0,0,0,0,0,0,0,0,0,0,0,0,0,0,0,0,0,0,0,0,0,0,0,0,0,0,0,0,0,0,0,0,0,0,0,0,0,0,0,0,0,0,0,0,0,0,0,0,0,0,0,0,61,62,63,64,0,0,0,0,0,0,0,0,0,0,0,0,0,0,0,0,0,0,0,0,0,0,0,0,
0,0,0,0,0,0,0,0,0,0,0,0,0,0,0,0,0,0,0,0,0,0,0,0,0,0,0,0,0,0,0,0,0,0,0,0,0,0,0,0,0,0,0,0,0,0,0,0,0,0,0,0,0,0,0,0,0,0,0,0,0,0,0,0,0,0,0,0,0,0,0,0,0,0,71,72,73,74,0,0,0,0,0,0,0,0,0,0,0,0,0,0,0,0,0,0,0,0,0,0,0,0,
0,0,0,0,0,0,0,0,0,0,0,0,0,0,0,0,0,0,0,0,0,0,0,0,0,0,0,0,0,0,0,0,0,0,0,0,0,0,0,0,0,0,0,0,0,0,0,0,0,0,0,0,0,0,0,0,0,0,0,0,0,0,0,0,0,0,0,0,0,0,0,0,0,0,0,0,0,0,0,0,0,0,0,0,0,0,0,0,0,0,0,0,0,0,0,0,0,0,0,0,0,0,
0,0,0,0,0,0,0,0,0,0,0,0,0,0,0,0,0,0,0,0,0,0,0,0,0,0,0,0,0,0,0,0,0,0,0,0,0,0,0,0,0,0,0,0,0,0,0,0,0,0,0,0,0,0,0,0,0,0,0,0,0,0,0,0,0,0,0,0,0,0,0,0,0,0,0,0,0,0,0,0,0,0,0,0,0,0,0,0,0,0,0,0,0,0,0,0,0,0,0,0,0,0,
0,0,0,0,0,0,0,0,0,0,0,0,0,0,0,0,0,0,0,0,0,0,0,0,0,0,0,0,0,0,0,0,0,0,0,0,0,0,0,0,0,0,0,0,0,0,0,0,0,0,0,0,0,0,0,0,0,0,0,0,0,0,0,0,0,0,0,0,0,0,0,0,0,0,0,0,0,0,0,0,0,0,0,0,0,0,0,0,0,0,0,0,0,0,0,0,0,0,0,0,0,0,
0,0,0,0,0,0,0,0,0,0,0,0,0,0,0,0,0,0,0,0,0,0,0,0,0,0,0,0,0,0,0,0,0,0,0,0,0,0,0,0,0,0,0,0,0,0,0,0,0,0,0,0,0,0,0,0,0,0,0,0,0,0,0,0,0,0,0,0,0,0,0,0,0,0,0,0,0,0,0,0,0,0,0,0,0,0,0,0,0,0,0,0,0,0,0,0,0,0,0,0,0,0,
0,0,0,0,0,0,0,0,0,0,0,0,0,0,0,0,0,0,0,0,0,0,0,0,0,0,0,0,0,0,0,0,0,0,0,0,0,0,0,0,0,0,0,0,0,0,0,0,0,0,0,0,0,0,0,0,0,0,0,0,0,0,0,0,0,0,0,0,0,0,0,0,0,0,0,0,0,0,0,0,0,0,0,0,0,0,0,0,0,0,0,0,0,0,0,0,0,0,0,0,0,0,
0,0,0,0,0,0,0,0,0,0,0,0,0,0,0,0,0,0,0,0,0,0,0,0,0,0,0,0,0,0,0,0,0,0,0,0,0,0,0,0,0,0,0,0,0,0,0,0,0,0,0,0,0,0,0,0,0,0,0,0,0,0,0,0,0,0,0,0,0,0,0,0,0,0,0,0,0,0,0,0,0,0,0,0,0,0,0,0,0,0,0,0,0,0,0,0,0,0,0,0,0,0,
0,0,0,0,0,0,0,0,0,0,0,0,0,0,0,0,0,0,0,0,0,0,0,0,0,0,0,0,0,0,0,0,0,0,0,0,0,0,0,0,0,0,0,0,0,0,0,0,0,0,0,0,0,0,0,0,0,0,0,0,0,0,0,0,0,0,0,0,0,0,0,0,0,0,0,0,0,0,0,0,0,0,0,0,0,0,0,0,0,0,0,0,0,0,0,0,0,0,0,0,0,0,
0,0,0,0,0,0,0,0,0,0,0,0,0,0,0,0,0,0,0,0,0,0,0,0,0,0,0,0,0,0,0,0,0,0,0,0,0,0,0,0,0,0,0,0,0,0,0,0,0,0,0,0,0,0,0,0,0,0,0,0,0,0,0,0,0,0,0,0,0,0,0,0,0,0,0,0,0,0,0,0,0,0,0,0,0,0,0,0,0,0,0,0,0,0,0,0,0,0,0,0,0,0,
0,0,0,0,0,0,0,0,0,0,0,0,0,0,0,0,0,0,0,0,0,0,0,0,0,0,0,0,0,0,0,0,0,0,0,0,0,0,0,0,0,0,0,0,0,0,0,0,0,0,0,0,0,0,0,0,0,0,0,0,0,0,0,0,0,0,0,0,0,0,0,0,0,0,0,0,0,0,0,0,0,0,0,0,0,0,0,0,0,0,0,0,0,0,0,0,0,0,0,0,0,0
</data>
 </layer>
 <objectgroup color="#0000ff" id="4" name="collision">
  <object id="2" x="0" y="0" width="1088" height="32"/>
  <object id="3" x="0" y="32" width="32" height="160"/>
  <object id="12" x="256" y="32" width="32" height="96"/>
  <object id="13" x="288" y="96" width="96" height="32"/>
  <object id="14" x="480" y="128" width="32" height="64"/>
  <object id="20" x="288" y="64" width="32" height="32"/>
  <object id="23" x="480" y="72" width="32" height="16"/>
  <object id="24" x="200" y="136" width="48" height="16"/>
  <object id="26" x="128" y="32" width="64" height="32"/>
  <object id="27" x="1056" y="32" width="32" height="160"/>
  <object id="28" x="0" y="192" width="768" height="32"/>
  <object id="29" x="416" y="96" width="96" height="32"/>
  <object id="30" x="800" y="192" width="288" height="32"/>
  <object id="31" x="704" y="32" width="96" height="64"/>
  <object id="34" x="800" y="32" width="32" height="32"/>
  <object id="36" x="544" y="168" width="32" height="24"/>
  <object id="38" x="808" y="104" width="48" height="16"/>
  <object id="39" x="896" y="32" width="32" height="32"/>
  <object id="42" x="992" y="160" width="32" height="32"/>
  <object id="53" x="2376" y="1472" width="24" height="32"/>
  <object id="54" x="2376" y="1440" width="80" height="32"/>
  <object id="56" x="2432" y="1472" width="24" height="32"/>
  <object id="57" x="2456" y="1504">
   <polygon points="0,0 40,-40 40,-64 0,-64"/>
  </object>
  <object id="62" x="1312" y="64" width="288" height="32"/>
  <object id="63" x="1568" y="96">
   <polygon points="0,0 32,32 32,0"/>
  </object>
  <object id="64" x="1600" y="96" width="96" height="32"/>
  <object id="65" x="1696" y="128">
   <polygon points="0,0 32,-32 0,-32"/>
  </object>
  <object id="67" x="1696" y="64" width="256" height="32"/>
  <object id="69" x="1760" y="96" width="128" height="32"/>
  <object id="71" x="1344" y="96" width="128" height="32"/>
  <object id="72" x="1504" y="96" width="32" height="32"/>
  <object id="75" x="1344" y="96">
   <polygon points="0,0 -32,32 -32,0"/>
  </object>
  <object id="76" x="1280" y="96" width="32" height="128"/>
  <object id="77" x="1344" y="192" width="576" height="32"/>
  <object id="78" x="1952" y="192" width="64" height="128"/>
  <object id="79" x="1984" y="128" width="32" height="64"/>
  <object id="80" x="1920" y="96">
   <polygon points="0,0 64,64 64,0"/>
  </object>
  <object id="82" x="1824" y="224" width="96" height="96"/>
  <object id="84" x="1728" y="288" width="64" height="32"/>
  <object id="85" x="1696" y="288" width="32" height="160"/>
  <object id="86" x="1728" y="416" width="320" height="32"/>
  <object id="87" x="2016" y="288" width="32" height="128"/>
  <object id="89" x="2304" y="160" width="96" height="64"/>
  <object id="90" x="2496" y="160" width="96" height="64"/>
  <object id="91" x="2592" y="0" width="32" height="192"/>
  <object id="92" x="2304" y="0" width="288" height="32"/>
  <object id="93" x="2272" y="0" width="32" height="192"/>
 </objectgroup>
 <objectgroup color="#ff00ff" id="3" name="objects"/>
 <layer id="7" name="house_top" width="102" height="56">
  <data encoding="csv">
0,0,0,0,0,0,0,0,0,0,0,0,0,0,0,0,0,0,0,0,0,0,0,0,0,0,0,0,0,0,0,0,0,0,0,0,0,0,0,0,0,0,0,0,0,0,0,0,0,0,0,0,0,0,0,0,0,0,0,0,0,0,0,0,0,0,0,0,0,0,0,0,0,0,0,0,0,0,0,0,0,0,0,0,0,0,0,0,0,0,0,0,0,0,0,0,0,0,0,0,0,0,
0,0,0,0,0,0,0,0,0,0,0,0,0,0,0,0,0,0,0,0,0,0,0,0,0,0,0,0,0,0,0,0,0,0,0,0,0,0,0,0,0,0,0,0,0,0,0,0,0,0,0,0,0,0,0,0,0,0,0,0,0,0,0,0,0,0,0,0,0,0,0,0,0,0,0,0,0,0,0,0,0,0,0,0,0,0,0,0,0,0,0,0,0,0,0,0,0,0,0,0,0,0,
0,0,0,0,0,0,0,0,0,0,0,0,0,0,0,0,0,0,0,0,0,0,0,0,0,0,0,0,0,0,0,0,0,0,0,0,0,0,0,0,0,0,0,0,0,0,0,0,0,0,0,0,0,0,0,0,0,0,0,0,0,0,0,0,0,0,0,0,0,0,0,0,0,0,0,0,0,0,0,0,0,0,0,0,0,0,0,0,0,0,0,0,0,0,0,0,0,0,0,0,0,0,
0,0,0,0,0,0,0,0,0,0,0,0,0,0,0,0,0,0,0,0,0,0,0,0,0,0,0,0,0,0,0,0,0,0,0,0,0,0,0,0,0,0,0,0,0,0,0,0,0,0,0,0,0,0,0,0,0,0,0,0,0,0,0,0,0,0,0,0,0,0,0,0,0,0,0,0,0,0,0,0,0,0,0,0,0,0,0,0,0,0,0,0,0,0,0,0,0,0,0,0,0,0,
0,0,0,0,0,0,0,0,0,0,0,0,0,0,0,0,0,0,0,0,0,0,0,0,0,0,0,0,0,0,0,0,0,0,0,0,0,0,0,0,0,0,0,0,0,0,0,0,0,0,0,0,0,0,0,0,0,0,0,0,0,0,0,0,0,0,0,0,0,0,0,0,0,0,0,0,0,0,0,0,0,0,0,0,0,0,0,0,0,0,0,0,0,0,0,0,0,0,0,0,0,0,
0,0,0,0,0,0,0,0,0,0,0,0,0,0,0,0,0,0,0,0,0,0,0,0,0,0,0,0,0,0,0,0,0,0,0,0,0,0,0,0,0,0,0,0,0,0,0,0,0,0,0,0,0,0,0,0,0,0,0,0,0,0,0,0,0,0,0,0,0,0,0,0,0,0,0,0,0,0,0,0,0,0,0,0,0,0,0,0,0,0,0,0,0,0,0,0,0,0,0,0,0,0,
0,0,0,0,0,0,0,0,0,0,0,0,0,0,0,0,0,0,0,0,0,0,0,0,0,0,0,0,0,0,0,0,0,0,0,0,0,0,0,0,0,0,0,0,0,0,0,0,0,0,0,0,0,0,0,0,0,0,0,0,0,0,0,0,0,0,0,0,0,0,0,0,0,0,0,0,0,0,0,0,0,0,0,0,0,0,0,0,0,0,0,0,0,0,0,0,0,0,0,0,0,0,
0,0,0,0,0,0,0,0,0,0,0,0,0,0,0,0,0,0,0,0,0,0,0,0,0,0,0,0,0,0,0,0,0,0,0,0,0,0,0,0,0,0,0,0,0,0,0,0,0,0,0,0,0,0,0,0,0,0,0,0,0,0,0,0,0,0,0,0,0,0,0,0,0,0,0,0,0,0,0,0,0,0,0,0,0,0,0,0,0,0,0,0,0,0,0,0,0,0,0,0,0,0,
0,0,0,0,0,0,0,0,0,0,0,0,0,0,0,0,0,0,0,0,0,0,0,0,0,0,0,0,0,0,0,0,0,0,0,0,0,0,0,0,0,0,0,0,0,0,0,0,0,0,0,0,0,0,0,0,0,0,0,0,0,0,0,0,0,0,0,0,0,0,0,0,0,0,0,0,0,0,0,0,0,0,0,0,0,0,0,0,0,0,0,0,0,0,0,0,0,0,0,0,0,0,
0,0,0,0,0,0,0,0,0,0,0,0,0,0,0,0,0,0,0,0,0,0,0,0,0,0,0,0,0,0,0,0,0,0,0,0,0,0,0,0,0,0,0,0,0,0,0,0,0,0,0,0,0,0,0,0,0,0,0,0,0,0,0,0,0,0,0,0,0,0,0,0,0,0,0,0,0,0,0,0,0,0,0,0,0,0,0,0,0,0,0,0,0,0,0,0,0,0,0,0,0,0,
0,0,0,0,0,0,0,0,0,0,0,0,0,0,0,0,0,0,0,0,0,0,0,0,0,0,0,0,0,0,0,0,0,0,0,0,0,0,0,0,0,0,0,0,0,0,0,0,0,0,0,0,0,0,0,0,0,0,0,0,0,0,0,0,0,0,0,0,0,0,0,0,0,0,0,0,0,0,0,0,0,0,0,0,0,0,0,0,0,0,0,0,0,0,0,0,0,0,0,0,0,0,
0,0,0,0,0,0,0,0,0,0,0,0,0,0,0,0,0,0,0,0,0,0,0,0,0,0,0,0,0,0,0,0,0,0,0,0,0,0,0,0,0,0,0,0,0,0,0,0,0,0,0,0,0,0,0,0,0,0,0,0,0,0,0,0,0,0,0,0,0,0,0,0,0,0,0,0,0,0,0,0,0,0,0,0,0,0,0,0,0,0,0,0,0,0,0,0,0,0,0,0,0,0,
0,0,0,0,0,0,0,0,0,0,0,0,0,0,0,0,0,0,0,0,0,0,0,0,0,0,0,0,0,0,0,0,0,0,0,0,0,0,0,0,0,0,0,0,0,0,0,0,0,0,0,0,0,0,0,0,0,0,0,0,0,0,0,0,0,0,0,0,0,0,0,0,0,0,0,0,0,0,0,0,0,0,0,0,0,0,0,0,0,0,0,0,0,0,0,0,0,0,0,0,0,0,
0,0,0,0,0,0,0,0,0,0,0,0,0,0,0,0,0,0,0,0,0,0,0,0,0,0,0,0,0,0,0,0,0,0,0,0,0,0,0,0,0,0,0,0,0,0,0,0,0,0,0,0,0,0,0,0,0,0,0,0,0,0,0,0,0,0,0,0,0,0,0,0,0,0,0,0,0,0,0,0,0,0,0,0,0,0,0,0,0,0,0,0,0,0,0,0,0,0,0,0,0,0,
0,0,0,0,0,0,0,0,0,0,0,0,0,0,0,0,0,0,0,0,0,0,0,0,0,0,0,0,0,0,0,0,0,0,0,0,0,0,0,0,0,0,0,0,0,0,0,0,0,0,0,0,0,0,0,0,0,0,0,0,0,0,0,0,0,0,0,0,0,0,0,0,0,0,0,0,0,0,0,0,0,0,0,0,0,0,0,0,0,0,0,0,0,0,0,0,0,0,0,0,0,0,
0,0,0,0,0,0,0,0,0,0,0,0,0,0,0,0,0,0,0,0,0,0,0,0,0,0,0,0,0,0,0,0,0,0,0,0,0,0,0,0,0,0,0,0,0,0,0,0,0,0,0,0,0,0,0,0,0,0,0,0,0,0,0,0,0,0,0,0,0,0,0,0,0,0,0,0,0,0,0,0,0,0,0,0,0,0,0,0,0,0,0,0,0,0,0,0,0,0,0,0,0,0,
0,0,0,0,0,0,0,0,0,0,0,0,0,0,0,0,0,0,0,0,0,0,0,0,0,0,0,0,0,0,0,0,0,0,0,0,0,0,0,0,0,0,0,0,0,0,0,0,0,0,0,0,0,0,0,0,0,0,0,0,0,0,0,0,0,0,0,0,0,0,0,0,0,0,0,0,0,0,0,0,0,0,0,0,0,0,0,0,0,0,0,0,0,0,0,0,0,0,0,0,0,0,
0,0,0,0,0,0,0,0,0,0,0,0,0,0,0,0,0,0,0,0,0,0,0,0,0,0,0,0,0,0,0,0,0,0,0,0,0,0,0,0,0,0,0,0,0,0,0,0,0,0,0,0,0,0,0,0,0,0,0,0,0,0,0,0,0,0,0,0,0,0,0,0,0,0,0,0,0,0,0,0,0,0,0,0,0,0,0,0,0,0,0,0,0,0,0,0,0,0,0,0,0,0,
0,0,0,0,0,0,0,0,0,0,0,0,0,0,0,0,0,0,0,0,0,0,0,0,0,0,0,0,0,0,0,0,0,0,0,0,0,0,0,0,0,0,0,0,0,0,0,0,0,0,0,0,0,0,0,0,0,0,0,0,0,0,0,0,0,0,0,0,0,0,0,0,0,0,0,0,0,0,0,0,0,0,0,0,0,0,0,0,0,0,0,0,0,0,0,0,0,0,0,0,0,0,
0,0,0,0,0,0,0,0,0,0,0,0,0,0,0,0,0,0,0,0,0,0,0,0,0,0,0,0,0,0,0,0,0,0,0,0,0,0,0,0,0,0,0,0,0,0,0,0,0,0,0,0,0,0,0,0,0,0,0,0,0,0,0,0,0,0,0,0,0,0,0,0,0,0,0,0,0,0,0,0,0,0,0,0,0,0,0,0,0,0,0,0,0,0,0,0,0,0,0,0,0,0,
0,0,0,0,0,0,0,0,0,0,0,0,0,0,0,0,0,0,0,0,0,0,0,0,0,0,0,0,0,0,0,0,0,0,0,0,0,0,0,0,0,0,0,0,0,0,0,0,0,0,0,0,0,0,0,0,0,0,0,0,0,0,0,0,0,0,0,0,0,0,0,0,0,0,0,0,0,0,0,0,0,0,0,0,0,0,0,0,0,0,0,0,0,0,0,0,0,0,0,0,0,0,
0,0,0,0,0,0,0,0,0,0,0,0,0,0,0,0,0,0,0,0,0,0,0,0,0,0,0,0,0,0,0,0,0,0,0,0,0,0,0,0,0,0,0,0,0,0,0,0,0,0,0,0,0,0,0,0,0,0,0,0,0,0,0,0,0,0,0,0,0,0,0,0,0,0,0,0,0,0,0,0,0,0,0,0,0,0,0,0,0,0,0,0,0,0,0,0,0,0,0,0,0,0,
0,0,0,0,0,0,0,0,0,0,0,0,0,0,0,0,0,0,0,0,0,0,0,0,0,0,0,0,0,0,0,0,0,0,0,0,0,0,0,0,0,0,0,0,0,0,0,0,0,0,0,0,0,0,0,0,0,0,0,0,0,0,0,0,0,0,0,0,0,0,0,0,0,0,0,0,0,0,0,0,0,0,0,0,0,0,0,0,0,0,0,0,0,0,0,0,0,0,0,0,0,0,
0,0,0,0,0,0,0,0,0,0,0,0,0,0,0,0,0,0,0,0,0,0,0,0,0,0,0,0,0,0,0,0,0,0,0,0,0,0,0,0,0,0,0,0,0,0,0,0,0,0,0,0,0,0,0,0,0,0,0,0,0,0,0,0,0,0,0,0,0,0,0,0,0,0,0,0,0,0,0,0,0,0,0,0,0,0,0,0,0,0,0,0,0,0,0,0,0,0,0,0,0,0,
0,0,0,0,0,0,0,0,0,0,0,0,0,0,0,0,0,0,0,0,0,0,0,0,0,0,0,0,0,0,0,0,0,0,0,0,0,0,0,0,0,0,0,0,0,0,0,0,0,0,0,0,0,0,0,0,0,0,0,0,0,0,0,0,0,0,0,0,0,0,0,0,0,0,0,0,0,0,0,0,0,0,0,0,0,0,0,0,0,0,0,0,0,0,0,0,0,0,0,0,0,0,
0,0,0,0,0,0,0,0,0,0,0,0,0,0,0,0,0,0,0,0,0,0,0,0,0,0,0,0,0,0,0,0,0,0,0,0,0,0,0,0,0,0,0,0,0,0,0,0,0,0,0,0,0,0,0,0,0,0,0,0,0,0,0,0,0,0,0,0,0,0,0,0,0,0,0,0,0,0,0,0,0,0,0,0,0,0,0,0,0,0,0,0,0,0,0,0,0,0,0,0,0,0,
0,0,0,0,0,0,0,0,0,0,0,0,0,0,0,0,0,0,0,0,0,0,0,0,0,0,0,0,0,0,0,0,0,0,0,0,0,0,0,0,0,0,0,0,0,0,0,0,0,0,0,0,0,0,0,0,0,0,0,0,0,0,0,0,0,0,0,0,0,0,0,0,0,0,0,0,0,0,0,0,0,0,0,0,0,0,0,0,0,0,0,0,0,0,0,0,0,0,0,0,0,0,
0,0,0,0,0,0,0,0,0,0,0,0,0,0,0,0,0,0,0,0,0,0,0,0,0,0,0,0,0,0,0,0,0,0,0,0,0,0,0,0,0,0,0,0,0,0,0,0,0,0,0,0,0,0,0,0,0,0,0,0,0,0,0,0,0,0,0,0,0,0,0,0,0,0,0,0,0,0,0,0,0,0,0,0,0,0,0,0,0,0,0,0,0,0,0,0,0,0,0,0,0,0,
0,0,0,0,0,0,0,0,0,0,0,0,0,0,0,0,0,0,0,0,0,0,0,0,0,0,0,0,0,0,0,0,0,0,0,0,0,0,0,0,0,0,0,0,0,0,0,0,0,0,0,0,0,0,0,0,0,0,0,0,0,0,0,0,0,0,0,0,0,0,0,0,0,0,0,0,0,0,0,0,0,0,0,0,0,0,0,0,0,0,0,0,0,0,0,0,0,0,0,0,0,0,
0,0,0,0,0,0,0,0,0,0,0,0,0,0,0,0,0,0,0,0,0,0,0,0,0,0,0,0,0,0,0,0,0,0,0,0,0,0,0,0,0,0,0,0,0,0,0,0,0,0,0,0,0,0,0,0,0,0,0,0,0,0,0,0,0,0,0,0,0,0,0,0,0,0,0,0,0,0,0,0,0,0,0,0,0,0,0,0,0,0,0,0,0,0,0,0,0,0,0,0,0,0,
0,0,0,0,0,0,0,0,0,0,0,0,0,0,0,0,0,0,0,0,0,0,0,0,0,0,0,0,0,0,0,0,0,0,0,0,0,0,0,0,0,0,0,0,0,0,0,0,0,0,0,0,0,0,0,0,0,0,0,0,0,0,0,0,0,0,0,0,0,0,0,0,0,0,0,0,0,0,0,0,0,0,0,0,0,0,0,0,0,0,0,0,0,0,0,0,0,0,0,0,0,0,
0,0,0,0,0,0,0,0,0,0,0,0,0,0,0,0,0,0,0,0,0,0,0,0,0,0,0,0,0,0,0,0,0,0,0,0,0,0,0,0,0,0,0,0,0,0,0,0,0,0,0,0,0,0,0,0,0,0,0,0,0,0,0,0,0,0,0,0,0,0,0,0,0,0,0,0,0,0,0,0,0,0,0,0,0,0,0,0,0,0,0,0,0,0,0,0,0,0,0,0,0,0,
0,0,0,0,0,0,0,0,0,0,0,0,0,0,0,0,0,0,0,0,0,0,0,0,0,0,0,0,0,0,0,0,0,0,0,0,0,0,0,0,0,0,0,0,0,0,0,0,0,0,0,0,0,0,0,0,0,0,0,0,0,0,0,0,0,0,0,0,0,0,0,0,0,0,0,0,0,0,0,0,0,0,0,0,0,0,0,0,0,0,0,0,0,0,0,0,0,0,0,0,0,0,
0,0,0,0,0,0,0,0,0,0,0,0,0,0,0,0,0,0,0,0,0,0,0,0,0,0,0,0,0,0,0,0,0,0,0,0,0,0,0,0,0,0,0,0,0,0,0,0,0,0,0,0,0,0,0,0,0,0,0,0,0,0,0,0,0,0,0,0,0,0,0,0,0,0,0,0,0,0,0,0,0,0,0,0,0,0,0,0,0,0,0,0,0,0,0,0,0,0,0,0,0,0,
0,0,0,0,0,0,0,0,0,0,0,0,0,0,0,0,0,0,0,0,0,0,0,0,0,0,0,0,0,0,0,0,0,0,0,0,0,0,0,0,0,0,0,0,0,0,0,0,0,0,0,0,0,0,0,0,0,0,0,0,0,0,0,0,0,0,0,0,0,0,0,0,0,0,0,0,0,0,0,0,0,0,0,0,0,0,0,0,0,0,0,0,0,0,0,0,0,0,0,0,0,0,
0,0,0,0,0,0,0,0,0,0,0,0,0,0,0,0,0,0,0,0,0,0,0,0,0,0,0,0,0,0,0,0,0,0,0,0,0,0,0,0,0,0,0,0,0,0,0,0,0,0,0,0,0,0,0,0,0,0,0,0,0,0,0,0,0,0,0,0,0,0,0,0,0,0,0,0,0,0,0,0,0,0,0,0,0,0,0,0,0,0,0,0,0,0,0,0,0,0,0,0,0,0,
0,0,0,0,0,0,0,0,0,0,0,0,0,0,0,0,0,0,0,0,0,0,0,0,0,0,0,0,0,0,0,0,0,0,0,0,0,0,0,0,0,0,0,0,0,0,0,0,0,0,0,0,0,0,0,0,0,0,0,0,0,0,0,0,0,0,0,0,0,0,0,0,0,0,0,0,0,0,0,0,0,0,0,0,0,0,0,0,0,0,0,0,0,0,0,0,0,0,0,0,0,0,
0,0,0,0,0,0,0,0,0,0,0,0,0,0,0,0,0,0,0,0,0,0,0,0,0,0,0,0,0,0,0,0,0,0,0,0,0,0,0,0,0,0,0,0,0,0,0,0,0,0,0,0,0,0,0,0,0,0,0,0,0,0,0,0,0,0,0,0,0,0,0,0,0,0,0,0,0,0,0,0,0,0,0,0,0,0,0,0,0,0,0,0,0,0,0,0,0,0,0,0,0,0,
0,0,0,0,0,0,0,0,0,0,0,0,0,0,0,0,0,0,0,0,0,0,0,0,0,0,0,0,0,0,0,0,0,0,0,0,0,0,0,0,0,0,0,0,0,0,0,0,0,0,0,0,0,0,0,0,0,0,0,0,0,0,0,0,0,0,0,0,0,0,0,0,0,0,0,0,0,0,0,0,0,0,0,0,0,0,0,0,0,0,0,0,0,0,0,0,0,0,0,0,0,0,
0,0,0,0,0,0,0,0,0,0,0,0,0,0,0,0,0,0,0,0,0,0,0,0,0,0,0,0,0,0,0,0,0,0,0,0,0,0,0,0,0,0,0,0,0,0,0,0,0,0,0,0,0,0,0,0,0,0,0,0,0,0,0,0,0,0,0,0,0,0,0,0,0,0,0,0,0,0,0,0,0,0,0,0,0,0,0,0,0,0,0,0,0,0,0,0,0,0,0,0,0,0,
0,0,0,0,0,0,0,0,0,0,0,0,0,0,0,0,0,0,0,0,0,0,0,0,0,0,0,0,0,0,0,0,0,0,0,0,0,0,0,0,0,0,0,0,0,0,0,0,0,0,0,0,0,0,0,0,0,0,0,0,0,0,0,0,0,0,0,0,0,0,0,0,0,0,0,0,0,0,0,0,0,0,0,0,0,0,0,0,0,0,0,0,0,0,0,0,0,0,0,0,0,0,
0,0,0,0,0,0,0,0,0,0,0,0,0,0,0,0,0,0,0,0,0,0,0,0,0,0,0,0,0,0,0,0,0,0,0,0,0,0,0,0,0,0,0,0,0,0,0,0,0,0,0,0,0,0,0,0,0,0,0,0,0,0,0,0,0,0,0,0,0,0,0,0,0,0,0,0,0,0,0,0,0,0,0,0,0,0,0,0,0,0,0,0,0,0,0,0,0,0,0,0,0,0,
0,0,0,0,0,0,0,0,0,0,0,0,0,0,0,0,0,0,0,0,0,0,0,0,0,0,0,0,0,0,0,0,0,0,0,0,0,0,0,0,0,0,0,0,0,0,0,0,0,0,0,0,0,0,0,0,0,0,0,0,0,0,0,0,0,0,0,0,0,0,0,0,0,0,0,0,0,0,0,0,0,0,0,0,0,0,0,0,0,0,0,0,0,0,0,0,0,0,0,0,0,0,
0,0,0,0,0,0,0,0,0,0,0,0,0,0,0,0,0,0,0,0,0,0,0,0,0,0,0,0,0,0,0,0,0,0,0,0,0,0,0,0,0,0,0,0,0,0,0,0,0,0,0,0,0,0,0,0,0,0,0,0,0,0,0,0,0,0,0,0,0,0,0,0,0,0,41,42,43,44,0,0,0,0,0,0,0,0,0,0,0,0,0,0,0,0,0,0,0,0,0,0,0,0,
0,0,0,0,0,0,0,0,0,0,0,0,0,0,0,0,0,0,0,0,0,0,0,0,0,0,0,0,0,0,0,0,0,0,0,0,0,0,0,0,0,0,0,0,0,0,0,0,0,0,0,0,0,0,0,0,0,0,0,0,0,0,0,0,0,0,0,0,0,0,0,0,0,0,51,52,53,54,0,0,0,0,0,0,0,0,0,0,0,0,0,0,0,0,0,0,0,0,0,0,0,0,
0,0,0,0,0,0,0,0,0,0,0,0,0,0,0,0,0,0,0,0,0,0,0,0,0,0,0,0,0,0,0,0,0,0,0,0,0,0,0,0,0,0,0,0,0,0,0,0,0,0,0,0,0,0,0,0,0,0,0,0,0,0,0,0,0,0,0,0,0,0,0,0,0,0,0,0,0,0,0,0,0,0,0,0,0,0,0,0,0,0,0,0,0,0,0,0,0,0,0,0,0,0,
0,0,0,0,0,0,0,0,0,0,0,0,0,0,0,0,0,0,0,0,0,0,0,0,0,0,0,0,0,0,0,0,0,0,0,0,0,0,0,0,0,0,0,0,0,0,0,0,0,0,0,0,0,0,0,0,0,0,0,0,0,0,0,0,0,0,0,0,0,0,0,0,0,0,0,0,0,0,0,0,0,0,0,0,0,0,0,0,0,0,0,0,0,0,0,0,0,0,0,0,0,0,
0,0,0,0,0,0,0,0,0,0,0,0,0,0,0,0,0,0,0,0,0,0,0,0,0,0,0,0,0,0,0,0,0,0,0,0,0,0,0,0,0,0,0,0,0,0,0,0,0,0,0,0,0,0,0,0,0,0,0,0,0,0,0,0,0,0,0,0,0,0,0,0,0,0,0,0,0,0,0,0,0,0,0,0,0,0,0,0,0,0,0,0,0,0,0,0,0,0,0,0,0,0,
0,0,0,0,0,0,0,0,0,0,0,0,0,0,0,0,0,0,0,0,0,0,0,0,0,0,0,0,0,0,0,0,0,0,0,0,0,0,0,0,0,0,0,0,0,0,0,0,0,0,0,0,0,0,0,0,0,0,0,0,0,0,0,0,0,0,0,0,0,0,0,0,0,0,0,0,0,0,0,0,0,0,0,0,0,0,0,0,0,0,0,0,0,0,0,0,0,0,0,0,0,0,
0,0,0,0,0,0,0,0,0,0,0,0,0,0,0,0,0,0,0,0,0,0,0,0,0,0,0,0,0,0,0,0,0,0,0,0,0,0,0,0,0,0,0,0,0,0,0,0,0,0,0,0,0,0,0,0,0,0,0,0,0,0,0,0,0,0,0,0,0,0,0,0,0,0,0,0,0,0,0,0,0,0,0,0,0,0,0,0,0,0,0,0,0,0,0,0,0,0,0,0,0,0,
0,0,0,0,0,0,0,0,0,0,0,0,0,0,0,0,0,0,0,0,0,0,0,0,0,0,0,0,0,0,0,0,0,0,0,0,0,0,0,0,0,0,0,0,0,0,0,0,0,0,0,0,0,0,0,0,0,0,0,0,0,0,0,0,0,0,0,0,0,0,0,0,0,0,0,0,0,0,0,0,0,0,0,0,0,0,0,0,0,0,0,0,0,0,0,0,0,0,0,0,0,0,
0,0,0,0,0,0,0,0,0,0,0,0,0,0,0,0,0,0,0,0,0,0,0,0,0,0,0,0,0,0,0,0,0,0,0,0,0,0,0,0,0,0,0,0,0,0,0,0,0,0,0,0,0,0,0,0,0,0,0,0,0,0,0,0,0,0,0,0,0,0,0,0,0,0,0,0,0,0,0,0,0,0,0,0,0,0,0,0,0,0,0,0,0,0,0,0,0,0,0,0,0,0,
0,0,0,0,0,0,0,0,0,0,0,0,0,0,0,0,0,0,0,0,0,0,0,0,0,0,0,0,0,0,0,0,0,0,0,0,0,0,0,0,0,0,0,0,0,0,0,0,0,0,0,0,0,0,0,0,0,0,0,0,0,0,0,0,0,0,0,0,0,0,0,0,0,0,0,0,0,0,0,0,0,0,0,0,0,0,0,0,0,0,0,0,0,0,0,0,0,0,0,0,0,0,
0,0,0,0,0,0,0,0,0,0,0,0,0,0,0,0,0,0,0,0,0,0,0,0,0,0,0,0,0,0,0,0,0,0,0,0,0,0,0,0,0,0,0,0,0,0,0,0,0,0,0,0,0,0,0,0,0,0,0,0,0,0,0,0,0,0,0,0,0,0,0,0,0,0,0,0,0,0,0,0,0,0,0,0,0,0,0,0,0,0,0,0,0,0,0,0,0,0,0,0,0,0,
0,0,0,0,0,0,0,0,0,0,0,0,0,0,0,0,0,0,0,0,0,0,0,0,0,0,0,0,0,0,0,0,0,0,0,0,0,0,0,0,0,0,0,0,0,0,0,0,0,0,0,0,0,0,0,0,0,0,0,0,0,0,0,0,0,0,0,0,0,0,0,0,0,0,0,0,0,0,0,0,0,0,0,0,0,0,0,0,0,0,0,0,0,0,0,0,0,0,0,0,0,0,
0,0,0,0,0,0,0,0,0,0,0,0,0,0,0,0,0,0,0,0,0,0,0,0,0,0,0,0,0,0,0,0,0,0,0,0,0,0,0,0,0,0,0,0,0,0,0,0,0,0,0,0,0,0,0,0,0,0,0,0,0,0,0,0,0,0,0,0,0,0,0,0,0,0,0,0,0,0,0,0,0,0,0,0,0,0,0,0,0,0,0,0,0,0,0,0,0,0,0,0,0,0
</data>
 </layer>
 <objectgroup color="#aa00ff" id="2" name="markers">
  <object id="1" name="spawn" x="64" y="96">
   <point/>
  </object>
 </objectgroup>
 <layer id="8" name="grid" width="102" height="56" locked="1" opacity="0.2">
  <data encoding="csv">
66,66,66,66,66,66,66,66,66,66,66,66,66,66,66,66,66,86,86,86,86,86,86,86,86,86,86,86,86,86,86,86,86,86,66,66,66,66,66,66,66,66,66,66,66,66,66,66,66,66,66,86,86,86,86,86,86,86,86,86,86,86,86,86,86,86,86,86,66,66,66,66,66,66,66,66,66,66,66,66,66,66,66,66,66,86,86,86,86,86,86,86,86,86,86,86,86,86,86,86,86,86,
66,66,66,66,66,66,66,66,66,66,66,66,66,66,66,66,66,86,86,86,86,86,86,86,86,86,86,86,86,86,86,86,86,86,66,66,66,66,66,66,66,66,66,66,66,66,66,66,66,66,66,86,86,86,86,86,86,86,86,86,86,86,86,86,86,86,86,86,66,66,66,66,66,66,66,66,66,66,66,66,66,66,66,66,66,86,86,86,86,86,86,86,86,86,86,86,86,86,86,86,86,86,
66,66,66,66,66,66,66,66,66,66,66,66,66,66,66,66,66,86,86,86,86,86,86,86,86,86,86,86,86,86,86,86,86,86,66,66,66,66,66,66,66,66,66,66,66,66,66,66,66,66,66,86,86,86,86,86,86,86,86,86,86,86,86,86,86,86,86,86,66,66,66,66,66,66,66,66,66,66,66,66,66,66,66,66,66,86,86,86,86,86,86,86,86,86,86,86,86,86,86,86,86,86,
66,66,66,66,66,66,66,66,66,66,66,66,66,66,66,66,66,86,86,86,86,86,86,86,86,86,86,86,86,86,86,86,86,86,66,66,66,66,66,66,66,66,66,66,66,66,66,66,66,66,66,86,86,86,86,86,86,86,86,86,86,86,86,86,86,86,86,86,66,66,66,66,66,66,66,66,66,66,66,66,66,66,66,66,66,86,86,86,86,86,86,86,86,86,86,86,86,86,86,86,86,86,
66,66,66,66,66,66,66,66,66,66,66,66,66,66,66,66,66,86,86,86,86,86,86,86,86,86,86,86,86,86,86,86,86,86,66,66,66,66,66,66,66,66,66,66,66,66,66,66,66,66,66,86,86,86,86,86,86,86,86,86,86,86,86,86,86,86,86,86,66,66,66,66,66,66,66,66,66,66,66,66,66,66,66,66,66,86,86,86,86,86,86,86,86,86,86,86,86,86,86,86,86,86,
66,66,66,66,66,66,66,66,66,66,66,66,66,66,66,66,66,86,86,86,86,86,86,86,86,86,86,86,86,86,86,86,86,86,66,66,66,66,66,66,66,66,66,66,66,66,66,66,66,66,66,86,86,86,86,86,86,86,86,86,86,86,86,86,86,86,86,86,66,66,66,66,66,66,66,66,66,66,66,66,66,66,66,66,66,86,86,86,86,86,86,86,86,86,86,86,86,86,86,86,86,86,
66,66,66,66,66,66,66,66,66,66,66,66,66,66,66,66,66,86,86,86,86,86,86,86,86,86,86,86,86,86,86,86,86,86,66,66,66,66,66,66,66,66,66,66,66,66,66,66,66,66,66,86,86,86,86,86,86,86,86,86,86,86,86,86,86,86,86,86,66,66,66,66,66,66,66,66,66,66,66,66,66,66,66,66,66,86,86,86,86,86,86,86,86,86,86,86,86,86,86,86,86,86,
86,86,86,86,86,86,86,86,86,86,86,86,86,86,86,86,86,66,66,66,66,66,66,66,66,66,66,66,66,66,66,66,66,66,86,86,86,86,86,86,86,86,86,86,86,86,86,86,86,86,86,66,66,66,66,66,66,66,66,66,66,66,66,66,66,66,66,66,86,86,86,86,86,86,86,86,86,86,86,86,86,86,86,86,86,66,66,66,66,66,66,66,66,66,66,66,66,66,66,66,66,66,
86,86,86,86,86,86,86,86,86,86,86,86,86,86,86,86,86,66,66,66,66,66,66,66,66,66,66,66,66,66,66,66,66,66,86,86,86,86,86,86,86,86,86,86,86,86,86,86,86,86,86,66,66,66,66,66,66,66,66,66,66,66,66,66,66,66,66,66,86,86,86,86,86,86,86,86,86,86,86,86,86,86,86,86,86,66,66,66,66,66,66,66,66,66,66,66,66,66,66,66,66,66,
86,86,86,86,86,86,86,86,86,86,86,86,86,86,86,86,86,66,66,66,66,66,66,66,66,66,66,66,66,66,66,66,66,66,86,86,86,86,86,86,86,86,86,86,86,86,86,86,86,86,86,66,66,66,66,66,66,66,66,66,66,66,66,66,66,66,66,66,86,86,86,86,86,86,86,86,86,86,86,86,86,86,86,86,86,66,66,66,66,66,66,66,66,66,66,66,66,66,66,66,66,66,
86,86,86,86,86,86,86,86,86,86,86,86,86,86,86,86,86,66,66,66,66,66,66,66,66,66,66,66,66,66,66,66,66,66,86,86,86,86,86,86,86,86,86,86,86,86,86,86,86,86,86,66,66,66,66,66,66,66,66,66,66,66,66,66,66,66,66,66,86,86,86,86,86,86,86,86,86,86,86,86,86,86,86,86,86,66,66,66,66,66,66,66,66,66,66,66,66,66,66,66,66,66,
86,86,86,86,86,86,86,86,86,86,86,86,86,86,86,86,86,66,66,66,66,66,66,66,66,66,66,66,66,66,66,66,66,66,86,86,86,86,86,86,86,86,86,86,86,86,86,86,86,86,86,66,66,66,66,66,66,66,66,66,66,66,66,66,66,66,66,66,86,86,86,86,86,86,86,86,86,86,86,86,86,86,86,86,86,66,66,66,66,66,66,66,66,66,66,66,66,66,66,66,66,66,
86,86,86,86,86,86,86,86,86,86,86,86,86,86,86,86,86,66,66,66,66,66,66,66,66,66,66,66,66,66,66,66,66,66,86,86,86,86,86,86,86,86,86,86,86,86,86,86,86,86,86,66,66,66,66,66,66,66,66,66,66,66,66,66,66,66,66,66,86,86,86,86,86,86,86,86,86,86,86,86,86,86,86,86,86,66,66,66,66,66,66,66,66,66,66,66,66,66,66,66,66,66,
86,86,86,86,86,86,86,86,86,86,86,86,86,86,86,86,86,66,66,66,66,66,66,66,66,66,66,66,66,66,66,66,66,66,86,86,86,86,86,86,86,86,86,86,86,86,86,86,86,86,86,66,66,66,66,66,66,66,66,66,66,66,66,66,66,66,66,66,86,86,86,86,86,86,86,86,86,86,86,86,86,86,86,86,86,66,66,66,66,66,66,66,66,66,66,66,66,66,66,66,66,66,
174,174,174,174,174,174,174,174,174,174,174,174,174,174,174,174,174,203,203,203,203,203,203,203,203,203,203,203,203,203,203,203,203,203,174,174,174,174,174,174,174,174,174,174,174,174,174,174,174,174,174,203,203,203,203,203,203,203,203,203,203,203,203,203,203,203,203,203,174,174,174,174,174,174,174,174,174,174,174,174,174,174,174,174,174,203,203,203,203,203,203,203,203,203,203,203,203,203,203,203,203,203,
174,174,174,174,174,174,174,174,174,174,174,174,174,174,174,174,174,203,203,203,203,203,203,203,203,203,203,203,203,203,203,203,203,203,174,174,174,174,174,174,174,174,174,174,174,174,174,174,174,174,174,203,203,203,203,203,203,203,203,203,203,203,203,203,203,203,203,203,174,174,174,174,174,174,174,174,174,174,174,174,174,174,174,174,174,203,203,203,203,203,203,203,203,203,203,203,203,203,203,203,203,203,
174,174,174,174,174,174,174,174,174,174,174,174,174,174,174,174,174,203,203,203,203,203,203,203,203,203,203,203,203,203,203,203,203,203,174,174,174,174,174,174,174,174,174,174,174,174,174,174,174,174,174,203,203,203,203,203,203,203,203,203,203,203,203,203,203,203,203,203,174,174,174,174,174,174,174,174,174,174,174,174,174,174,174,174,174,203,203,203,203,203,203,203,203,203,203,203,203,203,203,203,203,203,
174,174,174,174,174,174,174,174,174,174,174,174,174,174,174,174,174,203,203,203,203,203,203,203,203,203,203,203,203,203,203,203,203,203,174,174,174,174,174,174,174,174,174,174,174,174,174,174,174,174,174,203,203,203,203,203,203,203,203,203,203,203,203,203,203,203,203,203,174,174,174,174,174,174,174,174,174,174,174,174,174,174,174,174,174,203,203,203,203,203,203,203,203,203,203,203,203,203,203,203,203,203,
174,174,174,174,174,174,174,174,174,174,174,174,174,174,174,174,174,203,203,203,203,203,203,203,203,203,203,203,203,203,203,203,203,203,174,174,174,174,174,174,174,174,174,174,174,174,174,174,174,174,174,203,203,203,203,203,203,203,203,203,203,203,203,203,203,203,203,203,174,174,174,174,174,174,174,174,174,174,174,174,174,174,174,174,174,203,203,203,203,203,203,203,203,203,203,203,203,203,203,203,203,203,
174,174,174,174,174,174,174,174,174,174,174,174,174,174,174,174,174,203,203,203,203,203,203,203,203,203,203,203,203,203,203,203,203,203,174,174,174,174,174,174,174,174,174,174,174,174,174,174,174,174,174,203,203,203,203,203,203,203,203,203,203,203,203,203,203,203,203,203,174,174,174,174,174,174,174,174,174,174,174,174,174,174,174,174,174,203,203,203,203,203,203,203,203,203,203,203,203,203,203,203,203,203,
174,174,174,174,174,174,174,174,174,174,174,174,174,174,174,174,174,203,203,203,203,203,203,203,203,203,203,203,203,203,203,203,203,203,174,174,174,174,174,174,174,174,174,174,174,174,174,174,174,174,174,203,203,203,203,203,203,203,203,203,203,203,203,203,203,203,203,203,174,174,174,174,174,174,174,174,174,174,174,174,174,174,174,174,174,203,203,203,203,203,203,203,203,203,203,203,203,203,203,203,203,203,
203,203,203,203,203,203,203,203,203,203,203,203,203,203,203,203,203,66,66,66,66,66,66,66,66,66,66,66,66,66,66,66,66,66,86,86,86,86,86,86,86,86,86,86,86,86,86,86,86,86,86,66,66,66,66,66,66,66,66,66,66,66,66,66,66,66,66,66,86,86,86,86,86,86,86,86,86,86,86,86,86,86,86,86,86,174,174,174,174,174,174,174,174,174,174,174,174,174,174,174,174,174,
203,203,203,203,203,203,203,203,203,203,203,203,203,203,203,203,203,66,66,66,66,66,66,66,66,66,66,66,66,66,66,66,66,66,86,86,86,86,86,86,86,86,86,86,86,86,86,86,86,86,86,66,66,66,66,66,66,66,66,66,66,66,66,66,66,66,66,66,86,86,86,86,86,86,86,86,86,86,86,86,86,86,86,86,86,174,174,174,174,174,174,174,174,174,174,174,174,174,174,174,174,174,
203,203,203,203,203,203,203,203,203,203,203,203,203,203,203,203,203,66,66,66,66,66,66,66,66,66,66,66,66,66,66,66,66,66,86,86,86,86,86,86,86,86,86,86,86,86,86,86,86,86,86,66,66,66,66,66,66,66,66,66,66,66,66,66,66,66,66,66,86,86,86,86,86,86,86,86,86,86,86,86,86,86,86,86,86,174,174,174,174,174,174,174,174,174,174,174,174,174,174,174,174,174,
203,203,203,203,203,203,203,203,203,203,203,203,203,203,203,203,203,66,66,66,66,66,66,66,66,66,66,66,66,66,66,66,66,66,86,86,86,86,86,86,86,86,86,86,86,86,86,86,86,86,86,66,66,66,66,66,66,66,66,66,66,66,66,66,66,66,66,66,86,86,86,86,86,86,86,86,86,86,86,86,86,86,86,86,86,174,174,174,174,174,174,174,174,174,174,174,174,174,174,174,174,174,
203,203,203,203,203,203,203,203,203,203,203,203,203,203,203,203,203,66,66,66,66,66,66,66,66,66,66,66,66,66,66,66,66,66,86,86,86,86,86,86,86,86,86,86,86,86,86,86,86,86,86,66,66,66,66,66,66,66,66,66,66,66,66,66,66,66,66,66,86,86,86,86,86,86,86,86,86,86,86,86,86,86,86,86,86,174,174,174,174,174,174,174,174,174,174,174,174,174,174,174,174,174,
203,203,203,203,203,203,203,203,203,203,203,203,203,203,203,203,203,66,66,66,66,66,66,66,66,66,66,66,66,66,66,66,66,66,86,86,86,86,86,86,86,86,86,86,86,86,86,86,86,86,86,66,66,66,66,66,66,66,66,66,66,66,66,66,66,66,66,66,86,86,86,86,86,86,86,86,86,86,86,86,86,86,86,86,86,174,174,174,174,174,174,174,174,174,174,174,174,174,174,174,174,174,
203,203,203,203,203,203,203,203,203,203,203,203,203,203,203,203,203,66,66,66,66,66,66,66,66,66,66,66,66,66,66,66,66,66,86,86,86,86,86,86,86,86,86,86,86,86,86,86,86,86,86,66,66,66,66,66,66,66,66,66,66,66,66,66,66,66,66,66,86,86,86,86,86,86,86,86,86,86,86,86,86,86,86,86,86,174,174,174,174,174,174,174,174,174,174,174,174,174,174,174,174,174,
174,174,174,174,174,174,174,174,174,174,174,174,174,174,174,174,174,86,86,86,86,86,86,86,86,86,86,86,86,86,86,86,86,86,66,66,66,66,66,66,66,66,66,66,66,66,66,66,66,66,66,86,86,86,86,86,86,86,86,86,86,86,86,86,86,86,86,86,66,66,66,66,66,66,66,66,66,66,66,66,66,66,66,66,66,203,203,203,203,203,203,203,203,203,203,203,203,203,203,203,203,203,
174,174,174,174,174,174,174,174,174,174,174,174,174,174,174,174,174,86,86,86,86,86,86,86,86,86,86,86,86,86,86,86,86,86,66,66,66,66,66,66,66,66,66,66,66,66,66,66,66,66,66,86,86,86,86,86,86,86,86,86,86,86,86,86,86,86,86,86,66,66,66,66,66,66,66,66,66,66,66,66,66,66,66,66,66,203,203,203,203,203,203,203,203,203,203,203,203,203,203,203,203,203,
174,174,174,174,174,174,174,174,174,174,174,174,174,174,174,174,174,86,86,86,86,86,86,86,86,86,86,86,86,86,86,86,86,86,66,66,66,66,66,66,66,66,66,66,66,66,66,66,66,66,66,86,86,86,86,86,86,86,86,86,86,86,86,86,86,86,86,86,66,66,66,66,66,66,66,66,66,66,66,66,66,66,66,66,66,203,203,203,203,203,203,203,203,203,203,203,203,203,203,203,203,203,
174,174,174,174,174,174,174,174,174,174,174,174,174,174,174,174,174,86,86,86,86,86,86,86,86,86,86,86,86,86,86,86,86,86,66,66,66,66,66,66,66,66,66,66,66,66,66,66,66,66,66,86,86,86,86,86,86,86,86,86,86,86,86,86,86,86,86,86,66,66,66,66,66,66,66,66,66,66,66,66,66,66,66,66,66,203,203,203,203,203,203,203,203,203,203,203,203,203,203,203,203,203,
174,174,174,174,174,174,174,174,174,174,174,174,174,174,174,174,174,86,86,86,86,86,86,86,86,86,86,86,86,86,86,86,86,86,66,66,66,66,66,66,66,66,66,66,66,66,66,66,66,66,66,86,86,86,86,86,86,86,86,86,86,86,86,86,86,86,86,86,66,66,66,66,66,66,66,66,66,66,66,66,66,66,66,66,66,203,203,203,203,203,203,203,203,203,203,203,203,203,203,203,203,203,
174,174,174,174,174,174,174,174,174,174,174,174,174,174,174,174,174,86,86,86,86,86,86,86,86,86,86,86,86,86,86,86,86,86,66,66,66,66,66,66,66,66,66,66,66,66,66,66,66,66,66,86,86,86,86,86,86,86,86,86,86,86,86,86,86,86,86,86,66,66,66,66,66,66,66,66,66,66,66,66,66,66,66,66,66,203,203,203,203,203,203,203,203,203,203,203,203,203,203,203,203,203,
174,174,174,174,174,174,174,174,174,174,174,174,174,174,174,174,174,86,86,86,86,86,86,86,86,86,86,86,86,86,86,86,86,86,66,66,66,66,66,66,66,66,66,66,66,66,66,66,66,66,66,86,86,86,86,86,86,86,86,86,86,86,86,86,86,86,86,86,66,66,66,66,66,66,66,66,66,66,66,66,66,66,66,66,66,203,203,203,203,203,203,203,203,203,203,203,203,203,203,203,203,203,
203,203,203,203,203,203,203,203,203,203,203,203,203,203,203,203,203,66,66,66,66,66,66,66,66,66,66,66,66,66,66,66,66,66,86,86,86,86,86,86,86,86,86,86,86,86,86,86,86,86,86,66,66,66,66,66,66,66,66,66,66,66,66,66,66,66,66,66,86,86,86,86,86,86,86,86,86,86,86,86,86,86,86,86,86,174,174,174,174,174,174,174,174,174,174,174,174,174,174,174,174,174,
203,203,203,203,203,203,203,203,203,203,203,203,203,203,203,203,203,66,66,66,66,66,66,66,66,66,66,66,66,66,66,66,66,66,86,86,86,86,86,86,86,86,86,86,86,86,86,86,86,86,86,66,66,66,66,66,66,66,66,66,66,66,66,66,66,66,66,66,86,86,86,86,86,86,86,86,86,86,86,86,86,86,86,86,86,174,174,174,174,174,174,174,174,174,174,174,174,174,174,174,174,174,
203,203,203,203,203,203,203,203,203,203,203,203,203,203,203,203,203,66,66,66,66,66,66,66,66,66,66,66,66,66,66,66,66,66,86,86,86,86,86,86,86,86,86,86,86,86,86,86,86,86,86,66,66,66,66,66,66,66,66,66,66,66,66,66,66,66,66,66,86,86,86,86,86,86,86,86,86,86,86,86,86,86,86,86,86,174,174,174,174,174,174,174,174,174,174,174,174,174,174,174,174,174,
203,203,203,203,203,203,203,203,203,203,203,203,203,203,203,203,203,66,66,66,66,66,66,66,66,66,66,66,66,66,66,66,66,66,86,86,86,86,86,86,86,86,86,86,86,86,86,86,86,86,86,66,66,66,66,66,66,66,66,66,66,66,66,66,66,66,66,66,86,86,86,86,86,86,86,86,86,86,86,86,86,86,86,86,86,174,174,174,174,174,174,174,174,174,174,174,174,174,174,174,174,174,
203,203,203,203,203,203,203,203,203,203,203,203,203,203,203,203,203,66,66,66,66,66,66,66,66,66,66,66,66,66,66,66,66,66,86,86,86,86,86,86,86,86,86,86,86,86,86,86,86,86,86,66,66,66,66,66,66,66,66,66,66,66,66,66,66,66,66,66,86,86,86,86,86,86,86,86,86,86,86,86,86,86,86,86,86,174,174,174,174,174,174,174,174,174,174,174,174,174,174,174,174,174,
203,203,203,203,203,203,203,203,203,203,203,203,203,203,203,203,203,66,66,66,66,66,66,66,66,66,66,66,66,66,66,66,66,66,86,86,86,86,86,86,86,86,86,86,86,86,86,86,86,86,86,66,66,66,66,66,66,66,66,66,66,66,66,66,66,66,66,66,86,86,86,86,86,86,86,86,86,86,86,86,86,86,86,86,86,174,174,174,174,174,174,174,174,174,174,174,174,174,174,174,174,174,
203,203,203,203,203,203,203,203,203,203,203,203,203,203,203,203,203,66,66,66,66,66,66,66,66,66,66,66,66,66,66,66,66,66,86,86,86,86,86,86,86,86,86,86,86,86,86,86,86,86,86,66,66,66,66,66,66,66,66,66,66,66,66,66,66,66,66,66,86,86,86,86,86,86,86,86,86,86,86,86,86,86,86,86,86,174,174,174,174,174,174,174,174,174,174,174,174,174,174,174,174,174,
174,174,174,174,174,174,174,174,174,174,174,174,174,174,174,174,174,86,86,86,86,86,86,86,86,86,86,86,86,86,86,86,86,86,66,66,66,66,66,66,66,66,66,66,66,66,66,66,66,66,66,86,86,86,86,86,86,86,86,86,86,86,86,86,86,86,86,86,66,66,66,66,66,66,66,66,66,66,66,66,66,66,66,66,66,203,203,203,203,203,203,203,203,203,203,203,203,203,203,203,203,203,
174,174,174,174,174,174,174,174,174,174,174,174,174,174,174,174,174,86,86,86,86,86,86,86,86,86,86,86,86,86,86,86,86,86,66,66,66,66,66,66,66,66,66,66,66,66,66,66,66,66,66,86,86,86,86,86,86,86,86,86,86,86,86,86,86,86,86,86,66,66,66,66,66,66,66,66,66,66,66,66,66,66,66,66,66,203,203,203,203,203,203,203,203,203,203,203,203,203,203,203,203,203,
174,174,174,174,174,174,174,174,174,174,174,174,174,174,174,174,174,86,86,86,86,86,86,86,86,86,86,86,86,86,86,86,86,86,66,66,66,66,66,66,66,66,66,66,66,66,66,66,66,66,66,86,86,86,86,86,86,86,86,86,86,86,86,86,86,86,86,86,66,66,66,66,66,66,66,66,66,66,66,66,66,66,66,66,66,203,203,203,203,203,203,203,203,203,203,203,203,203,203,203,203,203,
174,174,174,174,174,174,174,174,174,174,174,174,174,174,174,174,174,86,86,86,86,86,86,86,86,86,86,86,86,86,86,86,86,86,66,66,66,66,66,66,66,66,66,66,66,66,66,66,66,66,66,86,86,86,86,86,86,86,86,86,86,86,86,86,86,86,86,86,66,66,66,66,66,66,66,66,66,66,66,66,66,66,66,66,66,203,203,203,203,203,203,203,203,203,203,203,203,203,203,203,203,203,
174,174,174,174,174,174,174,174,174,174,174,174,174,174,174,174,174,86,86,86,86,86,86,86,86,86,86,86,86,86,86,86,86,86,66,66,66,66,66,66,66,66,66,66,66,66,66,66,66,66,66,86,86,86,86,86,86,86,86,86,86,86,86,86,86,86,86,86,66,66,66,66,66,66,66,66,66,66,66,66,66,66,66,66,66,203,203,203,203,203,203,203,203,203,203,203,203,203,203,203,203,203,
174,174,174,174,174,174,174,174,174,174,174,174,174,174,174,174,174,86,86,86,86,86,86,86,86,86,86,86,86,86,86,86,86,86,66,66,66,66,66,66,66,66,66,66,66,66,66,66,66,66,66,86,86,86,86,86,86,86,86,86,86,86,86,86,86,86,86,86,66,66,66,66,66,66,66,66,66,66,66,66,66,66,66,66,66,203,203,203,203,203,203,203,203,203,203,203,203,203,203,203,203,203,
174,174,174,174,174,174,174,174,174,174,174,174,174,174,174,174,174,86,86,86,86,86,86,86,86,86,86,86,86,86,86,86,86,86,66,66,66,66,66,66,66,66,66,66,66,66,66,66,66,66,66,86,86,86,86,86,86,86,86,86,86,86,86,86,86,86,86,86,66,66,66,66,66,66,66,66,66,66,66,66,66,66,66,66,66,203,203,203,203,203,203,203,203,203,203,203,203,203,203,203,203,203,
203,203,203,203,203,203,203,203,203,203,203,203,203,203,203,203,203,174,174,174,174,174,174,174,174,174,174,174,174,174,174,174,174,174,203,203,203,203,203,203,203,203,203,203,203,203,203,203,203,203,203,174,174,174,174,174,174,174,174,174,174,174,174,174,174,174,174,174,203,203,203,203,203,203,203,203,203,203,203,203,203,203,203,203,203,174,174,174,174,174,174,174,174,174,174,174,174,174,174,174,174,174,
203,203,203,203,203,203,203,203,203,203,203,203,203,203,203,203,203,174,174,174,174,174,174,174,174,174,174,174,174,174,174,174,174,174,203,203,203,203,203,203,203,203,203,203,203,203,203,203,203,203,203,174,174,174,174,174,174,174,174,174,174,174,174,174,174,174,174,174,203,203,203,203,203,203,203,203,203,203,203,203,203,203,203,203,203,174,174,174,174,174,174,174,174,174,174,174,174,174,174,174,174,174,
203,203,203,203,203,203,203,203,203,203,203,203,203,203,203,203,203,174,174,174,174,174,174,174,174,174,174,174,174,174,174,174,174,174,203,203,203,203,203,203,203,203,203,203,203,203,203,203,203,203,203,174,174,174,174,174,174,174,174,174,174,174,174,174,174,174,174,174,203,203,203,203,203,203,203,203,203,203,203,203,203,203,203,203,203,174,174,174,174,174,174,174,174,174,174,174,174,174,174,174,174,174,
203,203,203,203,203,203,203,203,203,203,203,203,203,203,203,203,203,174,174,174,174,174,174,174,174,174,174,174,174,174,174,174,174,174,203,203,203,203,203,203,203,203,203,203,203,203,203,203,203,203,203,174,174,174,174,174,174,174,174,174,174,174,174,174,174,174,174,174,203,203,203,203,203,203,203,203,203,203,203,203,203,203,203,203,203,174,174,174,174,174,174,174,174,174,174,174,174,174,174,174,174,174,
203,203,203,203,203,203,203,203,203,203,203,203,203,203,203,203,203,174,174,174,174,174,174,174,174,174,174,174,174,174,174,174,174,174,203,203,203,203,203,203,203,203,203,203,203,203,203,203,203,203,203,174,174,174,174,174,174,174,174,174,174,174,174,174,174,174,174,174,203,203,203,203,203,203,203,203,203,203,203,203,203,203,203,203,203,174,174,174,174,174,174,174,174,174,174,174,174,174,174,174,174,174,
203,203,203,203,203,203,203,203,203,203,203,203,203,203,203,203,203,174,174,174,174,174,174,174,174,174,174,174,174,174,174,174,174,174,203,203,203,203,203,203,203,203,203,203,203,203,203,203,203,203,203,174,174,174,174,174,174,174,174,174,174,174,174,174,174,174,174,174,203,203,203,203,203,203,203,203,203,203,203,203,203,203,203,203,203,174,174,174,174,174,174,174,174,174,174,174,174,174,174,174,174,174,
203,203,203,203,203,203,203,203,203,203,203,203,203,203,203,203,203,174,174,174,174,174,174,174,174,174,174,174,174,174,174,174,174,174,203,203,203,203,203,203,203,203,203,203,203,203,203,203,203,203,203,174,174,174,174,174,174,174,174,174,174,174,174,174,174,174,174,174,203,203,203,203,203,203,203,203,203,203,203,203,203,203,203,203,203,174,174,174,174,174,174,174,174,174,174,174,174,174,174,174,174,174
</data>
 </layer>
</map>
