<?xml version="1.0" encoding="UTF-8"?>
<map version="1.10" tiledversion="1.12.1" orientation="orthogonal" renderorder="right-down" width="30" height="20" tilewidth="40" tileheight="40" infinite="0" nextlayerid="6" nextobjectid="15">
 <editorsettings>
  <export target="room3.lua" format="lua"/>
 </editorsettings>
 <tileset firstgid="1" source="../../../tilesets/floor2/room3.tsx"/>
 <layer id="1" name="Tile Layer 1" width="30" height="20">
  <data encoding="csv">
10,10,10,10,10,10,10,10,10,10,7,7,7,7,7,7,10,10,10,10,10,10,10,10,10,10,10,10,10,10,
10,10,10,10,10,10,10,10,10,10,7,7,7,7,7,3,10,10,10,10,10,10,10,10,10,10,10,10,10,10,
10,10,10,10,10,10,10,10,10,10,7,3,7,7,7,7,10,10,10,10,10,10,10,10,10,10,10,10,10,10,
10,10,10,10,10,10,10,10,10,10,7,7,7,7,3,7,10,10,10,10,10,10,10,10,10,10,10,10,10,10,
10,10,10,10,10,10,10,10,10,10,3,7,7,1,7,1,10,10,10,10,10,10,10,10,10,10,10,10,10,10,
10,10,10,10,10,10,10,10,10,10,1,7,1,1,1,1,10,10,10,10,10,10,10,10,10,10,10,10,10,10,
10,10,10,10,10,10,10,10,10,10,1,1,1,1,9,1,10,10,10,10,10,10,10,10,10,10,10,10,10,10,
10,10,10,10,10,10,10,10,10,10,7,9,1,1,1,1,10,10,10,10,10,10,10,10,10,10,10,10,10,10,
1,1,1,1,1,1,1,1,1,9,1,1,7,1,1,1,1,1,1,1,1,1,1,1,1,9,1,1,1,1,
1,1,1,1,1,9,1,1,1,1,1,1,1,1,1,1,1,1,1,1,1,9,1,1,1,1,1,1,1,1,
1,1,9,1,1,1,1,1,1,1,1,1,1,1,1,1,1,1,1,1,1,1,1,1,1,1,1,9,1,1,
1,1,1,1,1,1,1,1,1,1,1,1,9,1,1,1,1,9,1,1,1,1,1,1,1,1,1,1,1,1,
1,1,1,1,1,1,9,1,1,1,1,1,1,1,1,1,1,1,1,1,1,1,1,9,1,1,1,1,1,1,
10,10,10,10,10,10,10,10,10,10,1,1,1,1,9,1,10,10,10,10,10,10,10,10,10,10,10,10,10,10,
10,10,10,10,10,10,10,10,10,10,9,1,1,1,1,1,10,10,10,10,10,10,10,10,10,10,10,10,10,10,
10,10,10,10,10,10,10,10,10,10,1,1,1,1,1,1,10,10,10,10,10,10,10,10,10,10,10,10,10,10,
10,10,10,10,10,10,10,10,10,10,1,1,1,1,1,1,10,10,10,10,10,10,10,10,10,10,10,10,10,10,
10,10,10,10,10,10,10,10,10,10,1,9,1,1,1,1,10,10,10,10,10,10,10,10,10,10,10,10,10,10,
10,10,10,10,10,10,10,10,10,10,1,1,1,1,9,1,10,10,10,10,10,10,10,10,10,10,10,10,10,10,
10,10,10,10,10,10,10,10,10,10,1,1,1,1,1,1,10,10,10,10,10,10,10,10,10,10,10,10,10,10
</data>
 </layer>
 <objectgroup color="#ff00ff" id="2" name="objects">
  <object id="8" name="transition" x="400" y="800" width="240" height="40">
   <properties>
    <property name="map" value="floor2/jam/main"/>
    <property name="marker" value="room3"/>
   </properties>
  </object>
  <object id="9" name="transition" x="1200" y="320" width="40" height="200">
   <properties>
    <property name="map" value="floor2/jam/room3_right"/>
    <property name="marker" value="room3"/>
   </properties>
  </object>
  <object id="10" name="interactable" x="-40" y="320" width="40" height="200">
   <properties>
    <property name="solid" type="bool" value="true"/>
    <property name="text1" value="* (You feel like this path should lead somewhere...)"/>
    <property name="text2" value="* (but its only a wall...)"/>
   </properties>
  </object>
  <object id="11" name="transition" x="400" y="-40" width="240" height="40">
   <properties>
    <property name="map" value="floor2/jam/room3_beforeboss"/>
    <property name="marker" value="room3"/>
   </properties>
  </object>
 </objectgroup>
 <objectgroup color="#0000ff" id="3" name="collision">
  <object id="1" x="640" y="520" width="560" height="280"/>
  <object id="2" x="640" y="0" width="560" height="320"/>
  <object id="3" x="0" y="0" width="400" height="320"/>
  <object id="7" x="0" y="520" width="400" height="280"/>
 </objectgroup>
 <objectgroup color="#7f00ff" id="4" name="markers">
  <object id="12" name="entrance" x="520" y="760">
   <point/>
  </object>
  <object id="13" name="right" x="1162.67" y="414.667">
   <point/>
  </object>
  <object id="14" name="boss" x="520" y="40">
   <point/>
  </object>
 </objectgroup>
</map>
