<?xml version="1.0" encoding="UTF-8"?>
<map version="1.10" tiledversion="1.12.1" orientation="orthogonal" renderorder="right-down" width="32" height="20" tilewidth="40" tileheight="40" infinite="0" nextlayerid="5" nextobjectid="8">
 <editorsettings>
  <export target="room3_beforeboss.lua" format="lua"/>
 </editorsettings>
 <tileset firstgid="1" source="../../../tilesets/floor2/room3.tsx"/>
 <layer id="1" name="Tile Layer 1" width="32" height="20">
  <data encoding="csv">
5,5,5,5,5,5,5,5,5,5,2,2,2,2,2,2,5,5,5,5,5,5,5,5,5,5,5,5,5,5,5,5,
5,5,5,5,5,5,5,5,5,5,2,2,2,2,2,2,5,5,5,5,5,5,5,5,5,5,5,5,5,5,5,5,
5,5,5,5,5,5,5,5,5,5,2,2,2,2,2,2,5,5,5,5,5,5,5,5,5,5,5,5,5,5,5,5,
5,5,5,5,5,5,5,5,5,5,2,7,2,7,7,2,5,5,5,5,5,5,5,5,5,5,5,5,5,5,5,5,
10,10,10,10,10,10,10,10,10,10,7,7,7,2,7,7,10,10,10,10,10,10,10,10,10,10,10,10,10,10,10,10,
10,10,10,10,10,10,10,10,10,10,7,7,7,7,7,7,10,10,10,10,10,10,10,10,10,10,10,10,10,10,10,10,
10,10,10,10,10,10,10,10,10,10,7,2,7,7,7,2,10,10,10,10,10,10,10,10,10,10,10,10,10,10,10,10,
10,10,10,10,10,10,10,10,10,10,7,7,7,7,7,7,10,10,10,10,10,10,10,10,10,10,10,10,10,10,10,10,
10,10,10,10,10,10,10,10,10,10,7,7,7,7,7,7,10,10,10,10,10,10,10,10,10,10,10,10,10,10,10,10,
10,10,10,10,10,10,10,10,10,10,7,7,7,7,7,7,10,10,10,10,10,10,10,10,10,10,10,10,10,10,10,10,
10,10,10,10,10,10,10,10,10,10,7,7,7,7,7,7,10,10,10,10,10,10,10,10,10,10,10,10,10,10,10,10,
10,10,10,10,10,10,10,10,10,10,7,7,7,7,7,7,10,10,10,10,10,10,10,10,10,10,10,10,10,10,10,10,
10,10,10,10,10,10,10,10,10,10,7,7,7,7,7,7,10,10,10,10,10,10,10,10,10,10,10,10,10,10,10,10,
10,10,10,10,10,10,10,10,10,10,7,7,7,7,7,7,10,10,10,10,10,10,10,10,10,10,10,10,10,10,10,10,
10,10,10,10,10,10,10,10,10,10,7,7,7,7,7,7,10,10,10,10,10,10,10,10,10,10,10,10,10,10,10,10,
10,10,10,10,10,10,10,10,10,10,7,7,7,7,7,7,10,10,10,10,10,10,10,10,10,10,10,10,10,10,10,10,
10,10,10,10,10,10,10,10,10,10,7,7,7,7,7,7,10,10,10,10,10,10,10,10,10,10,10,10,10,10,10,10,
10,10,10,10,10,10,10,10,10,10,7,7,7,7,7,7,10,10,10,10,10,10,10,10,10,10,10,10,10,10,10,10,
10,10,10,10,10,10,10,10,10,10,7,7,7,7,7,7,10,10,10,10,10,10,10,10,10,10,10,10,10,10,10,10,
10,10,10,10,10,10,10,10,10,10,7,7,7,7,7,7,10,10,10,10,10,10,10,10,10,10,10,10,10,10,10,10
</data>
 </layer>
 <objectgroup color="#ff00ff" id="2" name="objects">
  <object id="1" name="transition" x="400" y="800" width="240" height="40">
   <properties>
    <property name="map" value="floor2/jam/room3"/>
    <property name="marker" value="boss"/>
   </properties>
  </object>
  <object id="4" name="script" x="400" y="680" width="240" height="40">
   <properties>
    <property name="cutscene" value="room3.empty"/>
   </properties>
  </object>
  <object id="7" name="transition" x="400" y="-40" width="240" height="40">
   <properties>
    <property name="map" value="floor2/jam/room3_boss"/>
    <property name="marker" value="entry"/>
   </properties>
  </object>
 </objectgroup>
 <objectgroup color="#7f00ff" id="3" name="markers">
  <object id="5" name="room3" x="520" y="760">
   <point/>
  </object>
  <object id="6" name="boss" x="520" y="80">
   <point/>
  </object>
 </objectgroup>
 <objectgroup color="#0000ff" id="4" name="collision">
  <object id="2" x="640" y="0" width="640" height="800"/>
  <object id="3" x="0" y="0" width="400" height="800"/>
 </objectgroup>
</map>
