<?xml version="1.0" encoding="UTF-8"?>
<map version="1.10" tiledversion="1.12.1" orientation="orthogonal" renderorder="right-down" width="32" height="20" tilewidth="40" tileheight="40" infinite="0" nextlayerid="6" nextobjectid="96">
 <editorsettings>
  <export target="room3_right.lua" format="lua"/>
 </editorsettings>
 <tileset firstgid="1" source="../../../tilesets/floor2/room3.tsx"/>
 <layer id="1" name="Tile Layer 1" width="32" height="20">
  <data encoding="csv">
10,10,10,10,10,10,10,10,10,10,0,0,0,0,0,0,0,0,0,0,0,0,0,0,0,0,0,0,0,0,0,0,
10,10,10,10,10,10,10,10,10,10,0,0,0,0,0,0,0,4,0,4,0,0,4,4,4,0,0,0,0,0,0,0,
10,10,10,10,10,10,10,10,10,10,0,0,0,0,0,0,0,0,0,0,0,0,0,0,0,0,0,0,0,0,0,0,
10,10,10,10,10,10,10,10,10,10,0,0,0,0,0,0,0,4,0,0,4,0,0,0,0,0,0,0,0,0,0,0,
10,10,10,10,10,10,10,10,10,10,0,0,0,0,0,0,0,0,0,0,4,0,0,0,4,0,0,0,0,0,0,0,
10,10,10,10,10,10,10,10,10,10,0,0,0,0,0,0,0,0,0,0,4,0,0,0,0,0,0,0,0,0,0,0,
10,10,10,10,10,10,10,10,10,10,0,0,4,0,4,4,0,0,0,0,0,0,0,0,0,0,0,0,0,0,0,0,
10,10,10,10,10,10,10,10,10,10,0,0,0,0,0,4,0,0,4,4,4,0,0,0,4,0,0,5,5,5,5,5,
1,1,1,1,1,1,1,1,1,9,0,0,4,0,0,0,0,0,0,0,0,0,0,0,0,0,5,2,2,2,2,2,
1,1,1,1,1,9,1,1,1,1,0,0,0,0,0,0,0,0,0,0,0,0,0,0,0,0,5,2,2,2,2,2,
1,1,9,1,1,1,1,1,1,1,4,4,4,0,0,0,0,0,0,0,0,0,0,0,4,4,4,2,2,2,2,2,
1,1,1,1,1,1,1,1,1,1,0,4,0,0,0,0,0,0,0,0,0,0,0,0,0,0,5,2,2,2,2,2,
1,1,1,1,1,1,9,1,1,1,0,4,0,4,4,4,4,4,4,4,4,4,4,4,0,0,5,2,2,2,2,2,
10,10,10,10,10,10,10,10,10,10,0,0,0,0,0,0,0,0,0,0,0,0,0,0,0,0,0,5,5,5,5,5,
10,10,10,10,10,10,10,10,10,10,0,0,0,0,0,0,0,0,0,0,0,0,0,0,0,0,0,0,0,0,0,0,
10,10,10,10,10,10,10,10,10,10,0,0,0,0,0,0,0,0,0,0,0,0,0,0,0,0,0,0,0,0,0,0,
10,10,10,10,10,10,10,10,10,10,0,0,0,0,0,0,0,0,0,0,0,0,0,0,0,0,0,0,0,0,0,0,
10,10,10,10,10,10,10,10,10,10,0,0,0,0,0,0,0,0,0,0,0,0,0,0,0,0,0,0,0,0,0,0,
10,10,10,10,10,10,10,10,10,10,0,0,0,0,0,0,0,0,0,0,0,0,0,0,0,0,0,0,0,0,0,0,
10,10,10,10,10,10,10,10,10,10,0,0,0,0,0,0,0,0,0,0,0,0,0,0,0,0,0,0,0,0,0,0
</data>
 </layer>
 <objectgroup color="#00ffff" id="5" name="climbing">
  <object id="71" x="400" y="400" width="120" height="40"/>
  <object id="72" x="440" y="440" width="40" height="80"/>
  <object id="73" x="520" y="480" width="440" height="40"/>
  <object id="74" x="480" y="320" width="40" height="40"/>
  <object id="75" x="480" y="240" width="40" height="40"/>
  <object id="76" x="560" y="240" width="80" height="40"/>
  <object id="77" x="600" y="280" width="40" height="40"/>
  <object id="78" x="720" y="280" width="120" height="40"/>
  <object id="79" x="800" y="120" width="40" height="120"/>
  <object id="80" x="680" y="120" width="40" height="40"/>
  <object id="81" x="680" y="40" width="40" height="40"/>
  <object id="82" x="760" y="40" width="40" height="40"/>
  <object id="83" x="880" y="40" width="120" height="40"/>
  <object id="84" x="960" y="160" width="40" height="40"/>
  <object id="85" x="960" y="280" width="40" height="40"/>
  <object id="86" x="960" y="400" width="120" height="40"/>
 </objectgroup>
 <objectgroup color="#ff00ff" id="2" name="objects">
  <object id="4" name="transition" x="-40" y="320" width="40" height="200">
   <properties>
    <property name="map" value="floor2/jam/room3"/>
    <property name="marker" value="right"/>
   </properties>
  </object>
  <object id="41" name="climbentry" x="360" y="400" width="40" height="40">
   <properties>
    <property name="target" type="object" value="54"/>
   </properties>
  </object>
  <object id="54" name="climbexit" x="400.333" y="399.667" width="40" height="40">
   <properties>
    <property name="target" type="object" value="88"/>
   </properties>
  </object>
  <object id="91" name="dogconegroup" x="200" y="440" width="40" height="40">
   <properties>
    <property name="default_state" type="bool" value="true"/>
   </properties>
  </object>
  <object id="92" name="dogconegroup" x="200" y="480" width="40" height="40">
   <properties>
    <property name="default_state" type="bool" value="true"/>
   </properties>
  </object>
  <object id="93" name="dogconegroup" x="200" y="400" width="40" height="40">
   <properties>
    <property name="default_state" type="bool" value="true"/>
   </properties>
  </object>
  <object id="94" name="dogconegroup" x="200" y="360" width="40" height="40">
   <properties>
    <property name="default_state" type="bool" value="true"/>
   </properties>
  </object>
  <object id="95" name="dogconegroup" x="200" y="320" width="40" height="40">
   <properties>
    <property name="default_state" type="bool" value="true"/>
   </properties>
  </object>
 </objectgroup>
 <objectgroup color="#7f00ff" id="3" name="markers">
  <object id="3" name="room3" x="44" y="421.333">
   <point/>
  </object>
  <object id="52" name="chest" x="1240" y="400">
   <properties>
    <property name="item" value="revivemint"/>
   </properties>
   <point/>
  </object>
  <object id="88" x="340" y="420">
   <point/>
  </object>
 </objectgroup>
 <objectgroup color="#0000ff" id="4" name="collision">
  <object id="1" x="0" y="0" width="400" height="320"/>
  <object id="2" x="0" y="520" width="400" height="280"/>
  <object id="48" x="400" y="440" width="40" height="80"/>
  <object id="49" x="1040" y="320" width="40" height="200"/>
  <object id="50" x="1080" y="280" width="200" height="40"/>
  <object id="51" x="1080" y="520" width="200" height="40"/>
  <object id="87" x="400" y="320" width="40" height="80"/>
 </objectgroup>
</map>
