<?xml version="1.0" encoding="UTF-8"?>
<map version="1.11" tiledversion="1.12.1" orientation="orthogonal" renderorder="right-down" width="38" height="32" tilewidth="40" tileheight="40" infinite="0" nextlayerid="42" nextobjectid="454">
 <editorsettings>
  <export target="data.lua" format="lua"/>
 </editorsettings>
 <properties>
  <property name="border" value="leaves"/>
  <property name="light" type="bool" value="true"/>
  <property name="music" value="hometown"/>
 </properties>
 <tileset firstgid="1" source="../../../../tilesets/hometown.tsx"/>
 <tileset firstgid="287" source="../../../../tilesets/hometownobjects.tsx"/>
 <tileset firstgid="492" source="../../../../tilesets/hometownshadows.tsx"/>
 <tileset firstgid="520" source="../../../../tilesets/hometownshadowsobjects.tsx"/>
 <tileset firstgid="600" source="../../../../tilesets/hometowneveningtreeobjects.tsx"/>
 <tileset firstgid="643" source="../../../../tilesets/hometownbuildingshadowsobjects.tsx"/>
 <group id="6" name="main">
  <layer id="1" name="tile" width="38" height="32">
   <data encoding="csv">
57,57,57,57,57,57,57,57,57,57,57,57,57,57,57,57,57,57,61,15,13,13,13,17,59,57,57,57,57,57,57,57,57,57,57,57,57,57,
57,57,57,57,57,57,57,57,57,57,57,57,57,57,57,57,57,57,61,15,13,24,13,17,59,57,57,57,57,57,57,57,57,57,57,57,57,57,
57,57,57,57,57,57,57,57,57,57,57,57,57,57,57,57,57,57,61,15,13,13,13,17,59,57,57,57,57,57,57,57,57,57,57,57,57,57,
57,57,57,57,57,57,57,57,57,57,57,57,57,57,57,57,57,57,61,15,13,24,13,17,59,57,57,57,57,57,57,57,57,57,57,57,57,57,
57,57,57,57,57,57,57,57,57,57,57,57,57,57,57,57,57,57,61,15,13,13,13,17,59,57,57,57,57,57,57,57,57,57,57,57,57,57,
57,57,57,57,57,57,57,57,57,57,57,57,57,57,57,57,57,57,61,15,13,24,13,17,59,57,57,57,57,57,57,57,57,57,57,57,57,57,
57,57,57,57,57,57,57,57,57,57,57,57,57,57,57,57,57,57,61,15,13,13,13,17,59,57,57,57,57,57,57,57,57,57,57,57,57,57,
57,57,57,57,57,57,57,57,57,57,57,57,57,57,57,57,57,57,61,15,13,24,13,17,59,57,57,57,57,57,57,57,57,57,57,57,57,57,
57,57,57,57,57,57,57,57,57,57,57,60,60,60,60,60,60,60,61,15,13,13,13,17,70,71,71,71,71,71,71,71,71,71,60,57,57,57,
57,57,57,57,57,57,57,57,57,57,57,71,71,71,71,71,71,71,72,15,13,24,13,13,27,27,27,27,27,27,27,27,27,57,59,57,57,57,
57,57,57,57,57,57,57,57,57,57,57,57,57,57,57,57,57,57,57,15,13,13,13,13,13,13,13,13,13,13,13,13,13,17,59,57,57,57,
57,57,57,57,57,57,57,57,57,57,57,57,57,57,57,57,57,57,57,15,13,24,13,25,13,25,13,25,13,25,13,25,13,17,59,57,57,57,
57,57,57,57,57,57,57,57,57,57,57,57,57,57,57,57,57,57,57,15,13,13,13,13,13,13,13,13,13,13,13,13,13,17,59,57,57,57,
57,57,57,57,57,57,57,57,57,57,57,57,57,57,57,57,57,57,57,15,13,24,13,13,27,27,27,27,27,27,27,27,27,57,59,57,57,57,
57,57,57,57,57,57,57,57,57,57,57,57,57,57,57,57,57,57,57,15,13,13,13,17,48,49,49,49,49,49,49,49,49,49,60,57,57,57,
57,57,57,57,57,57,57,57,57,57,57,57,57,57,57,57,57,57,57,15,13,24,13,17,59,60,41,60,60,60,60,60,60,60,60,57,57,57,
57,57,57,57,57,57,57,57,57,57,57,68,68,68,68,68,68,68,68,15,13,13,13,17,59,60,60,60,60,60,60,60,60,60,60,57,57,57,
57,57,57,57,57,57,57,57,57,57,57,60,60,60,60,60,60,60,61,57,27,27,27,57,59,60,57,57,57,57,57,57,57,57,57,57,57,57,
0,0,0,0,0,0,0,0,0,0,0,0,60,40,60,60,60,60,60,49,49,49,49,49,60,60,57,57,57,57,57,57,57,57,57,57,57,57,
0,0,0,0,0,0,0,0,0,0,0,0,60,60,60,60,40,60,60,60,60,60,60,60,41,60,57,57,57,57,57,57,57,57,57,57,57,57,
57,57,57,57,57,57,57,57,57,57,57,60,60,60,60,60,60,60,60,60,60,60,60,60,60,60,57,57,57,57,57,57,57,57,57,57,57,57,
57,57,57,57,57,57,57,57,57,57,57,60,60,60,60,60,60,60,60,60,60,60,60,60,60,60,57,57,57,57,57,57,57,57,57,57,57,57,
57,57,57,57,57,57,57,57,57,57,57,60,60,60,60,60,60,60,60,60,60,60,40,60,60,60,57,57,57,57,57,57,57,57,57,57,57,57,
57,57,57,57,57,57,57,57,57,57,57,57,57,57,57,57,57,57,57,57,57,57,57,57,57,57,57,57,57,57,57,57,57,57,57,57,57,57,
57,57,57,57,57,57,57,57,57,57,57,57,57,57,57,57,57,57,57,57,57,57,57,57,57,57,57,57,57,57,57,57,57,57,57,57,57,57,
57,57,57,57,57,57,57,57,57,57,57,57,57,57,57,57,57,57,57,57,57,43,57,57,57,57,57,57,57,57,57,57,57,57,57,57,57,57,
57,57,57,57,57,57,57,57,57,57,57,57,57,57,57,57,57,57,57,57,57,57,57,57,57,57,57,57,57,57,57,57,57,57,57,57,57,57,
57,57,57,57,57,57,57,57,57,57,57,57,57,57,57,57,57,57,57,57,57,57,43,57,57,57,57,57,57,57,57,57,57,57,57,57,57,57,
57,57,57,57,57,57,57,57,57,57,57,57,57,57,57,57,57,57,57,57,57,57,57,57,57,57,57,57,57,57,57,57,57,57,57,57,57,57,
57,57,57,57,57,57,57,57,57,57,57,57,57,57,57,57,57,57,57,57,57,57,57,57,57,57,57,57,57,57,57,57,57,57,57,57,57,57,
57,57,57,57,57,57,57,57,57,57,57,57,57,57,57,57,57,57,57,57,57,43,57,57,57,57,57,57,57,57,57,57,57,57,57,57,57,57,
57,57,57,57,57,57,57,57,57,57,57,57,57,57,57,57,57,57,57,57,57,43,57,57,57,57,57,57,57,57,57,57,57,57,57,57,57,57
</data>
  </layer>
  <layer id="4" name="shadow" width="38" height="32" offsetx="0" offsety="12">
   <data encoding="csv">
0,0,0,0,0,0,0,0,0,0,0,0,0,0,0,0,0,0,0,0,0,0,0,0,0,0,0,0,0,0,0,0,0,0,0,0,0,0,
0,0,0,0,0,0,0,0,0,0,0,0,0,0,0,0,0,0,0,0,0,0,0,0,0,0,0,0,0,0,0,0,0,0,0,0,0,0,
0,0,0,0,0,0,0,0,0,0,0,0,0,0,0,0,0,0,0,0,0,0,0,0,0,0,0,0,0,0,0,0,0,0,0,0,0,0,
0,0,0,0,0,0,0,0,0,0,0,0,0,0,0,0,0,0,0,0,0,0,0,0,0,0,0,0,0,0,0,0,0,0,0,0,0,0,
0,0,0,0,0,0,0,0,0,0,0,0,0,0,0,0,0,0,0,0,0,0,0,0,0,0,0,0,0,0,0,0,0,0,0,0,0,0,
0,0,0,0,0,0,0,0,0,0,0,0,0,0,0,0,0,0,0,0,0,0,0,0,0,0,0,0,0,0,0,0,0,0,0,0,0,0,
0,0,0,0,0,0,0,0,0,0,0,0,0,0,0,0,0,0,0,0,0,0,0,0,0,0,0,0,0,0,0,0,0,0,0,0,0,0,
0,0,0,0,0,0,0,0,0,0,0,0,0,0,0,0,0,0,0,0,0,0,0,0,0,68,68,68,68,68,68,68,68,68,68,0,0,0,
0,0,0,0,0,0,0,0,0,0,0,0,0,0,0,0,0,0,0,0,0,0,0,0,0,0,0,0,0,0,0,0,0,0,0,0,0,0,
0,0,0,0,0,0,0,0,0,0,0,0,0,0,0,0,0,0,0,0,0,0,0,0,0,0,0,0,0,0,0,0,0,0,0,0,0,0,
0,0,0,0,0,0,0,0,0,0,0,0,0,0,0,0,0,0,0,0,0,0,0,0,0,0,0,0,0,0,0,0,0,0,0,0,0,0,
0,0,0,0,0,0,0,0,0,0,0,0,0,0,0,0,0,0,0,0,0,0,0,0,0,0,0,0,0,0,0,0,0,0,0,0,0,0,
0,0,0,0,0,0,0,0,0,0,0,0,0,0,0,0,0,0,0,0,0,0,0,0,0,0,0,0,0,0,0,0,0,0,0,0,0,0,
0,0,0,0,0,0,0,0,0,0,0,0,0,0,0,0,0,0,0,0,0,0,0,0,0,0,0,0,0,0,0,0,0,0,0,0,0,0,
0,0,0,0,0,0,0,0,0,0,0,0,0,0,0,0,0,0,0,0,0,0,0,0,0,0,0,0,0,0,0,0,0,0,0,0,0,0,
0,0,0,0,0,0,0,0,0,0,0,0,0,0,0,0,0,0,0,0,0,0,0,0,0,0,0,0,0,0,0,0,0,0,0,0,0,0,
0,0,0,0,0,0,0,0,0,0,0,0,0,0,0,0,0,0,0,0,0,0,0,0,0,0,0,0,0,0,0,0,0,0,0,0,0,0,
0,0,0,0,0,0,0,0,0,0,0,0,0,0,0,0,0,0,0,0,0,0,0,0,0,0,0,0,0,0,0,0,0,0,0,0,0,0,
0,0,0,0,0,0,0,0,0,0,0,0,0,0,0,0,0,0,0,0,0,0,0,0,0,0,0,0,0,0,0,0,0,0,0,0,0,0,
0,0,0,0,0,0,0,0,0,0,0,0,0,0,0,0,0,0,0,0,0,0,0,0,0,0,0,0,0,0,0,0,0,0,0,0,0,0,
0,0,0,0,0,0,0,0,0,0,0,0,0,0,0,0,0,0,0,0,0,0,0,0,0,0,0,0,0,0,0,0,0,0,0,0,0,0,
0,0,0,0,0,0,0,0,0,0,0,0,0,0,0,0,0,0,0,0,0,0,0,0,0,0,0,0,0,0,0,0,0,0,0,0,0,0,
0,0,0,0,0,0,0,0,0,0,0,0,0,0,0,0,0,0,0,0,0,0,0,0,0,0,0,0,0,0,0,0,0,0,0,0,0,0,
0,0,0,0,0,0,0,0,0,0,0,0,0,0,0,0,0,0,0,0,0,0,0,0,0,0,0,0,0,0,0,0,0,0,0,0,0,0,
0,0,0,0,0,0,0,0,0,0,0,0,0,0,0,0,0,0,0,0,0,0,0,0,0,0,0,0,0,0,0,0,0,0,0,0,0,0,
0,0,0,0,0,0,0,0,0,0,0,0,0,0,0,0,0,0,0,0,0,0,0,0,0,0,0,0,0,0,0,0,0,0,0,0,0,0,
0,0,0,0,0,0,0,0,0,0,0,0,0,0,0,0,0,0,0,0,0,0,0,0,0,0,0,0,0,0,0,0,0,0,0,0,0,0,
0,0,0,0,0,0,0,0,0,0,0,0,0,0,0,0,0,0,0,0,0,0,0,0,0,0,0,0,0,0,0,0,0,0,0,0,0,0,
0,0,0,0,0,0,0,0,0,0,0,0,0,0,0,0,0,0,0,0,0,0,0,0,0,0,0,0,0,0,0,0,0,0,0,0,0,0,
0,0,0,0,0,0,0,0,0,0,0,0,0,0,0,0,0,0,0,0,0,0,0,0,0,0,0,0,0,0,0,0,0,0,0,0,0,0,
0,0,0,0,0,0,0,0,0,0,0,0,0,0,0,0,0,0,0,0,0,0,0,0,0,0,0,0,0,0,0,0,0,0,0,0,0,0,
0,0,0,0,0,0,0,0,0,0,0,0,0,0,0,0,0,0,0,0,0,0,0,0,0,0,0,0,0,0,0,0,0,0,0,0,0,0
</data>
  </layer>
  <layer id="5" name="shadow2" width="38" height="32" offsetx="0" offsety="-20">
   <data encoding="csv">
0,0,0,0,0,0,0,0,0,0,0,0,0,0,0,0,0,0,0,0,0,0,0,0,0,0,0,0,0,0,0,0,0,0,0,0,0,0,
0,0,0,0,0,0,0,0,0,0,0,0,0,0,0,0,0,0,0,0,0,0,0,0,0,0,0,0,0,0,0,0,0,0,0,0,0,0,
0,0,0,0,0,0,0,0,0,0,0,0,0,0,0,0,0,0,0,0,0,0,0,0,0,0,0,0,0,0,0,0,0,0,0,0,0,0,
0,0,0,0,0,0,0,0,0,0,0,0,0,0,0,0,0,0,0,0,0,0,0,0,0,0,0,0,0,0,0,0,0,0,0,0,0,0,
0,0,0,0,0,0,0,0,0,0,0,0,0,0,0,0,0,0,0,0,0,0,0,0,0,0,0,0,0,0,0,0,0,0,0,0,0,0,
0,0,0,0,0,0,0,0,0,0,0,0,0,0,0,0,0,0,0,0,0,0,0,0,0,0,0,0,0,0,0,0,0,0,0,0,0,0,
0,0,0,0,0,0,0,0,0,0,0,0,0,0,0,0,0,0,0,0,0,0,0,0,0,0,0,0,0,0,0,0,0,0,0,0,0,0,
0,0,0,0,0,0,0,0,0,0,0,0,0,0,0,0,0,0,0,0,0,0,0,0,0,0,0,0,0,0,0,0,0,0,0,0,0,0,
0,0,0,0,0,0,0,0,0,0,0,68,68,68,68,68,68,68,0,0,0,0,0,0,0,0,0,0,0,0,0,0,0,0,0,0,0,0,
0,0,0,0,0,0,0,0,0,0,0,0,0,0,0,0,0,0,0,0,0,0,0,0,0,0,0,0,0,0,0,0,0,0,0,0,0,0,
0,0,0,0,0,0,0,0,0,0,0,0,0,0,0,0,0,0,0,0,0,0,0,0,0,0,0,0,0,0,0,0,0,0,0,0,0,0,
0,0,0,0,0,0,0,0,0,0,0,0,0,0,0,0,0,0,0,0,0,0,0,0,0,0,0,0,0,0,0,0,0,0,0,0,0,0,
0,0,0,0,0,0,0,0,0,0,0,0,0,0,0,0,0,0,0,0,0,0,0,0,0,0,0,0,0,0,0,0,0,0,0,0,0,0,
0,0,0,0,0,0,0,0,0,0,0,0,0,0,0,0,0,0,0,0,0,0,0,0,0,0,0,0,0,0,0,0,0,0,0,0,0,0,
0,0,0,0,0,0,0,0,0,0,0,0,0,0,0,0,0,0,0,0,0,0,0,0,0,0,0,0,0,0,0,0,0,0,0,0,0,0,
0,0,0,0,0,0,0,0,0,0,0,0,0,0,0,0,0,0,0,0,0,0,0,0,0,0,0,0,0,0,0,0,0,0,0,0,0,0,
0,0,0,0,0,0,0,0,0,0,0,0,0,0,0,0,0,0,0,0,0,0,0,0,0,0,0,0,0,0,0,0,0,0,0,0,0,0,
0,0,0,0,0,0,0,0,0,0,0,0,0,0,0,0,0,0,0,0,0,0,0,0,0,0,0,0,0,0,0,0,0,0,0,0,0,0,
0,0,0,0,0,0,0,0,0,0,0,0,0,0,0,0,0,0,0,0,0,0,0,0,0,0,0,0,0,0,0,0,0,0,0,0,0,0,
0,0,0,0,0,0,0,0,0,0,0,0,0,0,0,0,0,0,0,0,0,0,0,0,0,0,0,0,0,0,0,0,0,0,0,0,0,0,
0,0,0,0,0,0,0,0,0,0,0,0,0,0,0,0,0,0,0,0,0,0,0,0,0,0,0,0,0,0,0,0,0,0,0,0,0,0,
0,0,0,0,0,0,0,0,0,0,0,0,0,0,0,0,0,0,0,0,0,0,0,0,0,0,0,0,0,0,0,0,0,0,0,0,0,0,
0,0,0,0,0,0,0,0,0,0,0,0,0,0,0,0,0,0,0,0,0,0,0,0,0,0,0,0,0,0,0,0,0,0,0,0,0,0,
0,0,0,0,0,0,0,0,0,0,0,0,0,0,0,0,0,0,0,0,0,0,0,0,0,0,0,0,0,0,0,0,0,0,0,0,0,0,
0,0,0,0,0,0,0,0,0,0,0,0,0,0,0,0,0,0,0,0,0,0,0,0,0,0,0,0,0,0,0,0,0,0,0,0,0,0,
0,0,0,0,0,0,0,0,0,0,0,0,0,0,0,0,0,0,0,0,0,0,0,0,0,0,0,0,0,0,0,0,0,0,0,0,0,0,
0,0,0,0,0,0,0,0,0,0,0,0,0,0,0,0,0,0,0,0,0,0,0,0,0,0,0,0,0,0,0,0,0,0,0,0,0,0,
0,0,0,0,0,0,0,0,0,0,0,0,0,0,0,0,0,0,0,0,0,0,0,0,0,0,0,0,0,0,0,0,0,0,0,0,0,0,
0,0,0,0,0,0,0,0,0,0,0,0,0,0,0,0,0,0,0,0,0,0,0,0,0,0,0,0,0,0,0,0,0,0,0,0,0,0,
0,0,0,0,0,0,0,0,0,0,0,0,0,0,0,0,0,0,0,0,0,0,0,0,0,0,0,0,0,0,0,0,0,0,0,0,0,0,
0,0,0,0,0,0,0,0,0,0,0,0,0,0,0,0,0,0,0,0,0,0,0,0,0,0,0,0,0,0,0,0,0,0,0,0,0,0,
0,0,0,0,0,0,0,0,0,0,0,0,0,0,0,0,0,0,0,0,0,0,0,0,0,0,0,0,0,0,0,0,0,0,0,0,0,0
</data>
  </layer>
  <layer id="3" name="tile2" width="38" height="32">
   <data encoding="csv">
0,0,0,0,0,0,0,0,0,0,0,0,0,0,0,0,0,0,69,0,0,0,0,0,0,0,0,0,0,0,0,0,0,0,0,0,0,0,
0,0,0,0,0,0,0,0,0,0,0,0,0,0,0,0,0,0,69,0,0,0,0,0,0,0,0,0,0,0,0,0,0,0,0,0,0,0,
0,0,0,0,0,0,0,0,0,0,0,0,0,0,0,0,0,0,69,0,0,0,0,0,0,0,0,0,0,0,0,0,0,0,0,173,0,0,
0,0,0,0,0,0,0,0,0,0,0,0,0,0,0,0,0,0,69,0,0,0,0,0,0,0,0,0,0,0,0,0,0,0,0,0,0,0,
0,0,0,0,0,0,0,0,0,0,0,0,0,0,0,0,0,0,69,0,0,0,0,0,0,0,0,0,0,0,0,0,0,0,0,0,0,0,
0,0,0,0,0,0,0,0,0,0,0,0,0,0,0,0,0,0,69,0,0,0,0,0,0,0,0,0,0,0,0,0,0,0,0,0,0,0,
0,0,0,0,0,0,0,0,0,0,0,0,0,0,0,0,0,0,69,0,0,0,0,0,0,0,0,0,0,0,0,0,0,0,0,0,0,0,
0,0,0,0,0,0,0,0,0,0,174,0,0,0,0,0,0,0,69,0,0,0,0,0,0,0,0,0,0,0,0,0,0,0,0,0,0,0,
0,0,0,0,0,0,0,0,0,0,0,0,0,0,0,0,0,0,69,0,0,0,0,0,0,0,0,0,0,0,0,0,0,0,67,0,0,0,
0,0,0,0,0,0,0,0,0,0,0,0,0,0,0,0,0,0,0,0,0,0,0,26,0,0,0,0,0,0,0,0,0,120,67,0,0,0,
0,0,0,0,0,0,0,0,0,0,0,0,0,0,0,0,0,0,0,0,0,0,0,0,0,0,0,0,0,0,0,0,0,0,67,0,0,0,
0,0,0,0,0,0,0,0,0,0,0,0,0,0,0,0,0,0,0,0,0,0,0,0,0,0,0,0,0,0,0,0,0,0,67,0,0,0,
0,0,0,0,0,0,0,0,0,0,0,0,0,0,0,0,0,0,0,0,0,0,0,0,0,0,0,0,0,0,0,0,0,0,67,0,0,0,
0,0,0,0,0,0,0,0,0,0,0,0,0,0,0,0,0,0,0,0,0,0,0,118,0,0,0,0,0,0,0,0,0,28,67,0,0,0,
0,0,0,0,0,0,0,0,0,0,0,0,0,0,0,0,0,0,0,0,0,0,0,0,0,0,0,0,0,0,0,0,0,0,67,0,0,0,
0,0,0,0,0,0,0,0,0,0,0,0,0,0,0,0,0,0,0,0,0,0,0,0,0,0,0,0,0,0,0,0,0,0,67,0,0,0,
0,0,0,0,0,0,0,0,0,0,0,0,0,0,0,0,0,0,0,0,0,0,0,0,0,0,0,0,0,0,0,0,0,0,67,0,0,0,
0,0,0,0,0,0,0,0,0,0,0,69,0,0,0,0,0,0,0,26,0,0,0,28,0,67,0,0,0,0,0,0,0,0,0,0,0,0,
258,258,258,258,258,258,258,258,258,258,258,255,256,0,0,0,0,0,0,0,0,0,0,0,0,67,0,0,0,0,0,0,0,0,0,0,0,0,
280,280,280,280,280,280,280,280,280,280,280,277,278,0,0,0,0,0,0,0,0,0,0,0,0,67,0,0,0,0,0,0,0,0,0,0,0,0,
0,0,0,0,0,0,0,0,0,0,0,69,0,0,0,0,0,0,0,0,0,0,0,0,0,67,0,0,0,0,0,0,0,0,0,0,0,0,
0,0,0,0,0,0,0,0,0,0,0,69,0,0,0,0,0,0,0,0,0,0,0,0,0,67,0,0,0,0,0,0,0,0,0,0,0,0,
0,0,0,0,0,0,0,0,0,0,0,69,0,0,0,0,0,0,0,46,46,46,46,46,46,67,0,0,0,0,0,0,0,0,0,0,0,0,
0,0,0,0,0,0,0,0,0,0,0,0,0,0,0,0,0,0,0,0,0,0,0,0,0,0,0,0,0,0,0,0,0,0,0,0,0,0,
0,0,0,0,0,0,0,0,0,0,0,0,0,0,0,0,0,0,0,0,0,0,0,0,0,0,0,0,0,0,0,0,0,0,0,0,0,0,
0,0,0,0,0,0,0,0,0,0,0,0,0,0,0,0,0,0,0,0,0,0,0,0,0,0,0,0,0,0,0,0,0,0,0,0,0,0,
0,0,0,0,0,0,0,0,0,0,0,0,0,0,0,0,0,0,0,0,0,0,0,0,0,0,0,0,0,0,0,0,0,0,0,0,0,0,
0,0,0,0,0,0,0,0,0,0,0,0,0,0,0,0,0,0,0,0,0,0,0,0,0,0,0,0,0,0,0,0,0,0,0,0,0,0,
0,0,0,0,0,0,0,0,0,0,0,0,0,0,0,0,0,0,0,0,0,0,0,0,0,0,0,0,0,0,0,0,0,0,0,0,0,0,
0,0,0,0,0,0,0,0,0,0,0,0,0,0,0,0,0,0,0,0,0,0,0,0,0,0,0,0,0,0,0,0,0,0,0,0,0,0,
0,0,0,0,0,0,0,0,0,0,0,0,0,0,0,0,0,0,0,0,0,0,0,0,0,0,0,0,0,0,0,0,0,0,0,0,0,0,
0,0,0,0,0,0,0,0,0,0,0,0,0,0,0,0,0,0,0,0,0,0,0,0,0,0,0,0,0,0,0,0,0,0,0,0,0,0
</data>
  </layer>
 </group>
 <layer id="7" name="tree" width="38" height="32">
  <data encoding="csv">
151,150,151,150,151,150,151,150,151,150,151,152,151,152,151,152,151,153,0,0,0,0,0,0,0,149,150,151,150,151,150,151,150,151,152,151,152,152,
150,151,150,151,150,151,150,151,150,151,152,151,152,151,152,151,150,153,0,0,0,0,0,0,0,160,161,162,163,162,163,162,163,162,163,150,163,163,
151,150,151,150,151,150,151,150,151,150,151,150,151,150,151,150,151,153,0,0,0,0,0,0,0,171,172,173,174,173,174,173,174,173,174,149,152,151,
150,151,150,151,150,151,150,151,151,150,151,150,151,150,151,150,151,153,0,0,0,0,0,0,0,0,0,0,0,0,0,0,0,0,0,149,151,150,
151,150,151,150,151,150,151,150,151,151,152,151,150,151,150,151,150,153,0,0,0,0,0,0,0,0,0,0,0,0,0,0,0,0,0,149,152,151,
150,151,150,151,150,151,150,151,151,150,151,151,150,151,150,151,152,153,0,0,0,0,0,0,0,0,0,0,0,0,0,0,0,0,0,149,151,150,
151,150,151,150,151,150,151,150,151,150,163,162,161,162,161,162,163,164,0,0,0,0,0,0,0,0,0,0,0,0,0,0,0,0,0,149,152,151,
150,151,150,151,150,151,150,151,150,151,153,173,172,173,172,173,174,175,0,0,0,0,0,0,0,0,0,0,0,0,0,0,0,0,0,149,151,150,
151,150,151,150,151,150,151,150,151,150,153,0,0,0,0,0,0,0,0,0,0,0,0,0,0,0,0,0,0,0,0,0,0,0,0,149,152,151,
150,151,150,151,150,151,150,151,150,151,153,0,0,0,0,0,0,0,0,0,0,0,0,0,0,0,0,0,0,0,0,0,0,0,0,149,151,150,
151,150,151,150,151,150,151,150,151,150,153,0,0,0,0,0,0,0,0,0,0,0,0,0,0,0,0,0,0,0,0,0,0,0,0,149,152,151,
150,151,150,151,150,151,150,151,150,151,153,0,0,0,0,0,0,0,0,0,0,0,0,0,0,0,0,0,0,0,0,0,0,0,0,149,151,150,
151,150,151,150,151,150,151,150,151,150,153,0,0,0,0,0,0,0,0,0,0,0,0,0,0,0,0,0,0,0,0,0,0,0,0,149,152,151,
150,151,150,151,150,151,150,151,150,151,153,0,0,0,0,0,0,0,0,0,0,0,0,0,0,0,0,0,0,0,0,0,0,0,0,149,151,150,
151,150,151,150,151,150,151,150,151,150,153,0,0,0,0,0,0,0,0,0,0,0,0,0,0,0,0,0,0,0,0,0,0,0,0,149,152,151,
162,161,162,161,162,161,162,161,162,163,164,0,0,0,0,0,0,0,0,0,0,0,0,0,0,0,0,0,0,0,0,0,0,0,0,0,152,150,
173,172,173,172,173,172,173,172,173,174,175,0,0,0,0,0,0,0,0,0,0,0,0,0,0,0,0,0,0,0,0,0,0,0,0,0,152,150,
0,0,0,0,0,0,0,0,0,0,0,0,0,0,0,0,0,0,0,0,0,0,0,0,0,0,0,152,150,151,152,150,151,152,150,151,152,150,
0,0,0,0,0,0,0,0,0,0,0,0,0,0,0,0,0,0,0,0,0,0,0,0,0,0,0,152,150,151,152,150,151,152,150,151,152,150,
0,0,0,0,0,0,0,0,0,0,0,0,0,0,0,0,0,0,0,0,0,0,0,0,0,0,0,152,150,151,152,150,151,152,150,151,152,150,
0,0,0,0,0,0,0,0,0,0,0,0,0,0,0,0,0,0,0,0,0,0,0,0,0,0,0,152,150,151,152,150,151,152,150,151,152,150,
0,0,0,0,0,0,0,0,0,0,0,0,0,0,0,0,0,0,0,0,0,0,0,0,0,0,0,152,150,151,152,150,151,152,150,151,152,150,
150,151,152,150,151,152,150,151,152,150,151,152,150,151,152,150,151,152,192,0,0,0,0,0,0,0,151,152,150,151,152,150,151,152,150,151,152,150,
150,151,152,150,151,152,150,151,152,150,151,152,150,151,152,150,151,152,150,0,0,0,0,0,0,150,151,152,150,151,152,150,151,152,150,151,152,150,
150,151,152,150,151,152,150,151,152,150,151,152,150,151,152,150,151,152,150,0,0,0,0,0,0,150,151,152,150,151,152,150,151,152,150,151,152,150,
150,151,152,150,151,152,150,151,152,150,151,152,150,151,152,150,151,152,150,0,0,0,0,0,0,150,151,152,150,151,152,150,151,152,150,151,152,150,
150,151,152,150,151,152,150,151,152,150,151,152,150,151,152,150,151,152,150,0,0,0,0,0,0,150,151,152,150,151,152,150,151,152,150,151,152,150,
150,151,152,150,151,152,150,151,152,150,151,152,150,151,152,150,151,152,150,0,0,0,0,0,0,150,151,152,150,151,152,150,151,152,150,151,152,150,
150,151,152,150,151,152,150,151,152,150,151,152,150,151,152,150,151,152,150,0,0,0,0,0,0,150,151,152,150,151,152,150,151,152,150,151,152,150,
150,151,152,150,151,152,150,151,152,150,151,152,150,151,152,150,151,152,150,0,0,0,0,0,0,150,151,152,150,151,152,150,151,152,150,151,152,150,
150,151,152,150,151,152,150,151,152,150,151,152,150,151,152,150,151,152,150,0,0,0,0,0,0,150,151,152,150,151,152,150,151,152,150,151,152,150,
150,151,152,150,151,152,150,151,152,150,151,152,150,151,152,150,151,152,150,0,0,0,0,0,0,150,151,152,150,151,152,150,151,152,150,151,152,150
</data>
 </layer>
 <objectgroup id="37" name="objects_evening_tree" visible="0">
  <object id="277" gid="601" x="0" y="696" width="728" height="696">
   <properties>
    <property name="overcast_fade" type="bool" value="true"/>
    <property name="sunset" type="int" value="1"/>
   </properties>
  </object>
  <object id="284" gid="605" x="1212" y="600" width="308" height="600">
   <properties>
    <property name="overcast_fade" type="bool" value="true"/>
    <property name="sunset" type="int" value="1"/>
   </properties>
  </object>
 </objectgroup>
 <group id="22" name="deco">
  <imagelayer id="20" name="hall" offsetx="960" offsety="0">
   <image source="../../../../../../assets/sprites/world/maps/hometown/townhall.png" width="418" height="352"/>
  </imagelayer>
  <imagelayer id="21" name="church" offsetx="440" offsety="0">
   <image source="../../../../../../assets/sprites/world/maps/hometown/church.png" width="312" height="656"/>
  </imagelayer>
 </group>
 <objectgroup id="24" name="objects_night" visible="0">
  <object id="54" gid="353" x="440" y="656" width="312" height="656">
   <properties>
    <property name="night" type="int" value="1"/>
   </properties>
  </object>
 </objectgroup>
 <objectgroup id="33" name="objects_morning" visible="0">
  <object id="62" gid="451" x="960" y="352" width="418" height="352">
   <properties>
    <property name="sunrise" type="int" value="1"/>
   </properties>
  </object>
  <object id="64" gid="455" x="440" y="656" width="312" height="656" visible="0">
   <properties>
    <property name="sunrise" type="int" value="1"/>
   </properties>
  </object>
 </objectgroup>
 <objectgroup id="40" name="objects_evening" visible="0">
  <object id="286" gid="657" x="960" y="352" width="418" height="352">
   <properties>
    <property name="overcast_fade" type="bool" value="true"/>
    <property name="sunset" type="int" value="1"/>
   </properties>
  </object>
 </objectgroup>
 <objectgroup color="#ff00ff" id="9" name="objects_party">
  <object id="33" name="transition" x="-40" y="680" width="40" height="200">
   <properties>
    <property name="facing" value="left"/>
    <property name="map" value="light/hometown/town_graveyard"/>
    <property name="marker" value="spawn"/>
   </properties>
  </object>
  <object id="34" name="transition" x="720" y="-40" width="240" height="40">
   <properties>
    <property name="facing" value="up"/>
    <property name="map" value="light/hometown/town_south"/>
    <property name="marker" value="entrysouth"/>
   </properties>
  </object>
  <object id="36" name="transition" x="760" y="1280" width="240" height="40">
   <properties>
    <property name="facing" value="down"/>
    <property name="map" value="light/hometown/town_shelter"/>
    <property name="marker" value="entrynorth"/>
   </properties>
  </object>
  <object id="39" name="transition" x="1136" y="202" width="62" height="40">
   <properties>
    <property name="exit_delay" type="int" value="1"/>
    <property name="facing" value="up"/>
    <property name="map" value="light/hometown/interior/town_hall"/>
    <property name="marker" value="spawn"/>
    <property name="sound" value="escaped"/>
   </properties>
  </object>
  <object id="43" name="transition" x="560" y="560" width="80" height="80">
   <properties>
    <property name="exit_sound" value="doorclose"/>
    <property name="facing" value="up"/>
    <property name="map" value="light/hometown/church/entrance"/>
    <property name="marker" value="south"/>
    <property name="sound" value="dooropen"/>
   </properties>
  </object>
  <object id="51" name="script" x="360" y="680" width="40" height="200">
   <properties>
    <property name="cutscene" value="hometown_digi.wrongway_b"/>
    <property name="flagcheck" value="!digi_complete"/>
    <property name="once" type="bool" value="false"/>
   </properties>
  </object>
  <object id="52" name="dryzone" x="988" y="200" width="360" height="139"/>
  <object id="59" name="npc" x="1240" y="520">
   <properties>
    <property name="actor" value="eye"/>
    <property name="text1" value="* This man is convinced that all eye monsters have eye-related issues."/>
    <property name="text2" value="* I don't mind it,[wait:5] he's pretty fun to look at."/>
   </properties>
   <point/>
  </object>
  <object id="60" name="npc" x="1040" y="520">
   <properties>
    <property name="actor" value="eyecatcher"/>
    <property name="text1" value="* Eh eh eh...[wait:5] Just you wait..."/>
    <property name="text2" value="* I KNOW this lady will see me blurry if I move far away enough."/>
    <property name="text3" value="* I just can't prove it yet."/>
   </properties>
   <point/>
  </object>
  <object id="61" name="npc" x="960" y="400">
   <properties>
    <property name="actor" value="astigmatism"/>
    <property name="text1_1" value="* I'm so scared..."/>
    <property name="text1_2" value="* I can't let that guy know I'm seeing him double..."/>
    <property name="text2_1" value="* I don't want to wear glass.[wait:5] It doesn't look good on me."/>
   </properties>
   <point/>
  </object>
 </objectgroup>
 <objectgroup color="#ff00ff" id="10" name="markers">
  <object id="24" name="spawn" x="860" y="40">
   <point/>
  </object>
  <object id="37" name="entrysouth" x="880" y="1240">
   <point/>
  </object>
  <object id="38" name="entrywest" x="40" y="760">
   <point/>
  </object>
  <object id="40" name="entryhall" x="1166" y="280">
   <point/>
  </object>
  <object id="56" name="entrychurch" x="600" y="700">
   <point/>
  </object>
 </objectgroup>
 <layer id="11" name="treeup" width="38" height="32">
  <data encoding="csv">
0,0,0,0,0,0,0,0,0,0,0,0,0,0,0,0,0,0,0,0,0,0,0,0,0,0,0,0,0,0,0,0,0,0,0,0,0,0,
0,0,0,0,0,0,0,0,0,0,0,0,0,0,0,0,0,0,0,0,0,0,0,0,0,0,0,0,0,0,0,0,0,0,0,0,0,0,
0,0,0,0,0,0,0,0,0,0,0,0,0,0,0,0,0,0,0,0,0,0,0,0,0,0,0,0,0,0,0,0,0,0,0,0,0,0,
0,0,0,0,0,0,0,0,0,0,0,0,0,0,0,0,0,0,0,0,0,0,0,0,0,0,0,0,0,0,0,0,0,0,0,0,0,0,
0,0,0,0,0,0,0,0,0,0,0,0,0,0,0,0,0,0,0,0,0,0,0,0,0,0,0,0,0,0,0,0,0,0,0,0,0,0,
0,0,0,0,0,0,0,0,0,0,0,0,0,0,0,0,0,0,0,0,0,0,0,0,0,0,0,0,0,0,0,0,0,0,0,0,0,0,
0,0,0,0,0,0,0,0,0,0,0,0,0,0,0,0,0,0,0,0,0,0,0,0,0,0,0,0,0,0,0,0,0,0,0,0,0,0,
0,0,0,0,0,0,0,0,0,0,0,0,0,0,0,0,0,0,0,0,0,0,0,0,0,0,0,0,0,0,0,0,0,0,0,0,0,0,
0,0,0,0,0,0,0,0,0,0,0,0,0,0,0,0,0,0,0,0,0,0,0,0,0,0,0,0,0,0,0,0,0,0,0,0,0,0,
0,0,0,0,0,0,0,0,0,0,0,0,0,0,0,0,0,0,0,0,0,0,0,0,0,0,0,0,0,0,0,0,0,0,0,0,0,0,
0,0,0,0,0,0,0,0,0,0,0,0,0,0,0,0,0,0,0,0,0,0,0,0,0,0,0,0,0,0,0,0,0,0,0,0,0,0,
0,0,0,0,0,0,0,0,0,0,0,0,0,0,0,0,0,0,0,0,0,0,0,0,0,0,0,0,0,0,0,0,0,0,0,0,0,0,
0,0,0,0,0,0,0,0,0,0,0,0,0,0,0,0,0,0,0,0,0,0,0,0,0,0,0,0,0,0,0,0,0,0,0,0,0,0,
0,0,0,0,0,0,0,0,0,0,0,0,0,0,0,0,0,0,0,0,0,0,0,0,0,0,0,0,0,0,0,0,0,0,0,0,0,0,
0,0,0,0,0,0,0,0,0,0,0,0,0,0,0,0,0,0,0,0,0,0,0,0,0,0,0,0,0,0,0,0,0,0,0,0,0,0,
0,0,0,0,0,0,0,0,0,0,0,0,0,0,0,0,0,0,0,0,0,0,0,0,0,0,0,138,139,140,139,140,139,140,141,190,151,150,
0,0,0,0,0,0,0,0,0,0,0,0,0,0,0,0,0,0,0,0,0,0,0,0,0,0,138,190,191,151,150,151,150,151,150,151,150,151,
0,0,0,0,0,0,0,0,0,0,0,0,0,0,0,0,0,0,0,0,0,0,0,0,0,0,149,0,151,150,151,150,151,150,151,150,151,150,
0,0,0,0,0,0,0,0,0,0,0,0,0,0,0,0,0,0,0,0,0,0,0,0,0,0,149,0,150,151,150,151,150,151,150,151,150,151,
0,0,0,0,0,0,0,0,0,0,0,0,0,0,0,0,0,0,0,0,0,0,0,0,0,0,149,0,151,150,151,150,151,150,151,150,151,150,
0,0,0,0,0,0,0,0,0,0,0,0,0,0,0,0,0,0,0,0,0,0,0,0,0,0,149,0,150,151,150,151,150,151,150,151,150,151,
135,136,135,136,135,136,135,136,135,136,135,136,135,136,135,136,135,136,142,0,0,0,0,0,0,138,150,0,150,150,151,150,151,150,151,150,151,150,
151,150,151,150,151,150,151,150,151,150,151,150,151,150,151,150,151,150,192,137,0,0,0,0,138,190,150,151,150,151,150,151,150,151,150,151,150,151,
150,151,150,151,150,151,150,151,150,151,150,151,150,151,150,151,150,151,150,153,0,0,0,0,149,151,150,151,150,150,151,150,151,150,151,150,151,150,
151,150,151,150,151,150,151,150,151,150,151,150,151,150,151,150,151,150,151,153,0,0,0,0,149,0,151,150,150,151,150,151,150,151,150,151,150,151,
150,151,150,151,150,151,150,151,150,151,150,151,150,151,150,151,150,151,150,153,0,0,0,0,149,151,150,151,150,150,151,150,151,150,151,150,151,150,
151,150,151,150,151,150,151,150,151,150,151,150,151,150,151,150,151,150,151,153,0,0,0,0,149,0,151,150,150,151,150,151,150,151,150,151,150,151,
150,151,150,151,150,151,150,151,150,151,150,151,150,151,150,151,150,151,150,153,0,0,0,0,149,151,150,151,150,150,151,150,151,150,151,150,151,150,
151,150,151,150,151,150,151,150,151,150,151,150,151,150,151,150,151,150,151,153,0,0,0,0,149,0,151,150,150,151,150,151,150,151,150,151,150,151,
150,151,150,151,150,151,150,151,150,151,150,151,150,151,150,151,150,151,150,153,0,0,0,0,149,151,150,151,150,150,151,150,151,150,151,150,151,150,
151,150,151,150,151,150,151,150,151,150,151,150,151,150,151,150,151,150,151,153,0,0,0,0,149,0,151,150,150,151,150,151,150,151,150,151,150,151,
150,151,150,151,150,151,150,151,150,151,150,151,150,151,150,151,150,151,150,153,0,0,0,0,149,151,150,151,150,150,151,150,151,150,151,150,151,150
</data>
 </layer>
 <objectgroup id="38" name="objects_evening_treeup" visible="0">
  <object id="282" gid="603" x="0" y="1280" width="800" height="452">
   <properties>
    <property name="overcast_fade" type="bool" value="true"/>
    <property name="sunset" type="int" value="1"/>
   </properties>
  </object>
  <object id="283" gid="604" x="940" y="1280" width="580" height="680">
   <properties>
    <property name="overcast_fade" type="bool" value="true"/>
    <property name="sunset" type="int" value="1"/>
   </properties>
  </object>
 </objectgroup>
 <objectgroup color="#5500ff" id="8" name="collision">
  <object id="2" x="634" y="380" width="96" height="276"/>
  <object id="57" x="460" y="380" width="98" height="276"/>
  <object id="58" x="558" y="380" width="76" height="180"/>
  <object id="3" x="0" y="0" width="440" height="680"/>
  <object id="4" x="440" y="0" width="280" height="320"/>
  <object id="15" x="994" y="920" width="486" height="360"/>
  <object id="17" x="1074" y="680" width="406" height="200"/>
  <object id="19" x="1120" y="640" width="360" height="40"/>
  <object id="20" x="1400" y="0" width="80" height="640"/>
  <object id="21" x="1360" y="0" width="40" height="80"/>
  <object id="25" x="960" y="0" width="18" height="328"/>
  <object id="26" x="978" y="200" width="112" height="80"/>
  <object id="27" x="1090" y="200" width="46" height="42"/>
  <object id="28" x="1360" y="-2" width="18" height="328"/>
  <object id="29" x="1246" y="200" width="114" height="80"/>
  <object id="30" x="1198" y="200" width="48" height="42"/>
  <object id="35" x="0" y="880" width="720" height="400"/>
  <object id="44" x="1000" y="920">
   <polygon points="0,0 40,-40 40,0"/>
  </object>
  <object id="45" x="1040" y="880" width="440" height="40"/>
  <object id="46" x="1080" y="840">
   <polygon points="0,0 -40,40 0,40"/>
  </object>
  <object id="47" x="720" y="880">
   <polygon points="0,0 40,40 0,40"/>
  </object>
  <object id="49" x="720" y="920" width="46" height="360"/>
  <object id="50" x="1120" y="640">
   <polygon points="0,0 -40,40 0,40"/>
  </object>
 </objectgroup>
 <group id="26" name="shadows" visible="0">
  <objectgroup id="36" name="objects_shadows_evening_topcutout" visible="0"/>
  <objectgroup id="35" name="objects_shadows_morning_topcutout" visible="0">
   <object id="276" gid="454" x="960" y="352" width="418" height="352">
    <properties>
     <property name="sunrise" type="int" value="1"/>
    </properties>
   </object>
   <object id="275" gid="447" x="440" y="656" width="312" height="656">
    <properties>
     <property name="sunrise" type="int" value="1"/>
    </properties>
   </object>
  </objectgroup>
  <objectgroup id="29" name="objects_shadows_evening_cutout">
   <object id="290" gid="579" x="506" y="622" width="168" height="392"/>
   <object id="322" gid="333" x="440" y="656" width="312" height="656"/>
   <object id="323" gid="567" x="324" y="680" width="110" height="120"/>
   <object id="324" gid="567" x="244" y="680" width="110" height="120"/>
   <object id="325" gid="567" x="164" y="680" width="110" height="120"/>
   <object id="326" gid="567" x="84" y="680" width="110" height="120"/>
   <object id="327" gid="567" x="4" y="680" width="110" height="120"/>
   <object id="328" gid="567" x="-76" y="680" width="110" height="120"/>
   <object id="329" gid="567" x="324" y="960" width="110" height="120"/>
   <object id="330" gid="567" x="244" y="960" width="110" height="120"/>
   <object id="337" gid="567" x="564" y="960" width="110" height="120"/>
   <object id="331" gid="567" x="164" y="960" width="110" height="120"/>
   <object id="336" gid="567" x="484" y="960" width="110" height="120"/>
   <object id="332" gid="567" x="84" y="960" width="110" height="120"/>
   <object id="335" gid="567" x="404" y="960" width="110" height="120"/>
   <object id="333" gid="567" x="4" y="960" width="110" height="120"/>
   <object id="334" gid="567" x="-76" y="960" width="110" height="120"/>
   <object id="340" gid="557" x="320" y="600" width="120" height="40"/>
   <object id="341" gid="557" x="320" y="560" width="120" height="40"/>
   <object id="342" gid="557" x="320" y="520" width="120" height="40"/>
   <object id="343" gid="557" x="320" y="480" width="120" height="40"/>
   <object id="344" gid="557" x="320" y="440" width="120" height="40"/>
   <object id="345" gid="557" x="320" y="400" width="120" height="40"/>
   <object id="346" gid="557" x="320" y="360" width="120" height="40"/>
   <object id="347" gid="557" x="320" y="320" width="120" height="40"/>
   <object id="349" gid="567" x="364" y="320" width="110" height="120"/>
   <object id="350" gid="567" x="444" y="320" width="110" height="120"/>
   <object id="352" gid="567" x="604" y="320" width="110" height="120"/>
   <object id="351" gid="567" x="524" y="320" width="110" height="120"/>
   <object id="353" gid="557" x="600" y="240" width="120" height="40"/>
   <object id="354" gid="557" x="600" y="200" width="120" height="40"/>
   <object id="355" gid="557" x="600" y="160" width="120" height="40"/>
   <object id="356" gid="557" x="600" y="120" width="120" height="40"/>
   <object id="357" gid="557" x="600" y="80" width="120" height="40"/>
   <object id="358" gid="557" x="600" y="40" width="120" height="40"/>
   <object id="372" gid="557" x="680" y="960" width="120" height="40"/>
   <object id="373" gid="557" x="680" y="1000" width="120" height="40"/>
   <object id="374" gid="557" x="680" y="1040" width="120" height="40"/>
   <object id="375" gid="557" x="680" y="1080" width="120" height="40"/>
   <object id="376" gid="557" x="680" y="1120" width="120" height="40"/>
   <object id="377" gid="557" x="680" y="1160" width="120" height="40"/>
   <object id="378" gid="557" x="680" y="1200" width="120" height="40"/>
   <object id="379" gid="557" x="680" y="1240" width="120" height="40"/>
   <object id="380" gid="557" x="680" y="1280" width="120" height="40"/>
   <object id="381" gid="553" x="648" y="990" width="146" height="150"/>
   <object id="382" gid="552" x="962" y="920" width="136" height="126"/>
   <object id="383" gid="565" x="1070" y="950" width="70" height="90"/>
   <object id="384" gid="567" x="964" y="1002" width="110" height="120"/>
   <object id="385" gid="565" x="570" y="1000" width="130" height="92"/>
   <object id="400" gid="567" x="1324" y="120" width="110" height="120"/>
   <object id="401" gid="567" x="1044" y="762" width="110" height="120"/>
   <object id="402" gid="567" x="1084" y="722" width="110" height="120"/>
   <object id="403" gid="567" x="1164" y="722" width="110" height="120"/>
   <object id="404" gid="567" x="1244" y="722" width="110" height="120"/>
   <object id="405" gid="567" x="1324" y="722" width="110" height="120"/>
   <object id="407" gid="567" x="1404" y="680" width="110" height="120"/>
   <object id="408" gid="564" x="1400" y="100" width="120" height="40"/>
   <object id="409" gid="564" x="1400" y="140" width="120" height="40"/>
   <object id="410" gid="564" x="1400" y="180" width="120" height="40"/>
   <object id="411" gid="564" x="1400" y="220" width="120" height="40"/>
   <object id="412" gid="564" x="1400" y="260" width="120" height="40"/>
   <object id="413" gid="564" x="1400" y="300" width="120" height="40"/>
   <object id="414" gid="564" x="1400" y="340" width="120" height="40"/>
   <object id="415" gid="564" x="1400" y="380" width="120" height="40"/>
   <object id="416" gid="564" x="1400" y="420" width="120" height="40"/>
   <object id="417" gid="564" x="1400" y="460" width="120" height="40"/>
   <object id="418" gid="564" x="1400" y="500" width="120" height="40"/>
   <object id="419" gid="564" x="1400" y="540" width="120" height="40"/>
   <object id="420" gid="564" x="1400" y="580" width="120" height="40"/>
   <object id="422" gid="564" x="1040" y="740" width="120" height="40"/>
   <object id="423" gid="564" x="1040" y="780" width="120" height="40"/>
   <object id="424" gid="564" x="1040" y="820" width="120" height="40"/>
   <object id="425" gid="564" x="1040" y="860" width="120" height="40"/>
   <object id="426" gid="564" x="960" y="980" width="120" height="40"/>
   <object id="427" gid="564" x="960" y="1020" width="120" height="40"/>
   <object id="428" gid="564" x="960" y="1060" width="120" height="40"/>
   <object id="429" gid="564" x="960" y="1100" width="120" height="40"/>
   <object id="430" gid="564" x="960" y="1140" width="120" height="40"/>
   <object id="431" gid="564" x="960" y="1180" width="120" height="40"/>
   <object id="432" gid="564" x="960" y="1220" width="120" height="40"/>
   <object id="433" gid="564" x="960" y="1260" width="120" height="40"/>
   <object id="434" gid="564" x="960" y="1300" width="120" height="40"/>
   <object id="435" gid="565" x="966" y="200" width="406" height="202"/>
   <object id="436" gid="565" x="1372" y="168" width="2" height="30"/>
   <object id="437" gid="565" x="1374" y="162" width="2" height="22"/>
   <object id="438" gid="565" x="1376" y="154" width="2" height="10"/>
   <object id="441" gid="565" x="978" y="352" width="380" height="152"/>
   <object id="442" gid="565" x="968" y="328" width="10" height="128"/>
   <object id="443" gid="565" x="976" y="350" width="2" height="22"/>
   <object id="450" gid="565" x="1358" y="350" width="2" height="24"/>
   <object id="451" gid="565" x="1358" y="326" width="8" height="126"/>
   <object id="452" gid="565" x="1366" y="324" width="2" height="124"/>
  </objectgroup>
  <objectgroup id="30" name="objects_shadows_morning_cutout" visible="0">
   <object id="122" gid="564" x="960" y="980" width="120" height="40"/>
   <object id="123" gid="564" x="960" y="1020" width="120" height="40"/>
   <object id="124" gid="564" x="960" y="1060" width="120" height="40"/>
   <object id="125" gid="564" x="960" y="1100" width="120" height="40"/>
   <object id="126" gid="564" x="960" y="1140" width="120" height="40"/>
   <object id="127" gid="564" x="960" y="1180" width="120" height="40"/>
   <object id="128" gid="564" x="960" y="1220" width="120" height="40"/>
   <object id="129" gid="564" x="960" y="1260" width="120" height="40"/>
   <object id="130" gid="564" x="960" y="1300" width="120" height="40"/>
   <object id="140" gid="564" x="1400" y="500" width="120" height="40"/>
   <object id="141" gid="564" x="1400" y="540" width="120" height="40"/>
   <object id="142" gid="564" x="1400" y="580" width="120" height="40"/>
   <object id="143" gid="564" x="1400" y="620" width="120" height="40"/>
   <object id="144" gid="564" x="1400" y="340" width="120" height="40"/>
   <object id="145" gid="564" x="1400" y="380" width="120" height="40"/>
   <object id="146" gid="564" x="1400" y="420" width="120" height="40"/>
   <object id="147" gid="564" x="1400" y="460" width="120" height="40"/>
   <object id="148" gid="564" x="1400" y="180" width="120" height="40"/>
   <object id="149" gid="564" x="1400" y="220" width="120" height="40"/>
   <object id="150" gid="564" x="1400" y="260" width="120" height="40"/>
   <object id="151" gid="564" x="1400" y="300" width="120" height="40"/>
   <object id="152" gid="564" x="1400" y="100" width="120" height="40"/>
   <object id="153" gid="564" x="1400" y="140" width="120" height="40"/>
   <object id="164" gid="565" x="400" y="300" width="32" height="32"/>
   <object id="165" gid="565" x="432" y="294" width="2" height="4"/>
   <object id="167" gid="565" x="1150" y="950" width="370" height="272"/>
   <object id="168" gid="565" x="1410" y="680" width="110" height="62"/>
   <object id="181" gid="567" x="324" y="680" width="110" height="120"/>
   <object id="182" gid="567" x="244" y="680" width="110" height="120"/>
   <object id="183" gid="567" x="164" y="680" width="110" height="120"/>
   <object id="184" gid="567" x="84" y="680" width="110" height="120"/>
   <object id="185" gid="567" x="4" y="680" width="110" height="120"/>
   <object id="186" gid="567" x="-76" y="680" width="110" height="120"/>
   <object id="187" gid="565" x="1070" y="1280" width="130" height="420"/>
   <object id="230" gid="591" x="364" y="290" width="350" height="90"/>
   <object id="239" gid="565" x="0" y="1190" width="760" height="272"/>
   <object id="250" gid="595" x="1324" y="120" width="110" height="120"/>
   <object id="120" gid="567" x="964" y="1002" width="110" height="120"/>
   <object id="136" gid="567" x="1084" y="722" width="110" height="120"/>
   <object id="137" gid="567" x="1164" y="722" width="110" height="120"/>
   <object id="138" gid="567" x="1244" y="722" width="110" height="120"/>
   <object id="139" gid="567" x="1324" y="722" width="110" height="120"/>
   <object id="169" gid="567" x="684" y="1000" width="110" height="120"/>
   <object id="170" gid="567" x="644" y="960" width="110" height="120"/>
   <object id="171" gid="567" x="564" y="960" width="110" height="120"/>
   <object id="172" gid="567" x="484" y="960" width="110" height="120"/>
   <object id="173" gid="567" x="404" y="960" width="110" height="120"/>
   <object id="174" gid="567" x="324" y="960" width="110" height="120"/>
   <object id="175" gid="567" x="244" y="960" width="110" height="120"/>
   <object id="176" gid="567" x="164" y="960" width="110" height="120"/>
   <object id="177" gid="567" x="84" y="960" width="110" height="120"/>
   <object id="178" gid="567" x="4" y="960" width="110" height="120"/>
   <object id="179" gid="567" x="-76" y="960" width="110" height="120"/>
   <object id="121" gid="567" x="1004" y="962" width="110" height="120"/>
   <object id="131" gid="564" x="1040" y="740" width="120" height="40"/>
   <object id="132" gid="564" x="1040" y="780" width="120" height="40"/>
   <object id="133" gid="564" x="1040" y="820" width="120" height="40"/>
   <object id="134" gid="564" x="1040" y="860" width="120" height="40"/>
   <object id="135" gid="567" x="1044" y="762" width="110" height="120"/>
   <object id="253" gid="557" x="680" y="960" width="120" height="40"/>
   <object id="254" gid="557" x="680" y="1000" width="120" height="40"/>
   <object id="259" gid="557" x="680" y="1040" width="120" height="40"/>
   <object id="260" gid="557" x="680" y="1080" width="120" height="40"/>
   <object id="261" gid="557" x="680" y="1120" width="120" height="40"/>
   <object id="262" gid="557" x="680" y="1160" width="120" height="40"/>
   <object id="263" gid="557" x="680" y="1200" width="120" height="40"/>
   <object id="264" gid="557" x="680" y="1240" width="120" height="40"/>
   <object id="265" gid="557" x="680" y="1280" width="120" height="40"/>
   <object id="266" gid="557" x="960" y="960" width="120" height="40"/>
   <object id="267" gid="557" x="960" y="1000" width="120" height="40"/>
   <object id="268" gid="557" x="960" y="1040" width="120" height="40"/>
   <object id="269" gid="557" x="960" y="1080" width="120" height="40"/>
   <object id="270" gid="557" x="960" y="1120" width="120" height="40"/>
   <object id="271" gid="557" x="960" y="1160" width="120" height="40"/>
   <object id="272" gid="557" x="960" y="1200" width="120" height="40"/>
   <object id="273" gid="557" x="960" y="1240" width="120" height="40"/>
   <object id="274" gid="557" x="960" y="1280" width="120" height="40"/>
  </objectgroup>
  <objectgroup id="32" name="objects_shadows_evening">
   <object id="294" gid="587" x="198" y="700" width="110" height="24"/>
   <object id="295" gid="587" x="114" y="700" width="110" height="24"/>
   <object id="296" gid="587" x="38" y="700" width="110" height="24"/>
   <object id="297" gid="587" x="-24" y="700" width="110" height="24"/>
   <object id="289" gid="579" x="376" y="656" width="168" height="392"/>
   <object id="291" gid="3221226059" x="376" y="549.31" width="138.696" height="24" rotation="-270"/>
   <object id="293" gid="587" x="338" y="660" width="90.6957" height="8" rotation="-360"/>
   <object id="288" gid="579" x="670" y="328" width="298" height="334"/>
   <object id="292" gid="587" x="0" y="1280" width="80" height="24"/>
   <object id="307" gid="587" x="1024" y="586" width="138.696" height="24" rotation="-180"/>
   <object id="308" gid="587" x="1162" y="568" width="138.696" height="24" rotation="-180"/>
   <object id="309" gid="587" x="1270" y="554" width="138.696" height="24" rotation="-180"/>
   <object id="302" gid="3221226059" x="90" y="1140" width="80" height="24" rotation="-90"/>
   <object id="303" gid="3221226059" x="890" y="917.391" width="103.391" height="27.264" rotation="-90"/>
   <object id="304" gid="3221226059" x="890" y="837.391" width="103.391" height="27.264" rotation="-90"/>
   <object id="310" gid="3221226059" x="1232" y="605.391" width="103.391" height="24" rotation="-90"/>
   <object id="311" gid="3221226059" x="1228" y="512.696" width="138.696" height="24" rotation="-90"/>
   <object id="312" gid="3221226059" x="1232" y="361.391" width="103.391" height="27.264" rotation="-90"/>
   <object id="313" gid="3221226059" x="1228" y="268.696" width="138.696" height="27.264" rotation="-90"/>
   <object id="305" gid="3221226059" x="886" y="744.696" width="138.696" height="27.264" rotation="-90"/>
   <object id="301" gid="587" x="892" y="884" width="138.696" height="24" rotation="-180"/>
   <object id="298" gid="579" x="-16" y="688" width="394" height="82"/>
   <object id="299" gid="579" x="0" y="890" width="710" height="50"/>
   <object id="314" gid="579" x="1228" y="217.391" width="228.736" height="145.391"/>
   <object id="315" gid="579" x="1228" y="376.391" width="228.736" height="246.391"/>
   <object id="316" gid="579" x="1228" y="619.391" width="228.736" height="245.391"/>
   <object id="317" gid="579" x="1136" y="603.391" width="106.736" height="33.3913"/>
   <object id="318" gid="579" x="1000" y="625.391" width="262.736" height="33.3913"/>
   <object id="319" gid="579" x="886" y="941.391" width="228.736" height="335.391"/>
   <object id="320" gid="579" x="760" y="970" width="316" height="74"/>
   <object id="321" gid="579" x="762" y="1283.39" width="234.736" height="343.391"/>
  </objectgroup>
  <objectgroup id="41" name="objects_evening_shadow_collision">
   <object id="444" name="eveningshadowfull" x="680" y="0" width="300" height="326">
    <properties>
     <property name="sunset" type="int" value="1"/>
    </properties>
   </object>
   <object id="445" name="eveningshadowfull" x="1220" y="200" width="240" height="480">
    <properties>
     <property name="sunset" type="int" value="1"/>
    </properties>
   </object>
   <object id="446" name="eveningshadowfull" x="980" y="200" width="240" height="94">
    <properties>
     <property name="sunset" type="int" value="1"/>
    </properties>
   </object>
   <object id="447" name="eveningshadowfull" x="904" y="592" width="416" height="308">
    <properties>
     <property name="sunset" type="int" value="1"/>
    </properties>
   </object>
   <object id="448" name="eveningshadowfull" x="884" y="606" width="20" height="294">
    <properties>
     <property name="sunset" type="int" value="1"/>
    </properties>
   </object>
   <object id="449" name="eveningshadowfull" x="740" y="900" width="380" height="380">
    <properties>
     <property name="sunset" type="int" value="1"/>
    </properties>
   </object>
  </objectgroup>
  <objectgroup id="31" name="objects_shadows_morning" visible="0">
   <object id="68" gid="582" x="426" y="580" width="14" height="40"/>
   <object id="69" gid="582" x="426" y="540" width="14" height="40"/>
   <object id="70" gid="582" x="426" y="500" width="14" height="40"/>
   <object id="73" gid="582" x="426" y="620" width="14" height="40"/>
   <object id="74" gid="582" x="426" y="420" width="14" height="40"/>
   <object id="75" gid="582" x="426" y="380" width="14" height="40"/>
   <object id="76" gid="582" x="426" y="340" width="14" height="40"/>
   <object id="77" gid="582" x="426" y="460" width="14" height="40"/>
   <object id="79" gid="576" x="408" y="300" width="80" height="46"/>
   <object id="80" gid="576" x="488" y="300" width="80" height="46"/>
   <object id="81" gid="576" x="568" y="300" width="80" height="46"/>
   <object id="83" gid="582" x="706" y="220" width="14" height="40"/>
   <object id="84" gid="582" x="706" y="180" width="14" height="40"/>
   <object id="85" gid="582" x="706" y="140" width="14" height="40"/>
   <object id="86" gid="582" x="706" y="260" width="14" height="40"/>
   <object id="87" gid="582" x="706" y="60" width="14" height="40"/>
   <object id="88" gid="582" x="706" y="20" width="14" height="40"/>
   <object id="89" gid="582" x="706" y="-20" width="14" height="40"/>
   <object id="90" gid="582" x="706" y="100" width="14" height="40"/>
   <object id="92" gid="584" x="672" y="292" width="48" height="40"/>
   <object id="93" gid="576" x="648" y="300" width="80" height="46"/>
   <object id="94" gid="584" x="392" y="652" width="48" height="40"/>
   <object id="95" gid="583" x="1036" y="740" width="18" height="40"/>
   <object id="96" gid="583" x="1036" y="780" width="18" height="40"/>
   <object id="97" gid="583" x="1036" y="820" width="18" height="40"/>
   <object id="98" gid="583" x="1036" y="860" width="18" height="40"/>
   <object id="99" gid="583" x="956" y="980" width="18" height="40"/>
   <object id="100" gid="583" x="956" y="1020" width="18" height="40"/>
   <object id="101" gid="583" x="956" y="1060" width="18" height="40"/>
   <object id="102" gid="583" x="956" y="1100" width="18" height="40"/>
   <object id="103" gid="583" x="956" y="1140" width="18" height="40"/>
   <object id="104" gid="583" x="956" y="1180" width="18" height="40"/>
   <object id="105" gid="583" x="956" y="1220" width="18" height="40"/>
   <object id="106" gid="583" x="956" y="1260" width="18" height="40"/>
   <object id="107" gid="582" x="786" y="1300" width="14" height="40"/>
   <object id="108" gid="582" x="786" y="1220" width="14" height="40"/>
   <object id="109" gid="582" x="786" y="1180" width="14" height="40"/>
   <object id="110" gid="582" x="786" y="1260" width="14" height="40"/>
   <object id="111" gid="582" x="786" y="1140" width="14" height="40"/>
   <object id="112" gid="582" x="786" y="1060" width="14" height="40"/>
   <object id="113" gid="582" x="786" y="1020" width="14" height="40"/>
   <object id="114" gid="582" x="786" y="1100" width="14" height="40"/>
   <object id="115" gid="582" x="786" y="980" width="14" height="40"/>
   <object id="117" gid="582" x="786" y="940" width="14" height="40"/>
   <object id="118" gid="579" x="750" y="910" width="50" height="30"/>
   <object id="119" gid="579" x="960" y="940" width="50" height="60"/>
   <object id="188" gid="587" x="0" y="824" width="80" height="24"/>
   <object id="189" gid="587" x="80" y="824" width="80" height="24"/>
   <object id="190" gid="587" x="160" y="824" width="80" height="24"/>
   <object id="191" gid="587" x="240" y="824" width="80" height="24"/>
   <object id="192" gid="587" x="320" y="824" width="80" height="24"/>
   <object id="193" gid="587" x="400" y="824" width="80" height="24"/>
   <object id="194" gid="587" x="480" y="824" width="80" height="24"/>
   <object id="195" gid="587" x="904" y="520" width="80" height="24" rotation="-90"/>
   <object id="196" gid="587" x="904" y="440" width="80" height="24" rotation="-90"/>
   <object id="202" gid="587" x="1040" y="584" width="80" height="24"/>
   <object id="203" gid="587" x="1120" y="584" width="80" height="24"/>
   <object id="204" gid="1073742411" x="1002" y="515" width="80" height="24" rotation="225"/>
   <object id="205" gid="1073742411" x="1052" y="570" width="80" height="24" rotation="225"/>
   <object id="207" gid="1073742411" x="944" y="462" width="80" height="24" rotation="225"/>
   <object id="208" gid="583" x="956" y="1300" width="18" height="40"/>
   <object id="209" gid="583" x="1396" y="140" width="18" height="40"/>
   <object id="210" gid="583" x="1396" y="180" width="18" height="40"/>
   <object id="211" gid="583" x="1396" y="220" width="18" height="40"/>
   <object id="212" gid="583" x="1396" y="260" width="18" height="40"/>
   <object id="214" gid="579" x="1400" y="100" width="20" height="20"/>
   <object id="215" gid="583" x="1396" y="300" width="18" height="40"/>
   <object id="216" gid="583" x="1396" y="340" width="18" height="40"/>
   <object id="217" gid="583" x="1396" y="380" width="18" height="40"/>
   <object id="218" gid="583" x="1396" y="420" width="18" height="40"/>
   <object id="219" gid="583" x="1396" y="460" width="18" height="40"/>
   <object id="220" gid="583" x="1396" y="500" width="18" height="40"/>
   <object id="221" gid="583" x="1396" y="540" width="18" height="40"/>
   <object id="222" gid="583" x="1396" y="580" width="18" height="40"/>
   <object id="223" gid="583" x="1386" y="580" width="18" height="40"/>
   <object id="249" gid="592" x="440" y="656" width="312" height="656"/>
   <object id="252" gid="594" x="960" y="350" width="418" height="352"/>
  </objectgroup>
  <layer id="27" name="tiles_shadows_evening" width="38" height="32">
   <data encoding="csv">
0,0,0,0,0,0,0,0,0,0,0,0,0,0,0,0,0,0,0,0,0,0,0,0,0,0,0,0,0,0,0,0,0,0,0,0,0,0,
0,0,0,0,0,0,0,0,0,0,0,0,0,0,0,0,0,0,0,0,0,0,0,0,0,0,0,0,0,0,0,0,0,0,0,0,0,0,
0,0,0,0,0,0,0,0,0,0,0,0,0,0,0,0,0,0,0,0,0,0,0,0,0,0,0,0,0,0,0,0,0,0,0,0,0,0,
0,0,0,0,0,0,0,0,0,0,0,0,0,0,0,0,0,0,0,0,0,0,0,0,0,0,0,0,0,0,0,0,0,0,0,0,0,0,
0,0,0,0,0,0,0,0,0,0,0,0,0,0,0,0,0,0,0,0,0,0,0,0,0,0,0,0,0,0,0,0,0,0,0,0,0,0,
0,0,0,0,0,0,0,0,0,0,0,0,0,0,0,0,0,0,0,0,0,0,0,0,0,0,0,0,0,0,0,0,0,0,0,0,0,0,
0,0,0,0,0,0,0,0,0,0,0,0,0,0,0,0,0,0,0,0,0,0,0,0,0,0,0,0,0,0,0,0,0,0,0,0,0,0,
0,0,0,0,0,0,0,0,0,0,0,0,0,0,0,0,0,0,0,0,0,0,0,0,0,0,0,0,0,0,0,0,0,0,0,0,0,0,
0,0,0,0,0,0,0,0,0,0,0,0,0,0,0,0,0,0,0,0,0,0,0,0,0,0,0,0,0,0,0,0,0,0,0,0,0,0,
0,0,0,0,0,0,0,0,0,0,0,0,0,0,0,0,0,0,0,0,0,0,0,0,0,0,0,0,0,0,0,0,0,0,0,0,0,0,
0,0,0,0,0,0,0,0,0,0,0,0,0,0,0,0,0,0,0,0,0,0,0,0,0,0,0,0,0,0,0,0,0,0,0,0,0,0,
0,0,0,0,0,0,0,0,0,0,0,0,0,0,0,0,0,0,0,0,0,0,0,0,0,0,0,0,0,0,0,0,0,0,0,0,0,0,
0,0,0,0,0,0,0,0,0,0,0,0,0,0,0,0,0,0,0,0,0,0,0,0,0,0,0,0,0,0,0,0,0,0,0,0,0,0,
0,0,0,0,0,0,0,0,0,0,0,0,0,0,0,0,0,0,0,0,0,0,0,0,0,0,0,0,0,0,0,0,0,0,0,0,0,0,
0,0,0,0,0,0,0,0,0,0,0,0,0,0,0,0,0,0,0,0,0,0,0,0,0,0,0,0,0,0,0,0,0,0,0,0,0,0,
0,0,0,0,0,0,0,0,0,0,0,0,0,0,0,0,0,0,0,0,0,0,0,0,0,0,0,0,0,0,0,0,0,0,0,0,0,0,
0,0,0,0,0,0,0,0,0,0,0,0,0,0,0,0,0,0,0,0,0,0,0,0,0,0,0,0,0,0,0,0,0,0,0,0,0,0,
0,0,0,0,0,0,0,0,0,0,0,0,0,0,0,0,0,0,0,0,0,0,0,0,0,0,0,0,0,0,0,0,0,0,0,0,0,0,
0,0,0,0,0,0,0,0,0,0,0,0,0,0,0,0,0,0,0,0,0,0,0,0,0,0,0,0,0,0,0,0,0,0,0,0,0,0,
0,0,0,0,0,0,0,0,0,0,0,0,0,0,0,0,0,0,0,0,0,0,0,0,0,0,0,0,0,0,0,0,0,0,0,0,0,0,
0,0,0,0,0,0,0,0,0,0,0,0,0,0,0,0,0,0,0,0,0,0,0,0,0,0,0,0,0,0,0,0,0,0,0,0,0,0,
0,0,0,0,0,0,0,0,0,0,0,0,0,0,0,0,0,0,0,0,0,0,0,0,0,0,0,0,0,0,0,0,0,0,0,0,0,0,
0,0,0,0,0,0,0,0,0,0,0,0,0,0,0,0,0,0,0,0,0,0,0,0,0,0,0,0,0,0,0,0,0,0,0,0,0,0,
0,0,0,0,0,0,0,0,0,0,0,0,0,0,0,0,0,0,0,0,0,0,0,0,0,0,0,0,0,0,0,0,0,0,0,0,0,0,
0,0,0,0,0,0,0,0,0,0,0,0,0,0,0,0,0,0,0,0,0,0,0,0,0,0,0,0,0,0,0,0,0,0,0,0,0,0,
0,0,0,0,0,0,0,0,0,0,0,0,0,0,0,0,0,0,0,0,0,0,0,0,0,0,0,0,0,0,0,0,0,0,0,0,0,0,
0,0,0,0,0,0,0,0,0,0,0,0,0,0,0,0,0,0,0,0,0,0,0,0,0,0,0,0,0,0,0,0,0,0,0,0,0,0,
0,0,0,0,0,0,0,0,0,0,0,0,0,0,0,0,0,0,0,0,0,0,0,0,0,0,0,0,0,0,0,0,0,0,0,0,0,0,
0,0,0,0,0,0,0,0,0,0,0,0,0,0,0,0,0,0,0,0,0,0,0,0,0,0,0,0,0,0,0,0,0,0,0,0,0,0,
0,0,0,0,0,0,0,0,0,0,0,0,0,0,0,0,0,0,0,0,0,0,0,0,0,0,0,0,0,0,0,0,0,0,0,0,0,0,
0,0,0,0,0,0,0,0,0,0,0,0,0,0,0,0,0,0,0,0,0,0,0,0,0,0,0,0,0,0,0,0,0,0,0,0,0,0,
0,0,0,0,0,0,0,0,0,0,0,0,0,0,0,0,0,0,0,0,0,0,0,0,0,0,0,0,0,0,0,0,0,0,0,0,0,0
</data>
  </layer>
  <layer id="28" name="tiles_shadows_morning" width="38" height="32" visible="0">
   <data encoding="csv">
0,0,0,0,0,0,0,0,0,0,0,0,0,0,0,0,0,0,496,496,496,496,496,496,496,0,0,0,0,0,0,0,0,0,0,0,0,0,
0,0,0,0,0,0,0,0,0,0,0,0,0,0,0,0,0,0,496,496,496,496,496,496,496,0,0,0,0,0,0,0,0,0,0,0,0,0,
0,0,0,0,0,0,0,0,0,0,0,0,0,0,0,0,0,0,496,496,496,496,496,496,496,496,496,496,496,496,496,496,496,496,496,0,0,0,
0,0,0,0,0,0,0,0,0,0,0,0,0,0,0,0,0,0,496,496,496,496,496,496,496,496,496,496,496,496,496,496,496,496,496,0,0,0,
0,0,0,0,0,0,0,0,0,0,0,0,0,0,0,0,0,0,496,496,496,496,496,496,496,496,496,496,496,496,496,496,496,496,496,0,0,0,
0,0,0,0,0,0,0,0,0,0,0,0,0,0,0,0,0,0,496,496,496,496,496,496,496,496,496,496,496,496,496,496,496,496,496,0,0,0,
0,0,0,0,0,0,0,0,0,0,0,0,0,0,0,0,0,0,496,496,496,496,496,496,496,496,496,496,496,496,496,496,496,496,496,0,0,0,
0,0,0,0,0,0,0,0,0,0,0,496,496,496,496,496,496,496,496,496,496,496,496,496,496,496,496,496,496,496,496,496,496,496,496,0,0,0,
0,0,0,0,0,0,0,0,0,0,0,496,496,496,496,496,496,496,496,496,496,496,496,496,496,496,496,496,496,496,496,496,496,496,496,0,0,0,
0,0,0,0,0,0,0,0,0,0,0,496,496,496,496,496,496,496,496,496,496,496,496,496,496,496,496,496,496,496,496,496,496,496,496,0,0,0,
0,0,0,0,0,0,0,0,0,0,0,496,496,496,496,496,496,496,496,496,496,496,503,496,496,496,496,496,496,496,496,496,496,496,496,0,0,0,
0,0,0,0,0,0,0,0,0,0,0,496,496,496,496,496,496,496,496,496,496,496,0,503,496,496,496,496,496,496,496,496,496,496,496,0,0,0,
0,0,0,0,0,0,0,0,0,0,0,496,496,496,496,496,496,496,496,496,496,496,0,0,503,496,496,496,496,496,496,496,496,496,496,0,0,0,
0,0,0,0,0,0,0,0,0,0,0,496,496,496,496,496,496,496,496,496,496,496,499,0,0,503,496,496,496,496,496,496,496,496,496,0,0,0,
0,0,0,0,0,0,0,0,0,0,0,496,496,496,496,496,496,496,496,496,496,496,496,499,0,0,0,0,0,503,496,496,496,496,496,0,0,0,
0,0,0,0,0,0,0,0,0,0,0,496,496,496,496,496,496,496,496,496,496,496,496,496,499,0,0,0,0,0,503,496,496,496,496,0,0,0,
496,496,496,496,496,496,496,496,496,496,496,496,496,496,496,496,496,496,496,496,496,496,496,496,496,499,0,0,0,0,0,503,496,496,496,0,0,0,
496,496,496,496,496,496,496,496,496,496,496,496,496,496,496,496,496,496,496,496,496,496,496,496,496,496,499,0,0,0,0,0,0,0,0,0,0,0,
496,496,496,496,496,496,496,496,496,496,496,496,496,496,496,496,496,496,496,496,496,496,496,496,496,496,0,0,0,0,0,0,0,0,0,0,0,0,
496,496,496,496,496,496,496,496,496,496,496,496,496,496,496,496,496,496,496,496,496,496,496,496,496,496,0,0,0,0,0,0,0,0,0,0,0,0,
0,0,0,0,0,0,0,0,0,0,0,0,0,0,503,496,496,496,496,496,496,496,496,496,496,496,0,0,0,0,0,0,0,0,0,0,0,0,
0,0,0,0,0,0,0,0,0,0,0,0,0,0,0,503,496,496,496,496,496,496,496,496,496,496,0,0,0,0,0,0,0,0,0,0,0,0,
0,0,0,0,0,0,0,0,0,0,0,0,0,0,0,0,0,0,0,0,496,496,496,496,0,0,0,0,0,0,0,0,0,0,0,0,0,0,
0,0,0,0,0,0,0,0,0,0,0,0,0,0,0,0,0,0,0,0,496,496,496,496,0,0,0,0,0,0,0,0,0,0,0,0,0,0,
0,0,0,0,0,0,0,0,0,0,0,0,0,0,0,0,0,0,0,0,496,496,496,496,0,0,0,0,0,0,0,0,0,0,0,0,0,0,
0,0,0,0,0,0,0,0,0,0,0,0,0,0,0,0,0,0,0,0,496,496,496,496,0,0,0,0,0,0,0,0,0,0,0,0,0,0,
0,0,0,0,0,0,0,0,0,0,0,0,0,0,0,0,0,0,0,0,496,496,496,496,0,0,0,0,0,0,0,0,0,0,0,0,0,0,
0,0,0,0,0,0,0,0,0,0,0,0,0,0,0,0,0,0,0,0,496,496,496,496,0,0,0,0,0,0,0,0,0,0,0,0,0,0,
0,0,0,0,0,0,0,0,0,0,0,0,0,0,0,0,0,0,0,0,496,496,496,496,0,0,0,0,0,0,0,0,0,0,0,0,0,0,
0,0,0,0,0,0,0,0,0,0,0,0,0,0,0,0,0,0,0,0,496,496,496,496,0,0,0,0,0,0,0,0,0,0,0,0,0,0,
0,0,0,0,0,0,0,0,0,0,0,0,0,0,0,0,0,0,0,0,496,496,496,496,0,0,0,0,0,0,0,0,0,0,0,0,0,0,
0,0,0,0,0,0,0,0,0,0,0,0,0,0,0,0,0,0,0,0,496,496,496,496,0,0,0,0,0,0,0,0,0,0,0,0,0,0
</data>
  </layer>
 </group>
 <group id="17" name="up">
  <imagelayer id="18" name="churchup" offsetx="440" offsety="0">
   <image source="../../../../../../assets/sprites/world/maps/hometown/churchup.png" width="312" height="656"/>
  </imagelayer>
  <imagelayer id="19" name="hallup" offsetx="960" offsety="0">
   <image source="../../../../../../assets/sprites/world/maps/hometown/townhallup.png" width="418" height="352"/>
  </imagelayer>
  <objectgroup id="39" name="objects_evening_above" visible="0">
   <object id="285" gid="647" x="422" y="658" width="328" height="604">
    <properties>
     <property name="overcast_fade" type="bool" value="true"/>
     <property name="sunset" type="int" value="1"/>
    </properties>
   </object>
   <object id="287" gid="658" x="960" y="204" width="418" height="204">
    <properties>
     <property name="overcast_fade" type="bool" value="true"/>
     <property name="sunset" type="int" value="1"/>
    </properties>
   </object>
  </objectgroup>
  <objectgroup id="34" name="objects_morning_above" visible="0">
   <object id="63" gid="454" x="960" y="352" width="418" height="352">
    <properties>
     <property name="sunrise" type="int" value="1"/>
    </properties>
   </object>
   <object id="234" gid="447" x="440" y="656" width="312" height="656">
    <properties>
     <property name="sunrise" type="int" value="1"/>
    </properties>
   </object>
  </objectgroup>
 </group>
 <objectgroup id="25" name="objects_above_night" visible="0">
  <object id="55" gid="355" x="440" y="656" width="312" height="656">
   <properties>
    <property name="night" type="int" value="1"/>
   </properties>
  </object>
 </objectgroup>
 <objectgroup color="#00aa00" id="23" name="objects_overlay">
  <object id="53" name="hometowndaynight" x="0" y="0">
   <point/>
  </object>
 </objectgroup>
</map>
