<?xml version="1.0" encoding="UTF-8"?>
<map version="1.11" tiledversion="1.12.1" orientation="orthogonal" renderorder="right-down" width="30" height="12" tilewidth="40" tileheight="40" infinite="0" nextlayerid="35" nextobjectid="580">
 <editorsettings>
  <export target="data.lua" format="lua"/>
 </editorsettings>
 <properties>
  <property name="border" value="leaves"/>
  <property name="light" type="bool" value="true"/>
  <property name="music" value="hometown"/>
 </properties>
 <tileset firstgid="1" source="../../../../tilesets/hometown.tsx"/>
 <tileset firstgid="287" source="../../../../tilesets/hometownobjects.tsx"/>
 <tileset firstgid="492" source="../../../../tilesets/hometownshadowsobjects.tsx"/>
 <tileset firstgid="574" source="../../../../tilesets/hometownshadows.tsx"/>
 <tileset firstgid="602" source="../../../../tilesets/hometowneveningtreeobjects.tsx"/>
 <group id="7" name="main">
  <layer id="1" name="tile" width="30" height="12">
   <data encoding="csv">
57,57,57,57,57,57,57,57,57,57,57,57,57,57,57,57,57,57,57,57,57,57,57,57,57,57,57,57,57,57,
57,57,57,57,57,57,57,57,57,57,57,57,57,57,57,57,57,57,57,57,57,57,57,57,57,57,57,57,57,57,
57,57,57,57,57,57,57,57,57,57,57,57,57,57,57,57,57,57,57,57,57,57,57,57,57,57,57,57,57,57,
57,60,60,60,60,60,60,60,60,60,60,60,60,60,60,60,60,60,60,57,57,57,57,57,57,57,57,57,57,57,
57,60,60,60,60,60,60,60,60,60,60,60,60,60,60,60,60,60,60,57,57,57,57,57,57,57,57,57,57,57,
57,60,60,60,60,60,60,60,60,60,60,60,60,60,60,60,60,60,60,57,57,57,57,57,57,57,57,57,57,57,
57,60,60,60,60,60,60,60,60,60,60,60,60,60,60,60,60,60,60,60,60,60,60,60,60,60,60,60,57,57,
57,60,60,60,255,255,255,255,255,255,255,255,255,255,255,255,255,255,255,255,255,255,255,255,255,255,255,255,258,258,
57,60,60,60,277,277,277,277,277,277,277,277,277,277,277,277,277,277,277,277,277,277,277,277,277,277,277,277,280,280,
57,60,60,60,60,60,60,60,60,60,60,60,60,60,60,60,60,60,60,60,60,60,60,60,60,60,60,60,57,57,
57,57,57,57,57,57,57,57,57,57,57,57,57,57,57,57,57,57,57,57,57,57,57,57,57,57,57,57,57,57,
57,57,57,57,57,57,57,57,57,57,57,57,57,57,57,57,57,57,57,57,57,57,57,57,57,57,57,57,57,57
</data>
  </layer>
  <layer id="3" name="tile2" width="30" height="12">
   <data encoding="csv">
0,0,0,0,0,0,0,0,0,0,0,0,0,0,0,0,0,0,0,0,0,0,0,0,0,0,0,0,0,0,
0,0,0,0,0,0,0,0,0,0,0,0,0,0,0,0,0,0,162,163,0,0,0,0,0,0,0,0,0,0,
171,0,0,0,0,0,0,0,0,0,0,0,0,0,0,0,0,0,173,174,0,0,0,0,0,0,0,0,0,0,
0,69,0,0,0,0,0,0,0,0,0,0,0,0,0,0,0,0,0,0,0,0,0,0,0,0,0,0,0,0,
0,69,0,0,0,0,0,0,0,0,0,0,0,0,0,0,0,0,0,0,0,0,0,0,0,0,0,0,0,0,
0,69,0,0,0,0,0,0,0,0,0,0,0,0,0,0,0,0,0,0,0,0,0,0,0,0,0,0,0,0,
0,69,0,0,0,0,0,0,0,0,0,0,0,0,0,0,0,0,0,0,0,0,0,0,0,0,0,0,0,0,
0,69,0,254,0,0,0,0,0,0,0,0,0,0,0,0,0,0,0,0,0,0,0,0,0,0,0,0,0,0,
0,69,0,276,0,0,0,0,0,0,0,0,0,0,0,0,0,0,0,0,0,0,0,0,0,0,0,0,0,0,
0,46,46,46,46,46,46,46,46,46,46,46,46,46,46,46,46,46,46,46,46,46,46,46,46,46,46,46,0,0,
0,0,0,0,0,0,0,0,0,0,0,0,0,0,0,0,0,0,0,0,0,0,0,0,0,0,0,0,0,0,
0,0,0,0,0,0,0,0,0,0,0,0,0,0,0,0,0,0,0,0,0,0,0,0,0,0,0,0,0,0
</data>
  </layer>
  <layer id="5" name="tile2.2" width="30" height="12">
   <data encoding="csv">
0,0,0,0,0,0,0,0,0,0,0,0,0,0,0,0,0,0,0,0,0,0,0,0,0,0,0,0,0,0,
0,0,0,0,0,0,0,0,0,0,0,0,0,0,0,0,0,0,0,0,0,0,0,0,0,0,0,0,0,0,
0,0,0,0,0,0,0,0,0,0,0,0,0,0,0,0,0,0,0,0,0,0,0,0,0,0,0,0,0,0,
0,0,0,0,0,0,0,0,0,0,0,0,0,0,0,0,0,0,0,0,0,0,0,0,0,0,0,0,0,0,
0,0,0,0,0,0,0,0,0,0,0,0,0,0,0,0,0,0,0,0,0,0,0,0,0,0,0,0,0,0,
0,0,0,0,0,0,0,0,0,0,0,0,0,0,0,0,0,0,0,0,0,0,0,0,0,0,0,0,0,0,
0,0,0,0,0,0,0,0,0,0,0,0,0,0,0,0,0,0,0,0,0,0,0,0,0,0,0,67,0,0,
0,0,0,0,0,0,0,0,0,0,0,0,0,0,0,0,0,0,0,0,0,0,0,0,0,0,0,0,0,0,
0,0,0,0,0,0,0,0,0,0,0,0,0,0,0,0,0,0,0,0,0,0,0,0,0,0,0,0,0,0,
0,69,0,0,0,0,0,0,0,0,0,0,0,0,0,0,0,0,0,0,0,0,0,0,0,0,0,67,0,0,
0,0,0,0,0,0,0,0,0,0,0,0,0,0,0,0,0,0,0,0,0,0,0,0,0,0,0,0,0,0,
0,0,0,0,0,0,0,0,0,0,0,0,0,0,0,0,0,0,0,0,0,0,0,0,0,0,0,0,0,0
</data>
  </layer>
  <layer id="4" name="shadow" width="30" height="12" offsetx="0" offsety="-20">
   <data encoding="csv">
0,0,0,0,0,0,0,0,0,0,0,0,0,0,0,0,0,0,0,0,0,0,0,0,0,0,0,0,0,0,
0,0,0,0,0,0,0,0,0,0,0,0,0,0,0,0,0,0,0,0,0,0,0,0,0,0,0,0,0,0,
0,0,0,0,0,0,0,0,0,0,0,0,0,0,0,0,0,0,0,0,0,0,0,0,0,0,0,0,0,0,
0,68,68,68,68,68,68,68,68,68,68,68,68,68,68,68,68,68,68,0,0,0,0,0,0,0,0,0,0,0,
0,0,0,0,0,0,0,0,0,0,0,0,0,0,0,0,0,0,67,0,0,0,0,0,0,0,0,0,0,0,
0,0,0,0,0,0,0,0,0,0,0,0,0,0,0,0,0,0,67,0,0,0,0,0,0,0,0,0,0,0,
0,0,0,0,0,0,0,0,0,0,0,0,0,0,0,0,0,0,67,68,68,68,68,68,68,68,68,68,0,0,
0,0,0,0,0,0,0,0,0,0,0,0,0,0,0,0,0,0,0,0,0,0,0,0,0,0,0,0,0,0,
0,0,0,0,0,0,0,0,0,0,0,0,0,0,0,0,0,0,0,0,0,0,0,0,0,0,0,0,0,0,
0,0,0,0,0,0,0,0,0,0,0,0,0,0,0,0,0,0,0,0,0,0,0,0,0,0,0,0,0,0,
0,0,0,0,0,0,0,0,0,0,0,0,0,0,0,0,0,0,0,0,0,0,0,0,0,0,0,0,0,0,
0,0,0,0,0,0,0,0,0,0,0,0,0,0,0,0,0,0,0,0,0,0,0,0,0,0,0,0,0,0
</data>
  </layer>
  <layer id="6" name="tree" width="30" height="12">
   <data encoding="csv">
150,151,152,150,151,152,150,151,152,150,151,152,150,151,152,150,151,152,150,151,152,150,151,152,150,151,152,150,151,152,
150,161,162,163,162,163,162,163,162,163,162,161,162,163,162,163,162,163,162,151,152,150,151,152,150,151,152,150,151,152,
153,172,173,174,173,174,173,174,173,174,173,172,173,174,173,174,173,174,173,149,152,150,151,152,150,151,152,150,151,152,
153,0,0,0,0,0,0,0,0,0,0,0,0,0,0,0,0,0,0,149,152,150,151,152,150,151,152,150,151,152,
153,0,0,0,0,0,0,0,0,0,0,0,0,0,0,0,0,0,0,160,161,162,163,162,163,162,163,162,163,162,
153,0,0,0,0,0,0,0,0,0,0,0,0,0,0,0,0,0,0,171,172,173,174,173,174,173,174,173,174,173,
153,0,0,0,0,0,0,0,0,0,0,0,0,0,0,0,0,0,0,0,0,0,0,0,0,0,0,0,0,0,
153,0,0,0,0,0,0,0,0,0,0,0,0,0,0,0,0,0,0,0,0,0,0,0,0,0,0,0,0,0,
153,0,0,0,0,0,0,0,0,0,0,0,0,0,0,0,0,0,0,0,0,0,0,0,0,0,0,0,0,0,
153,0,0,0,0,0,0,0,0,0,0,0,0,0,0,0,0,0,0,0,0,0,0,0,0,0,0,0,0,0,
192,0,0,0,0,0,0,0,0,0,0,0,0,0,0,0,0,0,0,0,0,0,0,0,0,0,0,0,0,0,
0,0,0,0,0,0,0,0,0,0,0,0,0,0,0,0,0,0,0,0,0,0,0,0,0,0,0,0,0,0
</data>
  </layer>
 </group>
 <objectgroup id="30" name="objects_evening_tree" visible="0">
  <object id="122" gid="643" x="0" y="400" width="1200" height="400">
   <properties>
    <property name="overcast_fade" type="bool" value="true"/>
    <property name="sunset" type="int" value="1"/>
   </properties>
  </object>
 </objectgroup>
 <imagelayer id="13" name="gate" offsetx="996" offsety="82">
  <image source="../../../../../../assets/sprites/world/maps/hometown/graveg.png" width="66" height="304"/>
 </imagelayer>
 <imagelayer id="17" name="graves" offsetx="152" offsety="70">
  <image source="../../../../../../assets/sprites/world/maps/hometown/graves.png" width="570" height="198"/>
 </imagelayer>
 <objectgroup id="27" name="objects_morning" visible="0">
  <object id="25" gid="465" x="152" y="268" width="570" height="198">
   <properties>
    <property name="sunrise" type="int" value="1"/>
    <property name="sunset" type="int" value="1"/>
   </properties>
  </object>
 </objectgroup>
 <objectgroup id="32" name="objects_evening" visible="0">
  <object id="565" gid="491" x="152" y="268" width="570" height="198">
   <properties>
    <property name="overcast_fade" type="bool" value="true"/>
    <property name="sunset" type="int" value="1"/>
   </properties>
  </object>
 </objectgroup>
 <objectgroup color="#ff00ff" id="9" name="objects_party">
  <object id="9" name="interactable" x="614" y="132" width="54" height="40">
   <properties>
    <property name="nighttext" value="* (It's a gravestone. It's kind of hard to read in the dark.)"/>
    <property name="solid" type="bool" value="true"/>
    <property name="text">* SHYRA
[wait:5]* A KARAOKE MICROPHONE FOR A BRAVE SINGER</property>
   </properties>
  </object>
  <object id="10" name="interactable" x="488" y="132" width="62" height="40">
   <properties>
    <property name="nighttext" value="* (It's a gravestone. It's kind of hard to read in the dark.)"/>
    <property name="solid" type="bool" value="true"/>
    <property name="text">* MUTTLER
[wait:5]* A BIG BONE FOR THE LEADER OF THE PACK</property>
   </properties>
  </object>
  <object id="11" name="interactable" x="322" y="132" width="66" height="40">
   <properties>
    <property name="nighttext" value="* (It's a gravestone. It's kind of hard to read in the dark.)"/>
    <property name="solid" type="bool" value="true"/>
    <property name="text">* CRYSTAL
[wait:5]* A SNOWY GEMSTONE FOR A PROUD MOTHER</property>
   </properties>
  </object>
  <object id="12" name="interactable" x="200" y="132" width="72" height="40">
   <properties>
    <property name="solid" type="bool" value="true"/>
    <property name="text">* GERSON
[wait:5]* RENOWNED HISTORIAN,[wait:5] AUTHOR,[wait:5] AND TEACHER</property>
   </properties>
  </object>
  <object id="15" name="interactable" x="52" y="120" width="78" height="42">
   <properties>
    <property name="solid" type="bool" value="true"/>
    <property name="text1" value="* (Gerson Boom Memorial Bench)"/>
    <property name="text2" value="* &quot;Throughout my career, some of my best ideas came from dreams.&quot;"/>
    <property name="text3" value="* &quot;Take a rest here.[wait:5] If anyone asks -- you're writing!&quot;"/>
    <property name="text4" value="* (You decided not to sit.)"/>
   </properties>
  </object>
  <object id="18" name="transition" x="1200" y="240" width="40" height="200">
   <properties>
    <property name="facing" value="right"/>
    <property name="map" value="light/hometown/town_church"/>
    <property name="marker" value="entrywest"/>
   </properties>
  </object>
  <object id="19" gid="330" x="52" y="162" width="78" height="50"/>
  <object id="21" name="npc" x="80" y="350">
   <properties>
    <property name="actor" value="brenda_lw"/>
    <property name="cutscene" value="hometown.brenda"/>
    <property name="dlc" value="dlc_forest"/>
    <property name="facing" value="left"/>
   </properties>
   <point/>
  </object>
  <object id="24" name="npc" x="235" y="195">
   <properties>
    <property name="actor" value="alvin"/>
    <property name="cutscene" value="hometown.alvingraveyard"/>
    <property name="flagcheck" value="alvinAtGraveyard"/>
   </properties>
   <point/>
  </object>
 </objectgroup>
 <objectgroup color="#ff00ff" id="10" name="markers">
  <object id="16" name="spawn" x="1160" y="320">
   <point/>
  </object>
 </objectgroup>
 <objectgroup id="18" name="controllers"/>
 <imagelayer id="12" name="gateup" offsetx="992" offsety="80">
  <image source="../../../../../../assets/sprites/world/maps/hometown/gravegup.png" width="66" height="320"/>
 </imagelayer>
 <layer id="11" name="tree2" width="30" height="12">
  <data encoding="csv">
0,0,0,0,0,0,0,0,0,0,0,0,0,0,0,0,0,0,0,0,0,0,0,0,0,0,0,0,0,0,
0,0,0,0,0,0,0,0,0,0,0,0,0,0,0,0,0,0,0,0,0,0,0,0,0,0,0,0,0,0,
0,0,0,0,0,0,0,0,0,0,0,0,0,0,0,0,0,0,0,0,0,0,0,0,0,0,0,0,0,0,
0,0,0,0,0,0,0,0,0,0,0,0,0,0,0,0,0,0,0,0,0,0,0,0,0,0,0,0,0,0,
0,0,0,0,0,0,0,0,0,0,0,0,0,0,0,0,0,0,0,0,0,0,0,0,0,0,0,0,0,0,
0,0,0,0,0,0,0,0,0,0,0,0,0,0,0,0,0,0,0,0,0,0,0,0,0,0,0,0,0,0,
0,0,0,0,0,0,0,0,0,0,0,0,0,0,0,0,0,0,0,0,0,0,0,0,0,0,0,0,0,0,
0,0,0,0,0,0,0,0,0,0,0,0,0,0,0,0,0,0,0,0,0,0,0,0,0,0,0,0,0,0,
0,0,0,0,0,0,0,0,0,0,0,0,0,0,0,0,0,0,0,0,0,0,0,0,0,0,0,0,0,0,
0,0,0,0,0,0,0,0,0,0,0,0,0,0,0,0,0,0,0,0,0,0,0,0,0,0,0,0,0,0,
0,139,140,139,140,139,140,139,140,139,140,139,140,139,140,139,140,139,140,139,140,139,140,139,140,139,140,139,140,141,
151,152,151,152,150,151,152,150,151,152,150,151,152,150,151,152,150,151,152,150,151,152,150,151,152,150,151,152,150,151
</data>
 </layer>
 <objectgroup id="31" name="objects_evening_treeup" visible="0">
  <object id="124" gid="644" x="0" y="480" width="1200" height="80">
   <properties>
    <property name="overcast_fade" type="bool" value="true"/>
    <property name="sunset" type="int" value="1"/>
   </properties>
  </object>
  <object id="125" name="entrywest" x="862" y="320">
   <point/>
  </object>
 </objectgroup>
 <objectgroup color="#5500ff" id="8" name="collision">
  <object id="1" x="0" y="440" width="1200" height="40"/>
  <object id="2" x="0" y="0" width="40" height="440"/>
  <object id="3" x="40" y="0" width="720" height="120"/>
  <object id="4" x="760" y="0" width="440" height="240"/>
  <object id="5" x="1000" y="360" width="26" height="80"/>
  <object id="6" x="1037" y="240" width="25" height="34"/>
  <object id="7" x="488" y="240" width="234" height="28"/>
  <object id="8" x="712" y="120" width="10" height="120"/>
  <object id="13" x="152" y="240" width="234" height="28"/>
  <object id="14" x="152" y="120" width="10" height="120"/>
 </objectgroup>
 <group id="21" name="shadows" visible="0">
  <objectgroup id="29" name="objects_shadows_evening_topcutout" visible="0"/>
  <objectgroup id="28" name="objects_shadows_morning_topcutout"/>
  <objectgroup id="23" name="objects_shadows_evening_cutout" visible="0">
   <object id="229" gid="537" x="208" y="268" width="10" height="20"/>
   <object id="230" gid="537" x="292" y="268" width="10" height="20"/>
   <object id="225" gid="537" x="180" y="268" width="10" height="20"/>
   <object id="234" gid="537" x="264" y="268" width="10" height="20"/>
   <object id="226" gid="537" x="236" y="268" width="10" height="20"/>
   <object id="231" gid="537" x="320" y="268" width="10" height="20"/>
   <object id="223" gid="537" x="166" y="268" width="10" height="20"/>
   <object id="228" gid="537" x="222" y="268" width="10" height="20"/>
   <object id="232" gid="537" x="306" y="268" width="10" height="20"/>
   <object id="224" gid="537" x="194" y="268" width="10" height="20"/>
   <object id="235" gid="537" x="278" y="268" width="10" height="20"/>
   <object id="227" gid="537" x="250" y="268" width="10" height="20"/>
   <object id="233" gid="537" x="334" y="268" width="10" height="20"/>
   <object id="236" gid="537" x="362" y="268" width="10" height="20"/>
   <object id="237" gid="537" x="348" y="268" width="10" height="20"/>
   <object id="238" gid="537" x="376" y="268" width="10" height="20"/>
   <object id="239" gid="537" x="488" y="268" width="10" height="20"/>
   <object id="319" gid="537" x="490" y="248" width="6" height="2"/>
   <object id="358" gid="537" x="280" y="248" width="6" height="2"/>
   <object id="374" gid="537" x="168" y="248" width="6" height="2"/>
   <object id="383" gid="537" x="162" y="262" width="214" height="6"/>
   <object id="384" gid="537" x="498" y="262" width="214" height="6"/>
   <object id="324" gid="537" x="518" y="248" width="6" height="2"/>
   <object id="355" gid="537" x="308" y="248" width="6" height="2"/>
   <object id="371" gid="537" x="196" y="248" width="6" height="2"/>
   <object id="328" gid="537" x="546" y="248" width="6" height="2"/>
   <object id="353" gid="537" x="336" y="248" width="6" height="2"/>
   <object id="369" gid="537" x="224" y="248" width="6" height="2"/>
   <object id="332" gid="537" x="574" y="248" width="6" height="2"/>
   <object id="351" gid="537" x="364" y="248" width="6" height="2"/>
   <object id="367" gid="537" x="252" y="248" width="6" height="2"/>
   <object id="321" gid="537" x="504" y="248" width="6" height="2"/>
   <object id="357" gid="537" x="294" y="248" width="6" height="2"/>
   <object id="373" gid="537" x="182" y="248" width="6" height="2"/>
   <object id="323" gid="537" x="532" y="248" width="6" height="2"/>
   <object id="356" gid="537" x="322" y="248" width="6" height="2"/>
   <object id="372" gid="537" x="210" y="248" width="6" height="2"/>
   <object id="327" gid="537" x="560" y="248" width="6" height="2"/>
   <object id="354" gid="537" x="350" y="248" width="6" height="2"/>
   <object id="370" gid="537" x="238" y="248" width="6" height="2"/>
   <object id="331" gid="537" x="588" y="248" width="6" height="2"/>
   <object id="352" gid="537" x="378" y="248" width="6" height="2"/>
   <object id="368" gid="537" x="266" y="248" width="6" height="2"/>
   <object id="320" gid="537" x="492" y="246" width="2" height="2"/>
   <object id="366" gid="537" x="282" y="246" width="2" height="2"/>
   <object id="382" gid="537" x="170" y="246" width="2" height="2"/>
   <object id="326" gid="537" x="520" y="246" width="2" height="2"/>
   <object id="363" gid="537" x="310" y="246" width="2" height="2"/>
   <object id="379" gid="537" x="198" y="246" width="2" height="2"/>
   <object id="330" gid="537" x="548" y="246" width="2" height="2"/>
   <object id="361" gid="537" x="338" y="246" width="2" height="2"/>
   <object id="377" gid="537" x="226" y="246" width="2" height="2"/>
   <object id="334" gid="537" x="576" y="246" width="2" height="2"/>
   <object id="359" gid="537" x="366" y="246" width="2" height="2"/>
   <object id="375" gid="537" x="254" y="246" width="2" height="2"/>
   <object id="322" gid="537" x="506" y="246" width="2" height="2"/>
   <object id="365" gid="537" x="296" y="246" width="2" height="2"/>
   <object id="381" gid="537" x="184" y="246" width="2" height="2"/>
   <object id="325" gid="537" x="534" y="246" width="2" height="2"/>
   <object id="364" gid="537" x="324" y="246" width="2" height="2"/>
   <object id="380" gid="537" x="212" y="246" width="2" height="2"/>
   <object id="329" gid="537" x="562" y="246" width="2" height="2"/>
   <object id="362" gid="537" x="352" y="246" width="2" height="2"/>
   <object id="378" gid="537" x="240" y="246" width="2" height="2"/>
   <object id="333" gid="537" x="590" y="246" width="2" height="2"/>
   <object id="360" gid="537" x="380" y="246" width="2" height="2"/>
   <object id="376" gid="537" x="268" y="246" width="2" height="2"/>
   <object id="240" gid="537" x="544" y="268" width="10" height="20"/>
   <object id="242" gid="537" x="516" y="268" width="10" height="20"/>
   <object id="244" gid="537" x="572" y="268" width="10" height="20"/>
   <object id="246" gid="537" x="502" y="268" width="10" height="20"/>
   <object id="247" gid="537" x="558" y="268" width="10" height="20"/>
   <object id="249" gid="537" x="530" y="268" width="10" height="20"/>
   <object id="251" gid="537" x="586" y="268" width="10" height="20"/>
   <object id="255" gid="537" x="712" y="268" width="10" height="20"/>
   <object id="270" gid="537" x="152" y="268" width="10" height="146"/>
   <object id="274" gid="330" x="52" y="162" width="78" height="50"/>
   <object id="392" gid="537" x="154" y="122" width="6" height="2"/>
   <object id="393" gid="537" x="156" y="120" width="2" height="2"/>
   <object id="478" gid="536" x="760" y="100" width="120" height="40"/>
   <object id="477" gid="536" x="760" y="140" width="120" height="40"/>
   <object id="470" gid="539" x="724" y="120" width="110" height="120"/>
   <object id="469" gid="539" x="644" y="120" width="110" height="120"/>
   <object id="468" gid="539" x="564" y="120" width="110" height="120"/>
   <object id="467" gid="539" x="484" y="120" width="110" height="120"/>
   <object id="466" gid="539" x="404" y="120" width="110" height="120"/>
   <object id="465" gid="539" x="324" y="120" width="110" height="120"/>
   <object id="464" gid="539" x="244" y="120" width="110" height="120"/>
   <object id="463" gid="539" x="164" y="120" width="110" height="120"/>
   <object id="462" gid="539" x="84" y="120" width="110" height="120"/>
   <object id="461" gid="539" x="4" y="120" width="110" height="120"/>
   <object id="476" gid="539" x="764" y="240" width="110" height="120"/>
   <object id="475" gid="539" x="844" y="240" width="110" height="120"/>
   <object id="474" gid="539" x="924" y="240" width="110" height="120"/>
   <object id="473" gid="539" x="1004" y="240" width="110" height="120"/>
   <object id="472" gid="539" x="1084" y="240" width="110" height="120"/>
   <object id="471" gid="539" x="1164" y="240" width="110" height="120"/>
   <object id="460" gid="539" x="964" y="522" width="110" height="120"/>
   <object id="459" gid="539" x="1044" y="522" width="110" height="120"/>
   <object id="458" gid="539" x="1124" y="522" width="110" height="120"/>
   <object id="457" gid="539" x="244" y="522" width="110" height="120"/>
   <object id="456" gid="539" x="164" y="522" width="110" height="120"/>
   <object id="455" gid="539" x="84" y="522" width="110" height="120"/>
   <object id="454" gid="539" x="4" y="522" width="110" height="120"/>
   <object id="453" gid="539" x="564" y="522" width="110" height="120"/>
   <object id="452" gid="539" x="484" y="522" width="110" height="120"/>
   <object id="451" gid="539" x="404" y="522" width="110" height="120"/>
   <object id="450" gid="539" x="324" y="522" width="110" height="120"/>
   <object id="449" gid="539" x="884" y="522" width="110" height="120"/>
   <object id="448" gid="539" x="804" y="522" width="110" height="120"/>
   <object id="447" gid="539" x="724" y="522" width="110" height="120"/>
   <object id="446" gid="539" x="644" y="522" width="110" height="120"/>
   <object id="479" gid="529" x="-80" y="120" width="120" height="40"/>
   <object id="480" gid="529" x="-80" y="160" width="120" height="40"/>
   <object id="481" gid="529" x="-80" y="200" width="120" height="40"/>
   <object id="482" gid="529" x="-80" y="240" width="120" height="40"/>
   <object id="483" gid="529" x="-80" y="280" width="120" height="40"/>
   <object id="484" gid="529" x="-80" y="320" width="120" height="40"/>
   <object id="485" gid="529" x="-80" y="360" width="120" height="40"/>
   <object id="486" gid="529" x="-80" y="400" width="120" height="40"/>
   <object id="487" gid="529" x="-80" y="440" width="120" height="40"/>
   <object id="488" gid="536" x="760" y="180" width="120" height="40"/>
   <object id="525" gid="537" x="600" y="268" width="10" height="20"/>
   <object id="526" gid="537" x="602" y="248" width="6" height="2"/>
   <object id="527" gid="537" x="630" y="248" width="6" height="2"/>
   <object id="528" gid="537" x="658" y="248" width="6" height="2"/>
   <object id="529" gid="537" x="686" y="248" width="6" height="2"/>
   <object id="530" gid="537" x="616" y="248" width="6" height="2"/>
   <object id="531" gid="537" x="644" y="248" width="6" height="2"/>
   <object id="532" gid="537" x="672" y="248" width="6" height="2"/>
   <object id="533" gid="537" x="700" y="248" width="6" height="2"/>
   <object id="534" gid="537" x="604" y="246" width="2" height="2"/>
   <object id="535" gid="537" x="632" y="246" width="2" height="2"/>
   <object id="536" gid="537" x="660" y="246" width="2" height="2"/>
   <object id="537" gid="537" x="688" y="246" width="2" height="2"/>
   <object id="538" gid="537" x="618" y="246" width="2" height="2"/>
   <object id="539" gid="537" x="646" y="246" width="2" height="2"/>
   <object id="540" gid="537" x="674" y="246" width="2" height="2"/>
   <object id="541" gid="537" x="702" y="246" width="2" height="2"/>
   <object id="542" gid="537" x="656" y="268" width="10" height="20"/>
   <object id="543" gid="537" x="628" y="268" width="10" height="20"/>
   <object id="544" gid="537" x="684" y="268" width="10" height="20"/>
   <object id="545" gid="537" x="614" y="268" width="10" height="20"/>
   <object id="546" gid="537" x="670" y="268" width="10" height="20"/>
   <object id="547" gid="537" x="642" y="268" width="10" height="20"/>
   <object id="548" gid="537" x="698" y="268" width="10" height="20"/>
   <object id="549" gid="537" x="714" y="248" width="6" height="2"/>
   <object id="550" gid="537" x="716" y="246" width="2" height="2"/>
   <object id="571" gid="572" x="992" y="400" width="70" height="320"/>
   <object id="574" gid="571" x="200" y="180" width="476" height="110"/>
  </objectgroup>
  <objectgroup id="24" name="objects_shadows_morning_cutout">
   <object id="56" gid="536" x="760" y="100" width="120" height="40"/>
   <object id="57" gid="536" x="760" y="140" width="120" height="40"/>
   <object id="58" gid="536" x="760" y="180" width="120" height="40"/>
   <object id="59" gid="539" x="724" y="120" width="110" height="120"/>
   <object id="61" gid="539" x="644" y="120" width="110" height="120"/>
   <object id="67" gid="539" x="164" y="120" width="110" height="120"/>
   <object id="68" gid="539" x="84" y="120" width="110" height="120"/>
   <object id="69" gid="539" x="4" y="120" width="110" height="120"/>
   <object id="79" gid="539" x="764" y="240" width="110" height="120"/>
   <object id="80" gid="539" x="844" y="240" width="110" height="120"/>
   <object id="81" gid="539" x="924" y="240" width="110" height="120"/>
   <object id="82" gid="539" x="1004" y="240" width="110" height="120"/>
   <object id="83" gid="539" x="1084" y="240" width="110" height="120"/>
   <object id="84" gid="539" x="1164" y="240" width="110" height="120"/>
   <object id="75" gid="539" x="964" y="522" width="110" height="120"/>
   <object id="77" gid="539" x="1044" y="522" width="110" height="120"/>
   <object id="78" gid="539" x="1124" y="522" width="110" height="120"/>
   <object id="85" gid="539" x="244" y="522" width="110" height="120"/>
   <object id="86" gid="539" x="164" y="522" width="110" height="120"/>
   <object id="87" gid="539" x="84" y="522" width="110" height="120"/>
   <object id="88" gid="539" x="4" y="522" width="110" height="120"/>
   <object id="91" gid="539" x="564" y="522" width="110" height="120"/>
   <object id="92" gid="539" x="484" y="522" width="110" height="120"/>
   <object id="93" gid="539" x="404" y="522" width="110" height="120"/>
   <object id="94" gid="539" x="324" y="522" width="110" height="120"/>
   <object id="95" gid="539" x="884" y="522" width="110" height="120"/>
   <object id="96" gid="539" x="804" y="522" width="110" height="120"/>
   <object id="97" gid="539" x="724" y="522" width="110" height="120"/>
   <object id="98" gid="539" x="644" y="522" width="110" height="120"/>
   <object id="572" gid="572" x="992" y="400" width="70" height="320"/>
   <object id="576" gid="539" x="404" y="120" width="110" height="120"/>
   <object id="577" gid="539" x="484" y="120" width="110" height="120"/>
   <object id="578" gid="573" x="258" y="90" width="400" height="46"/>
   <object id="579" gid="537" x="260" y="50" width="400" height="52"/>
  </objectgroup>
  <objectgroup id="26" name="objects_shadows_evening" visible="0">
   <object id="136" gid="3221226031" x="604" y="242" width="138.696" height="24" rotation="-90"/>
   <object id="139" gid="551" x="80" y="268" width="296" height="10"/>
   <object id="140" gid="551" x="78" y="266" width="2" height="6"/>
   <object id="163" gid="551" x="78" y="146" width="2" height="2"/>
   <object id="166" gid="551" x="130" y="268" width="6" height="148"/>
   <object id="168" gid="551" x="414" y="266" width="2" height="6"/>
   <object id="169" gid="551" x="416" y="268" width="296" height="10"/>
   <object id="192" gid="551" x="690" y="268" width="4" height="148"/>
   <object id="133" gid="551" x="600" y="248" width="180" height="178"/>
   <object id="134" gid="559" x="600" y="268" width="110" height="24"/>
   <object id="126" gid="559" x="1020" y="260" width="110" height="24"/>
   <object id="131" gid="559" x="1104" y="260" width="110" height="24"/>
   <object id="127" gid="559" x="936" y="260" width="110" height="24"/>
   <object id="128" gid="559" x="860" y="260" width="110" height="24"/>
   <object id="129" gid="559" x="798" y="260" width="110" height="24"/>
   <object id="445" gid="559" x="708" y="260" width="110" height="24"/>
   <object id="130" gid="551" x="760" y="248" width="440" height="82"/>
   <object id="137" gid="551" x="20" y="120" width="580" height="50"/>
   <object id="138" gid="551" x="30" y="430" width="1170" height="28"/>
   <object id="193" gid="559" x="158" y="140" width="110" height="24"/>
   <object id="206" gid="559" x="242" y="140" width="110" height="24"/>
   <object id="194" gid="559" x="82" y="140" width="110" height="24"/>
   <object id="195" gid="559" x="20" y="140" width="110" height="24"/>
   <object id="208" gid="559" x="380" y="140" width="110" height="24"/>
   <object id="209" gid="559" x="304" y="140" width="110" height="24"/>
   <object id="215" gid="559" x="464" y="140" width="110" height="24"/>
   <object id="217" gid="559" x="526" y="140" width="110" height="24"/>
   <object id="264" gid="568" x="426" y="172" width="64" height="12"/>
   <object id="265" gid="568" x="260" y="172" width="64" height="12"/>
   <object id="266" gid="568" x="552" y="172" width="64" height="12"/>
   <object id="268" gid="568" x="154" y="172" width="58" height="12"/>
   <object id="273" gid="551" x="20" y="162" width="100" height="20"/>
   <object id="489" gid="551" x="120" y="156" width="10" height="10"/>
   <object id="490" gid="551" x="76" y="264" width="2" height="2"/>
   <object id="491" gid="551" x="80" y="254" width="72" height="10"/>
   <object id="492" gid="551" x="78" y="252" width="2" height="6"/>
   <object id="493" gid="551" x="76" y="250" width="2" height="2"/>
   <object id="494" gid="551" x="412" y="264" width="2" height="2"/>
   <object id="501" gid="551" x="80" y="240" width="72" height="10"/>
   <object id="502" gid="551" x="78" y="238" width="2" height="6"/>
   <object id="503" gid="551" x="76" y="236" width="2" height="2"/>
   <object id="504" gid="551" x="80" y="226" width="72" height="10"/>
   <object id="505" gid="551" x="78" y="224" width="2" height="6"/>
   <object id="506" gid="551" x="76" y="222" width="2" height="2"/>
   <object id="507" gid="551" x="80" y="212" width="72" height="10"/>
   <object id="508" gid="551" x="78" y="210" width="2" height="6"/>
   <object id="509" gid="551" x="76" y="208" width="2" height="2"/>
   <object id="510" gid="551" x="80" y="198" width="72" height="10"/>
   <object id="511" gid="551" x="78" y="196" width="2" height="6"/>
   <object id="512" gid="551" x="76" y="194" width="2" height="2"/>
   <object id="513" gid="551" x="80" y="184" width="72" height="10"/>
   <object id="514" gid="551" x="78" y="182" width="2" height="6"/>
   <object id="515" gid="551" x="76" y="180" width="2" height="2"/>
   <object id="516" gid="551" x="80" y="170" width="72" height="10"/>
   <object id="517" gid="551" x="78" y="168" width="2" height="6"/>
   <object id="518" gid="551" x="76" y="166" width="2" height="2"/>
   <object id="521" gid="551" x="130" y="156" width="22" height="10"/>
   <object id="522" gid="551" x="130" y="142" width="22" height="10"/>
   <object id="560" gid="551" x="640" y="252" width="72" height="10"/>
   <object id="563" gid="551" x="910" y="400" width="112" height="2"/>
  </objectgroup>
  <objectgroup id="34" name="objects_evening_shadow_collision" visible="0">
   <object id="566" name="eveningshadowfull" x="600" y="120" width="180" height="128">
    <properties>
     <property name="sunset" type="int" value="1"/>
    </properties>
   </object>
   <object id="567" name="eveningshadowfull" x="552" y="160" width="64" height="12">
    <properties>
     <property name="sunset" type="int" value="1"/>
    </properties>
   </object>
   <object id="568" name="eveningshadowfull" x="426" y="160" width="64" height="12">
    <properties>
     <property name="sunset" type="int" value="1"/>
    </properties>
   </object>
   <object id="569" name="eveningshadowfull" x="260" y="160" width="64" height="12">
    <properties>
     <property name="sunset" type="int" value="1"/>
    </properties>
   </object>
   <object id="570" name="eveningshadowfull" x="148" y="160" width="64" height="12">
    <properties>
     <property name="sunset" type="int" value="1"/>
    </properties>
   </object>
  </objectgroup>
  <objectgroup id="25" name="objects_shadows_morning">
   <object id="33" gid="559" x="150" y="258" width="80" height="24"/>
   <object id="34" gid="559" x="230" y="258" width="80" height="24"/>
   <object id="35" gid="559" x="310" y="258" width="80" height="24"/>
   <object id="36" gid="559" x="390" y="258" width="80" height="24"/>
   <object id="37" gid="559" x="470" y="258" width="80" height="24"/>
   <object id="38" gid="559" x="550" y="258" width="80" height="24"/>
   <object id="39" gid="559" x="630" y="258" width="80" height="24"/>
   <object id="40" gid="559" x="710" y="258" width="80" height="24"/>
   <object id="43" gid="554" x="26" y="380" width="14" height="40"/>
   <object id="44" gid="554" x="26" y="180" width="14" height="40"/>
   <object id="45" gid="554" x="26" y="140" width="14" height="40"/>
   <object id="46" gid="557" x="26" y="404" width="14" height="24"/>
   <object id="47" gid="554" x="26" y="260" width="14" height="40"/>
   <object id="48" gid="554" x="26" y="220" width="14" height="40"/>
   <object id="49" gid="554" x="26" y="340" width="14" height="40"/>
   <object id="50" gid="554" x="26" y="300" width="14" height="40"/>
   <object id="51" gid="555" x="756" y="180" width="18" height="40"/>
   <object id="52" gid="555" x="756" y="140" width="18" height="40"/>
   <object id="53" gid="555" x="756" y="100" width="18" height="40"/>
   <object id="55" gid="551" x="760" y="200" width="40" height="20"/>
   <object id="70" gid="554" x="26" y="100" width="14" height="40"/>
   <object id="103" gid="562" x="152" y="292" width="588" height="50"/>
   <object id="107" gid="559" x="1040" y="384" width="80" height="24"/>
   <object id="108" gid="559" x="1120" y="384" width="80" height="24"/>
   <object id="109" gid="559" x="960" y="384" width="80" height="24"/>
   <object id="111" gid="1073742383" x="160" y="270" width="80" height="24" rotation="90"/>
   <object id="112" gid="1073742383" x="160" y="350" width="80" height="24" rotation="90"/>
   <object id="116" gid="2147484207" x="765" y="274" width="80" height="24" rotation="45"/>
   <object id="117" gid="2147484207" x="809" y="321" width="80" height="24" rotation="45"/>
   <object id="118" gid="559" x="880" y="384" width="80" height="24"/>
   <object id="120" gid="2147484207" x="735" y="248" width="80" height="24" rotation="45"/>
  </objectgroup>
  <layer id="20" name="tiles_shadows_evening" width="30" height="12" visible="0">
   <data encoding="csv">
0,0,0,0,0,0,0,0,0,0,0,0,0,0,0,0,0,0,0,0,0,0,0,0,0,0,0,0,0,0,
0,0,0,0,0,0,0,0,0,0,0,0,0,0,0,0,0,0,0,0,0,0,0,0,0,0,0,0,0,0,
0,0,0,0,0,0,0,0,0,0,0,0,0,0,0,0,0,0,0,0,0,0,0,0,0,0,0,0,0,0,
0,0,0,0,0,0,0,0,0,0,0,0,0,0,0,0,0,0,0,0,0,0,0,0,0,0,0,0,0,0,
0,0,0,0,0,0,0,0,0,0,0,0,0,0,0,0,0,0,0,0,0,0,0,0,0,0,0,0,0,0,
0,0,0,0,0,0,0,0,0,0,0,0,0,0,0,0,0,0,0,0,0,0,0,0,0,0,0,0,0,0,
0,0,0,0,0,0,0,0,0,0,0,0,0,0,0,0,0,0,0,0,0,0,0,0,0,0,0,0,0,0,
0,0,0,0,0,0,0,0,0,0,0,0,0,0,0,0,0,0,0,0,0,0,0,0,0,0,0,0,0,0,
0,0,0,0,0,0,0,0,0,0,0,0,0,0,0,0,0,0,0,0,0,0,0,0,0,0,0,0,0,0,
0,0,0,0,0,0,0,0,0,0,0,0,0,0,0,0,0,0,0,0,0,0,0,0,0,0,0,0,0,0,
0,0,0,0,0,0,0,0,0,0,0,0,0,0,0,0,0,0,0,0,0,0,0,0,0,0,0,0,0,0,
0,0,0,0,0,0,0,0,0,0,0,0,0,0,0,0,0,0,0,0,0,0,0,0,0,0,0,0,0,0
</data>
  </layer>
  <layer id="22" name="tiles_shadows_morning" width="30" height="12">
   <data encoding="csv">
0,0,0,0,0,0,0,0,0,0,0,0,0,0,0,0,0,0,0,0,0,0,0,0,0,0,0,0,0,0,
0,578,578,578,578,578,578,578,578,578,578,578,578,578,578,578,578,578,578,0,0,0,0,0,0,0,0,0,0,0,
0,578,578,578,578,578,578,578,578,578,578,578,578,578,578,578,578,578,578,0,0,0,0,0,0,0,0,0,0,0,
0,578,578,578,578,578,578,578,578,578,578,578,578,578,578,578,578,578,578,0,0,0,0,0,0,0,0,0,0,0,
0,578,578,578,578,578,578,578,578,578,578,578,578,578,578,578,578,578,578,0,0,578,578,578,578,578,578,578,578,578,
0,578,578,578,578,578,578,578,578,578,578,578,578,578,578,578,578,578,578,578,578,578,578,578,578,578,578,578,578,578,
0,578,578,578,581,0,0,0,0,0,0,0,0,0,0,0,0,0,0,585,578,578,578,578,578,578,578,578,578,578,
0,578,578,578,0,0,0,0,0,0,0,0,0,0,0,0,0,0,0,0,585,578,578,578,578,578,578,578,578,578,
0,578,578,578,0,0,0,0,0,0,0,0,0,0,0,0,0,0,0,0,0,585,578,578,578,578,578,578,578,578,
0,578,578,578,0,0,0,0,0,0,0,0,0,0,0,0,0,0,0,0,0,0,0,0,0,0,0,0,0,0,
0,578,578,578,0,0,0,0,0,0,0,0,0,0,0,0,0,0,0,0,0,0,0,0,0,0,0,0,0,0,
0,0,0,0,0,0,0,0,0,0,0,0,0,0,0,0,0,0,0,0,0,0,0,0,0,0,0,0,0,0
</data>
  </layer>
 </group>
 <objectgroup color="#00aa00" id="19" name="objects_overlay">
  <object id="23" name="hometowndaynight" x="0" y="0">
   <point/>
  </object>
 </objectgroup>
 <imagelayer id="16" name="overlay" visible="0" parallaxx="0.9">
  <image source="../../../../../../assets/sprites/world/maps/hometown/graveyardover.png" width="1200" height="480"/>
 </imagelayer>
</map>
