<?xml version="1.0" encoding="UTF-8"?>
<map version="1.11" tiledversion="1.12.1" orientation="orthogonal" renderorder="right-down" width="66" height="12" tilewidth="40" tileheight="40" infinite="0" nextlayerid="38" nextobjectid="412">
 <editorsettings>
  <export target="data.lua" format="lua"/>
 </editorsettings>
 <properties>
  <property name="border" value="leaves"/>
  <property name="light" type="bool" value="true"/>
  <property name="music" value="hometown"/>
 </properties>
 <tileset firstgid="1" source="../../../../tilesets/hometown.tsx"/>
 <tileset firstgid="287" source="../../../../tilesets/hometownobjects.tsx"/>
 <tileset firstgid="492" source="../../../../tilesets/hometownshadows.tsx"/>
 <tileset firstgid="520" source="../../../../tilesets/hometownshadowsobjects.tsx"/>
 <tileset firstgid="601" source="../../../../tilesets/hometowneveningtreeobjects.tsx"/>
 <tileset firstgid="644" source="../../../../tilesets/hometownbuildingshadowsobjects.tsx"/>
 <group id="9" name="main">
  <layer id="1" name="tile" width="66" height="12">
   <data encoding="csv">
57,57,57,57,57,57,57,57,57,57,57,57,57,57,57,57,57,57,57,57,57,57,57,57,57,57,57,57,57,57,57,57,57,57,57,57,57,57,57,57,15,13,13,13,17,57,57,57,57,57,57,57,57,57,57,57,57,57,57,57,57,57,57,57,57,57,
57,57,57,57,57,57,57,57,57,57,57,60,60,60,60,60,60,60,60,60,57,57,57,57,57,57,57,57,57,57,57,57,57,57,57,57,57,57,57,57,15,13,24,13,17,57,57,57,57,57,57,57,57,57,57,57,57,57,57,57,57,57,57,57,57,57,
57,57,57,57,57,57,57,57,57,57,57,60,60,60,60,60,60,60,60,60,57,57,57,57,57,57,57,57,57,57,57,57,57,57,57,57,57,57,57,57,15,13,13,13,17,57,57,57,57,57,57,57,57,57,57,57,57,57,57,57,57,57,57,57,57,57,
57,57,57,57,57,57,57,57,57,57,57,60,60,60,60,60,60,60,60,60,57,57,57,57,57,57,57,57,57,57,57,57,57,57,57,57,57,57,57,57,15,13,24,13,17,57,57,57,57,57,57,57,57,57,57,57,57,57,57,57,57,57,57,57,57,57,
57,57,57,57,57,57,57,57,57,57,57,60,60,60,60,60,60,60,60,60,57,57,57,57,57,57,57,57,57,57,57,57,57,57,57,57,57,57,57,57,15,13,13,13,17,57,57,57,57,57,57,57,57,57,57,57,57,57,57,57,57,57,57,57,57,57,
57,57,57,57,57,57,57,57,57,57,57,71,71,71,71,71,71,71,71,71,57,57,57,57,71,71,71,71,71,71,71,71,71,71,71,71,71,71,71,72,15,13,24,13,17,70,71,71,71,71,71,71,71,71,71,71,71,71,71,71,57,57,57,57,57,57,
27,27,27,27,27,27,27,27,27,27,27,27,27,27,27,27,27,27,27,27,27,27,27,27,27,27,27,27,27,27,27,27,27,27,27,27,27,27,27,27,13,13,13,13,13,27,27,27,27,27,27,27,27,27,27,27,27,27,27,27,27,27,27,27,27,27,
13,13,13,13,13,13,13,13,13,13,13,13,13,13,13,13,13,13,13,13,13,13,13,13,13,13,13,13,13,13,13,13,13,13,13,13,13,13,13,13,13,13,24,13,13,13,13,13,13,13,13,13,13,13,13,13,13,13,13,13,13,13,13,13,13,13,
13,25,13,25,13,25,13,25,13,25,13,25,13,25,13,25,13,25,13,25,13,25,13,25,13,25,13,25,13,25,13,25,13,25,13,25,13,25,13,25,13,25,13,25,13,25,13,25,13,25,13,25,13,25,13,25,13,25,13,25,13,25,13,25,13,25,
13,13,13,13,13,13,13,13,13,13,13,13,13,13,13,13,13,13,13,13,13,13,13,13,13,13,13,13,13,13,13,13,13,13,13,13,13,13,13,13,13,13,24,13,13,13,13,13,13,13,13,13,13,13,13,13,13,13,13,13,13,13,13,13,13,13,
27,27,27,27,27,27,27,27,27,27,27,27,27,27,27,27,27,27,27,27,27,27,27,27,27,27,27,27,27,27,27,27,27,27,27,27,27,27,27,27,13,13,13,13,13,27,27,27,27,27,27,27,27,27,27,27,27,27,27,27,27,27,27,27,27,27,
57,57,57,57,57,57,57,57,57,57,57,57,57,57,57,57,57,57,57,57,57,57,57,57,57,57,57,57,57,57,57,57,57,57,57,57,57,57,57,57,15,13,24,13,17,57,57,57,57,57,57,57,57,57,57,57,57,57,57,57,57,57,57,57,57,57
</data>
  </layer>
  <layer id="3" name="tile2" width="66" height="12">
   <data encoding="csv">
0,0,0,0,0,0,0,0,0,0,0,0,0,0,0,0,0,0,0,0,0,0,0,0,0,0,0,0,0,0,0,0,0,0,0,0,0,0,0,0,0,0,0,0,0,0,0,0,0,0,0,0,0,0,0,0,0,0,0,0,0,0,0,0,0,0,
0,0,0,0,0,0,0,0,0,0,0,69,0,0,0,0,0,0,0,67,0,0,0,0,0,0,0,0,0,0,0,0,0,0,0,0,0,0,0,0,0,0,0,0,0,0,0,0,0,0,0,0,0,0,0,0,0,0,0,0,0,0,0,0,0,0,
0,0,0,0,0,0,0,0,0,0,0,69,0,0,0,0,0,0,0,67,0,0,0,0,0,0,0,0,0,0,0,0,0,0,0,0,0,0,0,0,0,0,0,0,0,0,0,0,0,0,0,0,0,0,0,0,0,0,0,0,0,0,0,0,0,0,
0,0,0,0,0,0,0,0,0,0,0,69,0,0,0,0,0,0,0,67,0,0,0,0,0,0,0,0,0,0,0,0,0,0,0,0,0,0,0,0,0,0,0,0,0,0,0,0,0,0,0,0,0,0,0,0,0,0,0,0,0,0,0,0,0,0,
0,0,0,0,0,0,0,0,0,0,0,69,0,0,0,0,0,0,0,67,0,0,0,0,0,0,0,0,0,0,0,0,0,0,0,0,0,0,0,0,0,0,0,0,0,0,0,0,0,0,0,0,0,0,0,0,0,0,0,0,0,0,0,0,0,0,
0,0,0,0,0,0,0,0,0,0,0,69,0,0,0,0,0,0,0,67,0,0,0,0,0,0,0,0,0,0,0,0,0,0,0,0,0,0,0,0,0,0,0,0,0,0,0,0,0,0,0,0,0,0,0,0,0,0,0,0,0,0,0,0,0,0,
0,0,0,0,0,0,0,0,0,0,0,0,0,0,0,0,0,0,0,0,0,0,0,0,0,0,0,0,0,0,0,0,0,0,0,0,0,0,0,0,28,0,0,0,26,0,0,0,0,0,0,0,0,0,0,0,0,0,0,0,0,0,0,0,0,0,
0,0,0,0,0,0,0,0,0,0,0,0,0,0,0,0,0,0,0,0,0,0,0,0,0,0,0,0,0,0,0,0,0,0,0,0,0,0,0,0,0,0,0,0,0,0,0,0,0,0,0,0,0,0,0,0,0,0,0,0,0,0,0,0,0,0,
0,0,0,0,0,0,0,0,0,0,0,0,0,0,0,0,0,0,0,0,0,0,0,0,0,0,0,0,0,0,0,0,0,0,0,0,0,0,0,0,0,0,0,0,0,0,0,0,0,0,0,0,0,0,0,0,0,0,0,0,0,0,0,0,0,0,
0,0,0,0,0,0,0,0,0,0,0,0,0,0,0,0,0,0,0,0,0,0,0,0,0,0,0,0,0,0,0,0,0,0,0,0,0,0,0,0,0,0,0,0,0,0,0,0,0,0,0,0,0,0,0,0,0,0,0,0,0,0,0,0,0,0,
0,0,0,0,0,0,0,0,0,0,0,0,0,0,0,0,0,0,0,0,0,0,0,0,0,0,0,0,0,0,0,0,0,0,0,0,0,0,0,0,120,0,0,0,118,0,0,0,0,0,0,0,0,0,0,0,0,0,0,0,0,0,0,0,0,0,
0,0,0,0,0,0,0,0,0,0,0,0,0,0,0,0,0,0,0,0,0,0,0,0,0,0,0,0,0,0,0,0,0,0,0,0,0,0,0,0,0,0,0,0,0,0,0,0,0,0,0,0,0,0,0,0,0,0,0,0,0,0,0,0,0,0
</data>
  </layer>
  <layer id="4" name="shadow" width="66" height="12" offsetx="0" offsety="-20">
   <data encoding="csv">
0,0,0,0,0,0,0,0,0,0,0,0,0,0,0,0,0,0,0,0,0,0,0,0,0,0,0,0,0,0,0,0,0,0,0,0,0,0,0,0,0,0,0,0,0,0,0,0,0,0,0,0,0,0,0,0,0,0,0,0,0,0,0,0,0,0,
0,0,0,0,0,0,0,0,0,0,0,68,68,68,68,68,68,68,68,68,0,0,0,0,0,0,0,0,0,0,0,0,0,0,0,0,0,0,0,0,0,0,0,0,0,0,0,0,0,0,0,0,0,0,0,0,0,0,0,0,0,0,0,0,0,0,
0,0,0,0,0,0,0,0,0,0,0,0,0,0,0,0,0,0,0,0,0,0,0,0,0,0,0,0,0,0,0,0,0,0,0,0,0,0,0,0,0,0,0,0,0,0,0,0,0,0,0,0,0,0,0,0,0,0,0,0,0,0,0,0,0,0,
0,0,0,0,0,0,0,0,0,0,0,0,0,0,0,0,0,0,0,0,0,0,0,0,0,0,0,0,0,0,0,0,0,0,0,0,0,0,0,0,0,0,0,0,0,0,0,0,0,0,0,0,0,0,0,0,0,0,0,0,0,0,0,0,0,0,
0,0,0,0,0,0,0,0,0,0,0,0,0,0,0,0,0,0,0,0,0,0,0,0,0,0,0,0,0,0,0,0,0,0,0,0,0,0,0,0,0,0,0,0,0,0,0,0,0,0,0,0,0,0,0,0,0,0,0,0,0,0,0,0,0,0,
0,0,0,0,0,0,0,0,0,0,0,0,0,0,0,0,0,0,0,0,0,0,0,0,68,68,68,68,68,0,0,0,0,68,68,68,68,68,68,68,0,0,0,0,0,68,68,68,68,0,0,0,0,0,0,0,0,0,0,68,0,0,0,0,0,0,
0,0,0,0,0,0,0,0,0,0,0,0,0,0,0,0,0,0,0,0,0,0,0,0,0,0,0,0,0,0,0,0,0,0,0,0,0,0,0,0,0,0,0,0,0,0,0,0,0,0,0,0,0,0,0,0,0,0,0,0,0,0,0,0,0,0,
0,0,0,0,0,0,0,0,0,0,0,0,0,0,0,0,0,0,0,0,0,0,0,0,0,0,0,0,0,0,0,0,0,0,0,0,0,0,0,0,0,0,0,0,0,0,0,0,0,0,0,0,0,0,0,0,0,0,0,0,0,0,0,0,0,0,
0,0,0,0,0,0,0,0,0,0,0,0,0,0,0,0,0,0,0,0,0,0,0,0,0,0,0,0,0,0,0,0,0,0,0,0,0,0,0,0,0,0,0,0,0,0,0,0,0,0,0,0,0,0,0,0,0,0,0,0,0,0,0,0,0,0,
0,0,0,0,0,0,0,0,0,0,0,0,0,0,0,0,0,0,0,0,0,0,0,0,0,0,0,0,0,0,0,0,0,0,0,0,0,0,0,0,0,0,0,0,0,0,0,0,0,0,0,0,0,0,0,0,0,0,0,0,0,0,0,0,0,0,
0,0,0,0,0,0,0,0,0,0,0,0,0,0,0,0,0,0,0,0,0,0,0,0,0,0,0,0,0,0,0,0,0,0,0,0,0,0,0,0,0,0,0,0,0,0,0,0,0,0,0,0,0,0,0,0,0,0,0,0,0,0,0,0,0,0,
0,0,0,0,0,0,0,0,0,0,0,0,0,0,0,0,0,0,0,0,0,0,0,0,0,0,0,0,0,0,0,0,0,0,0,0,0,0,0,0,0,0,0,0,0,0,0,0,0,0,0,0,0,0,0,0,0,0,0,0,0,0,0,0,0,0
</data>
  </layer>
  <layer id="5" name="tree" width="66" height="12">
   <data encoding="csv">
0,0,0,0,0,0,0,0,0,0,174,175,0,0,0,0,0,0,0,116,0,0,0,0,116,0,0,0,0,0,0,0,0,0,0,0,0,93,94,95,0,0,0,0,0,93,94,95,0,0,0,0,0,0,0,0,0,0,0,0,0,150,151,152,150,151,
0,0,0,0,0,0,0,0,0,0,0,0,0,0,0,0,0,0,0,0,0,0,0,0,0,0,0,0,0,0,0,0,0,0,0,0,0,93,94,95,0,0,0,0,0,93,94,95,0,0,0,0,0,0,0,0,0,0,0,0,0,0,0,0,0,0,
0,0,0,0,0,0,0,0,0,0,0,0,0,0,0,0,0,0,0,0,0,0,0,0,0,0,0,0,0,0,0,0,0,0,0,0,0,93,94,95,0,0,0,0,0,93,94,95,0,0,0,0,0,0,0,0,0,0,0,0,0,0,0,0,0,0,
0,0,0,0,0,0,0,0,0,0,0,0,0,0,0,0,0,0,0,0,0,0,0,0,0,0,0,0,0,0,0,0,0,0,0,0,0,104,105,106,0,0,0,0,0,104,105,106,0,0,0,0,0,0,0,0,0,0,0,0,0,0,0,0,0,0,
0,0,0,0,0,0,0,0,0,0,0,0,0,0,0,0,0,0,0,0,0,0,0,0,0,0,0,0,0,0,0,0,0,0,0,0,0,115,116,117,0,0,0,0,0,115,116,117,0,0,0,0,0,0,0,0,0,0,0,0,0,0,0,0,0,0,
0,0,0,0,0,0,0,0,0,0,0,0,0,0,0,0,0,0,0,0,0,0,0,0,0,0,0,0,0,0,0,0,0,0,0,0,0,0,0,0,0,0,0,0,0,0,0,0,0,0,0,0,0,0,0,0,0,0,0,0,0,0,0,0,0,0,
0,0,0,0,0,0,0,0,0,0,0,0,0,0,0,0,0,0,0,0,0,0,0,0,0,0,0,0,0,0,0,0,0,0,0,0,0,0,0,0,0,0,0,0,0,0,0,0,0,0,0,0,0,0,0,0,0,0,0,0,0,0,0,0,0,0,
0,0,0,0,0,0,0,0,0,0,0,0,0,0,0,0,0,0,0,0,0,0,0,0,0,0,0,0,0,0,0,0,0,0,0,0,0,0,0,0,0,0,0,0,0,0,0,0,0,0,0,0,0,0,0,0,0,0,0,0,0,0,0,0,0,0,
0,0,0,0,0,0,0,0,0,0,0,0,0,0,0,0,0,0,0,0,0,0,0,0,0,0,0,0,0,0,0,0,0,0,0,0,0,0,0,0,0,0,0,0,0,0,0,0,0,0,0,0,0,0,0,0,0,0,0,0,0,0,0,0,0,0,
0,0,0,0,0,0,0,0,0,0,0,0,0,0,0,0,0,0,0,0,0,0,0,0,0,0,0,0,0,0,0,0,0,0,0,0,0,0,0,0,0,0,0,0,0,0,0,0,0,0,0,0,0,0,0,0,0,0,0,0,0,0,0,0,0,0,
0,0,0,0,0,0,0,0,0,0,0,0,0,0,0,0,0,0,0,0,0,0,0,0,0,0,0,0,0,0,0,0,0,0,0,0,0,0,0,0,0,0,0,0,0,0,0,0,0,0,0,0,0,0,0,0,0,0,0,0,0,0,0,0,0,0,
0,0,0,0,0,0,0,0,0,0,0,0,0,0,0,0,0,0,0,0,0,0,0,0,0,0,0,0,0,0,0,0,0,0,0,0,0,0,0,0,0,0,0,0,0,0,0,0,0,0,0,0,0,0,0,0,0,0,0,0,0,0,0,0,0,0
</data>
  </layer>
  <layer id="6" name="tree2" width="66" height="12" offsetx="0" offsety="20">
   <data encoding="csv">
0,0,0,0,0,0,0,0,0,0,153,0,0,0,0,0,0,0,0,0,0,0,0,0,0,0,0,0,0,0,0,0,0,0,0,0,0,0,0,0,0,0,0,0,0,0,0,0,0,0,0,0,0,0,0,0,0,0,0,0,149,150,151,150,151,152,
0,0,0,0,0,0,0,0,0,0,153,0,0,0,0,0,0,0,0,0,0,0,0,0,0,0,0,0,0,0,0,0,0,0,0,0,0,0,0,0,0,0,0,0,0,0,0,0,0,0,0,0,0,0,0,0,0,0,0,0,149,150,151,150,151,152,
0,0,0,0,0,0,0,0,0,0,153,0,0,0,0,0,0,0,0,0,0,0,0,0,0,0,0,0,0,0,0,0,0,0,0,0,0,0,0,0,0,0,0,0,0,0,0,0,0,0,0,0,0,0,0,0,0,0,0,0,149,150,151,150,151,152,
162,163,162,161,162,163,162,161,162,163,164,0,0,0,0,0,0,0,0,0,0,0,0,0,0,0,0,0,0,0,0,0,0,0,0,0,0,0,0,0,0,0,0,0,0,0,0,0,0,0,0,0,0,0,0,0,0,0,0,0,160,161,162,161,162,161,
173,174,173,172,173,174,173,172,173,174,175,0,0,0,0,0,0,0,0,0,0,0,0,0,0,0,0,0,0,0,0,0,0,0,0,0,0,0,0,0,0,0,0,0,0,0,0,0,0,0,0,0,0,0,0,0,0,0,0,0,171,172,173,172,173,172,
0,0,0,0,0,0,0,0,0,0,0,0,0,0,0,0,0,0,0,0,0,0,0,0,0,0,0,0,0,0,0,0,0,0,0,0,0,0,0,0,0,0,0,0,0,0,0,0,0,0,0,0,0,0,0,0,0,0,0,0,0,0,0,0,0,0,
0,0,0,0,0,0,0,0,0,0,0,0,0,0,0,0,0,0,0,0,0,0,0,0,0,0,0,0,0,0,0,0,0,0,0,0,0,0,0,0,0,0,0,0,0,0,0,0,0,0,0,0,0,0,0,0,0,0,0,0,0,0,0,0,0,0,
0,0,0,0,0,0,0,0,0,0,0,0,0,0,0,0,0,0,0,0,0,0,0,0,0,0,0,0,0,0,0,0,0,0,0,0,0,0,0,0,0,0,0,0,0,0,0,0,0,0,0,0,0,0,0,0,0,0,0,0,0,0,0,0,0,0,
0,0,0,0,0,0,0,0,0,0,0,0,0,0,0,0,0,0,0,0,0,0,0,0,0,0,0,0,0,0,0,0,0,0,0,0,0,0,0,0,0,0,0,0,0,0,0,0,0,0,0,0,0,0,0,0,0,0,0,0,0,0,0,0,0,0,
0,0,0,0,0,0,0,0,0,0,0,0,0,0,0,0,0,0,0,0,0,0,0,0,0,0,0,0,0,0,0,0,0,0,0,0,0,0,0,0,0,0,0,0,0,0,0,0,0,0,0,0,0,0,0,0,0,0,0,0,0,0,0,0,0,0,
0,0,0,0,0,0,0,0,0,0,0,0,0,0,0,0,0,0,0,0,0,0,0,0,0,0,0,0,0,0,0,0,0,0,0,0,0,0,0,0,0,0,0,0,0,0,0,0,0,0,0,0,0,0,0,0,0,0,0,0,0,0,0,0,0,0,
0,0,0,0,0,0,0,0,0,0,0,0,0,0,0,0,0,0,0,0,0,0,0,0,0,0,0,0,0,0,0,0,0,0,0,0,0,0,0,0,0,0,0,0,0,0,0,0,0,0,0,0,0,0,0,0,0,0,0,0,0,0,0,0,0,0
</data>
  </layer>
  <layer id="8" name="tree2down" width="66" height="12" offsetx="0" offsety="-20">
   <data encoding="csv">
151,150,150,151,150,150,151,150,151,152,153,0,0,0,0,0,0,0,0,0,0,0,0,0,0,0,0,0,0,0,0,0,0,0,0,0,0,0,0,0,0,0,0,0,0,0,0,0,0,0,0,0,0,0,0,0,0,0,0,0,149,150,151,150,151,152,
151,150,150,151,150,150,151,150,151,152,0,0,0,0,0,0,0,0,0,0,0,0,0,0,0,0,0,0,0,0,0,0,0,0,0,0,0,0,0,0,0,0,0,0,0,0,0,0,0,0,0,0,0,0,0,0,0,0,0,0,0,150,151,150,150,152,
151,150,150,151,150,150,151,150,151,152,0,0,0,0,0,0,0,0,0,0,0,0,0,0,0,0,0,0,0,0,0,0,0,0,0,0,0,0,0,0,0,0,0,0,0,0,0,0,0,0,0,0,0,0,0,0,0,0,0,0,0,150,151,150,150,152,
151,150,151,150,151,150,151,150,151,152,0,0,0,0,0,0,0,0,0,0,0,0,0,0,0,0,0,0,0,0,0,0,0,0,0,0,0,0,0,0,0,0,0,0,0,0,0,0,0,0,0,0,0,0,0,0,0,0,0,0,0,150,151,150,151,152,
0,0,0,0,0,0,0,0,0,0,0,0,0,0,0,0,0,0,0,0,0,0,0,0,0,0,0,0,0,0,0,0,0,0,0,0,0,0,0,0,0,0,0,0,0,0,0,0,0,0,0,0,0,0,0,0,0,0,0,0,0,0,0,0,0,0,
0,0,0,0,0,0,0,0,0,0,0,0,0,0,0,0,0,0,0,0,0,0,0,0,0,0,0,0,0,0,0,0,0,0,0,0,0,0,0,0,0,0,0,0,0,0,0,0,0,0,0,0,0,0,0,0,0,0,0,0,0,0,0,0,0,0,
0,0,0,0,0,0,0,0,0,0,0,0,0,0,0,0,0,0,0,0,0,0,0,0,0,0,0,0,0,0,0,0,0,0,0,0,0,0,0,0,0,0,0,0,0,0,0,0,0,0,0,0,0,0,0,0,0,0,0,0,0,0,0,0,0,0,
0,0,0,0,0,0,0,0,0,0,0,0,0,0,0,0,0,0,0,0,0,0,0,0,0,0,0,0,0,0,0,0,0,0,0,0,0,0,0,0,0,0,0,0,0,0,0,0,0,0,0,0,0,0,0,0,0,0,0,0,0,0,0,0,0,0,
0,0,0,0,0,0,0,0,0,0,0,0,0,0,0,0,0,0,0,0,0,0,0,0,0,0,0,0,0,0,0,0,0,0,0,0,0,0,0,0,0,0,0,0,0,0,0,0,0,0,0,0,0,0,0,0,0,0,0,0,0,0,0,0,0,0,
0,0,0,0,0,0,0,0,0,0,0,0,0,0,0,0,0,0,0,0,0,0,0,0,0,0,0,0,0,0,0,0,0,0,0,0,0,0,0,0,0,0,0,0,0,0,0,0,0,0,0,0,0,0,0,0,0,0,0,0,0,0,0,0,0,0,
0,0,0,0,0,0,0,0,0,0,0,0,0,0,0,0,0,0,0,0,0,0,0,0,0,0,0,0,0,0,0,0,0,0,0,0,0,0,0,0,0,0,0,0,0,0,0,0,0,0,0,0,0,0,0,0,0,0,0,0,0,0,0,0,0,0,
0,0,0,0,0,0,0,0,0,0,0,0,0,0,0,0,0,0,0,0,0,0,0,0,0,0,0,0,0,0,0,0,0,0,0,0,0,0,0,0,0,0,0,0,0,0,0,0,0,0,0,0,0,0,0,0,0,0,0,0,0,0,0,0,0,0
</data>
  </layer>
  <layer id="7" name="tree3" width="66" height="12" offsetx="20" offsety="-20">
   <data encoding="csv">
0,0,0,0,0,0,0,0,0,0,0,0,0,0,0,0,0,0,0,93,150,151,152,153,0,0,0,0,0,0,0,0,0,0,0,0,0,0,0,0,0,0,0,0,0,0,0,0,0,0,0,0,0,0,0,0,0,0,0,0,0,0,0,0,0,0,
0,0,0,0,0,0,0,0,0,0,0,0,0,0,0,0,0,0,0,93,150,151,152,153,0,0,0,0,0,0,0,0,0,0,0,0,0,0,0,0,0,0,0,0,0,0,0,0,0,0,0,0,0,0,0,0,0,0,0,0,0,0,0,0,0,0,
0,0,0,0,0,0,0,0,0,0,0,0,0,0,0,0,0,0,0,93,150,151,152,153,0,0,0,0,0,0,0,0,0,0,0,0,0,0,0,0,0,0,0,0,0,0,0,0,0,0,0,0,0,0,0,0,0,0,0,0,0,0,0,0,0,0,
0,0,0,0,0,0,0,0,0,0,0,0,0,0,0,0,0,0,0,93,150,151,152,153,0,0,0,0,0,0,0,0,0,0,0,0,0,0,0,0,0,0,0,0,0,0,0,0,0,0,0,0,0,0,0,0,0,0,0,0,0,0,0,0,0,0,
0,0,0,0,0,0,0,0,0,0,0,0,0,0,0,0,0,0,0,104,161,162,163,164,0,0,0,0,0,0,0,0,0,0,0,0,0,0,0,0,0,0,0,0,0,0,0,0,0,0,0,0,0,0,0,0,0,0,0,0,0,0,0,0,0,0,
0,0,0,0,0,0,0,0,0,0,0,0,0,0,0,0,0,0,0,115,172,173,174,175,0,0,0,0,0,0,0,0,0,0,0,0,0,0,0,0,0,0,0,0,0,0,0,0,0,0,0,0,0,0,0,0,0,0,0,0,0,0,0,0,0,0,
0,0,0,0,0,0,0,0,0,0,0,0,0,0,0,0,0,0,0,0,0,0,0,0,0,0,0,0,0,0,0,0,0,0,0,0,0,0,0,0,0,0,0,0,0,0,0,0,0,0,0,0,0,0,0,0,0,0,0,0,0,0,0,0,0,0,
0,0,0,0,0,0,0,0,0,0,0,0,0,0,0,0,0,0,0,0,0,0,0,0,0,0,0,0,0,0,0,0,0,0,0,0,0,0,0,0,0,0,0,0,0,0,0,0,0,0,0,0,0,0,0,0,0,0,0,0,0,0,0,0,0,0,
0,0,0,0,0,0,0,0,0,0,0,0,0,0,0,0,0,0,0,0,0,0,0,0,0,0,0,0,0,0,0,0,0,0,0,0,0,0,0,0,0,0,0,0,0,0,0,0,0,0,0,0,0,0,0,0,0,0,0,0,0,0,0,0,0,0,
0,0,0,0,0,0,0,0,0,0,0,0,0,0,0,0,0,0,0,0,0,0,0,0,0,0,0,0,0,0,0,0,0,0,0,0,0,0,0,0,0,0,0,0,0,0,0,0,0,0,0,0,0,0,0,0,0,0,0,0,0,0,0,0,0,0,
0,0,0,0,0,0,0,0,0,0,0,0,0,0,0,0,0,0,0,0,0,0,0,0,0,0,0,0,0,0,0,0,0,0,0,0,0,0,0,0,0,0,0,0,0,0,0,0,0,0,0,0,0,0,0,0,0,0,0,0,0,0,0,0,0,0,
0,0,0,0,0,0,0,0,0,0,0,0,0,0,0,0,0,0,0,0,0,0,0,0,0,0,0,0,0,0,0,0,0,0,0,0,0,0,0,0,0,0,0,0,0,0,0,0,0,0,0,0,0,0,0,0,0,0,0,0,0,0,0,0,0,0
</data>
  </layer>
 </group>
 <objectgroup id="34" name="objects_evening_tree" visible="0">
  <object id="236" gid="629" x="0" y="226" width="460" height="226">
   <properties>
    <property name="overcast_fade" type="bool" value="true"/>
    <property name="sunset" type="int" value="1"/>
   </properties>
  </object>
  <object id="241" gid="632" x="2396" y="226" width="244" height="226">
   <properties>
    <property name="overcast_fade" type="bool" value="true"/>
    <property name="sunset" type="int" value="1"/>
   </properties>
  </object>
  <object id="242" gid="633" x="1468" y="212" width="458" height="212">
   <properties>
    <property name="overcast_fade" type="bool" value="true"/>
    <property name="sunset" type="int" value="1"/>
   </properties>
  </object>
  <object id="243" gid="634" x="752" y="230" width="264" height="230">
   <properties>
    <property name="overcast_fade" type="bool" value="true"/>
    <property name="sunset" type="int" value="1"/>
   </properties>
  </object>
 </objectgroup>
 <objectgroup id="21" name="objects_deco">
  <object id="43" gid="342" x="460" y="242" width="302" height="242"/>
  <object id="44" gid="336" x="1008" y="226" width="468" height="234"/>
  <object id="45" gid="340" x="1920" y="218" width="462" height="218"/>
  <object id="46" gid="344" x="-70" y="400" width="102" height="200">
   <properties>
    <property name="day" type="int" value="1"/>
    <property name="night" type="int" value="1"/>
   </properties>
  </object>
  <object id="47" gid="344" x="0" y="420" width="102" height="200">
   <properties>
    <property name="day" type="int" value="1"/>
    <property name="night" type="int" value="1"/>
   </properties>
  </object>
  <object id="48" gid="343" x="22" y="460" width="134" height="270">
   <properties>
    <property name="day" type="int" value="1"/>
    <property name="night" type="int" value="1"/>
   </properties>
  </object>
 </objectgroup>
 <objectgroup id="36" name="objects_evening" visible="0">
  <object id="244" gid="655" x="460" y="244" width="302" height="244">
   <properties>
    <property name="overcast_fade" type="bool" value="true"/>
    <property name="sunset" type="int" value="1"/>
   </properties>
  </object>
  <object id="245" gid="652" x="1008" y="226" width="468" height="234">
   <properties>
    <property name="overcast_fade" type="bool" value="true"/>
    <property name="sunset" type="int" value="1"/>
   </properties>
  </object>
  <object id="246" gid="653" x="1920" y="220" width="464" height="220">
   <properties>
    <property name="overcast_fade" type="bool" value="true"/>
    <property name="sunset" type="int" value="1"/>
   </properties>
  </object>
  <object id="398" gid="486" x="22" y="460" width="134" height="270">
   <properties>
    <property name="sunset" type="int" value="1"/>
   </properties>
  </object>
  <object id="410" gid="487" x="-70" y="400" width="102" height="200">
   <properties>
    <property name="sunset" type="int" value="1"/>
   </properties>
  </object>
  <object id="411" gid="487" x="0" y="420" width="102" height="200">
   <properties>
    <property name="sunset" type="int" value="1"/>
   </properties>
  </object>
 </objectgroup>
 <objectgroup id="31" name="objects_morning" visible="0">
  <object id="54" gid="453" x="1008" y="226" width="468" height="234">
   <properties>
    <property name="sunrise" type="int" value="1"/>
   </properties>
  </object>
  <object id="55" gid="457" x="1920" y="218" width="462" height="218">
   <properties>
    <property name="sunrise" type="int" value="1"/>
   </properties>
  </object>
  <object id="56" gid="449" x="460" y="244" width="302" height="244">
   <properties>
    <property name="sunrise" type="int" value="1"/>
   </properties>
  </object>
  <object id="407" gid="488" x="22" y="460" width="134" height="270">
   <properties>
    <property name="sunrise" type="int" value="1"/>
   </properties>
  </object>
  <object id="408" gid="489" x="-70" y="400" width="102" height="200">
   <properties>
    <property name="sunrise" type="int" value="1"/>
   </properties>
  </object>
  <object id="409" gid="489" x="0" y="420" width="102" height="200">
   <properties>
    <property name="sunrise" type="int" value="1"/>
   </properties>
  </object>
 </objectgroup>
 <objectgroup color="#ff00ff" id="11" name="objects_party">
  <object id="16" name="transition" x="1600" y="-40" width="200" height="40">
   <properties>
    <property name="facing" value="up"/>
    <property name="map" value="light/hometown/town_mid"/>
    <property name="marker" value="entrysouth"/>
   </properties>
  </object>
  <object id="17" name="transition" x="1600" y="480" width="200" height="40">
   <properties>
    <property name="facing" value="down"/>
    <property name="map" value="light/hometown/town_church"/>
    <property name="marker" value="spawn"/>
   </properties>
  </object>
  <object id="19" name="transition" x="2640" y="220" width="40" height="220">
   <properties>
    <property name="facing" value="right"/>
    <property name="map" value="light/hometown/town_school"/>
    <property name="marker" value="spawn"/>
   </properties>
  </object>
  <object id="27" name="transition" x="1202" y="176" width="80" height="40">
   <properties>
    <property name="exit_delay" type="float" value="0.3"/>
    <property name="exit_sound" value="doorclose"/>
    <property name="facing" value="up"/>
    <property name="map" value="light/hometown/interior/hospital_lobby"/>
    <property name="marker" value="spawn"/>
    <property name="sound" value="dooropen"/>
   </properties>
  </object>
  <object id="30" name="transition" x="486" y="170" width="60" height="40">
   <properties>
    <property name="exit_delay" type="float" value="0.3"/>
    <property name="exit_sound" value="doorclose"/>
    <property name="facing" value="up"/>
    <property name="map" value="light/hometown/interior/police_station"/>
    <property name="marker" value="spawn"/>
    <property name="sound" value="dooropen"/>
   </properties>
  </object>
  <object id="31" name="transition" x="2008" y="174" width="60" height="40">
   <properties>
    <property name="exit_delay" type="float" value="0.3"/>
    <property name="exit_sound" value="doorclose"/>
    <property name="facing" value="up"/>
    <property name="map" value="light/hometown/interior/library_lobby"/>
    <property name="marker" value="spawn"/>
    <property name="sound" value="dooropen"/>
   </properties>
  </object>
  <object id="33" name="interactable" x="0" y="200" width="80" height="240">
   <properties>
    <property name="text1" value="* (There's more police tape.)"/>
    <property name="text2" value="* (It says &quot;NGAHHHH!!![wait:5] I MEAN IT!!!&quot;)"/>
    <property name="text3" value="* (It's not clear what is meant by that.)"/>
   </properties>
  </object>
  <object id="34" name="interactable" x="80" y="200" width="40" height="200">
   <properties>
    <property name="text1" value="* (There's more police tape.)"/>
    <property name="text2" value="* (It says &quot;NGAHHHH!!![wait:5] I MEAN IT!!!&quot;)"/>
    <property name="text3" value="* (It's not clear what is meant by that.)"/>
   </properties>
  </object>
  <object id="36" name="interactable" x="120" y="200" width="32" height="119">
   <properties>
    <property name="text1" value="* (There's more police tape.)"/>
    <property name="text2" value="* (It says &quot;NGAHHHH!!![wait:5] I MEAN IT!!!&quot;)"/>
    <property name="text3" value="* (It's not clear what is meant by that.)"/>
   </properties>
  </object>
  <object id="50" name="script" x="1480" y="200" width="40" height="240">
   <properties>
    <property name="cutscene" value="hometown_digi.wrongway_b"/>
    <property name="flagcheck" value="!digi_complete"/>
    <property name="once" type="bool" value="false"/>
   </properties>
  </object>
  <object id="51" name="script" x="2440" y="200" width="40" height="240">
   <properties>
    <property name="cutscene" value="hometown_digi.wrongway_c"/>
    <property name="flagcheck" value="!digi_complete"/>
    <property name="once" type="bool" value="false"/>
   </properties>
  </object>
  <object id="52" name="script" x="1600" y="80" width="200" height="40">
   <properties>
    <property name="cutscene" value="hometown_digi.wrongway_d"/>
    <property name="flagcheck" value="!digi_complete"/>
    <property name="once" type="bool" value="false"/>
   </properties>
  </object>
 </objectgroup>
 <objectgroup color="#ff00ff" id="12" name="markers">
  <object id="15" name="spawn" x="1700" y="40">
   <point/>
  </object>
  <object id="20" name="entryeast" x="2600" y="320">
   <point/>
  </object>
  <object id="24" name="entrysouth" x="1700" y="440" visible="0">
   <point/>
  </object>
  <object id="26" name="entryhospital" x="1242" y="260">
   <point/>
  </object>
  <object id="29" name="entrypolice" x="516" y="260">
   <point/>
  </object>
  <object id="32" name="entrylibrary" x="2038" y="260">
   <point/>
  </object>
 </objectgroup>
 <layer id="13" name="treeup" width="66" height="12" offsetx="0" offsety="22">
  <data encoding="csv">
0,0,0,0,0,0,0,0,0,0,0,0,0,0,0,0,0,0,0,0,0,0,0,0,0,0,0,0,0,0,0,0,0,0,0,0,0,0,0,0,0,0,0,0,0,0,0,0,0,0,0,0,0,0,0,0,0,0,0,0,0,0,0,0,0,0,
0,0,0,0,0,0,0,0,0,0,0,0,0,0,0,0,0,0,0,0,0,0,0,0,0,0,0,0,0,0,0,0,0,0,0,0,0,0,0,0,0,0,0,0,0,0,0,0,0,0,0,0,0,0,0,0,0,0,0,0,0,0,0,0,0,0,
0,0,0,0,0,0,0,0,0,0,0,0,0,0,0,0,0,0,0,0,0,0,0,0,0,0,0,0,0,0,0,0,0,0,0,0,0,0,0,0,0,0,0,0,0,0,0,0,0,0,0,0,0,0,0,0,0,0,0,0,0,0,0,0,0,0,
0,0,0,0,0,0,0,0,0,0,0,0,0,0,0,0,0,0,0,0,0,0,0,0,0,0,0,0,0,0,0,0,0,0,0,0,0,0,0,0,0,0,0,0,0,0,0,0,0,0,0,0,0,0,0,0,0,0,0,0,0,0,0,0,0,0,
0,0,0,0,0,0,0,0,0,0,0,0,0,0,0,0,0,0,0,0,0,0,0,0,0,0,0,0,0,0,0,0,0,0,0,0,0,0,0,0,0,0,0,0,0,0,0,0,0,0,0,0,0,0,0,0,0,0,0,0,0,0,0,0,0,0,
0,0,0,0,0,0,0,0,0,0,0,0,0,0,0,0,0,0,0,0,0,0,0,0,0,0,0,0,0,0,0,0,0,0,0,0,0,0,0,0,0,0,0,0,0,0,0,0,0,0,0,0,0,0,0,0,0,0,0,0,0,0,0,0,0,0,
0,0,0,0,0,0,0,0,0,0,0,0,0,0,0,0,0,0,0,0,0,0,0,0,0,0,0,0,0,0,0,0,0,0,0,0,0,0,0,0,0,0,0,0,0,0,0,0,0,0,0,0,0,0,0,0,0,0,0,0,0,0,0,0,0,0,
0,0,0,0,0,0,0,0,0,0,0,0,0,0,0,0,0,0,0,0,0,0,0,0,0,0,0,0,0,0,0,0,0,0,0,0,0,0,0,0,0,0,0,0,0,0,0,0,0,0,0,0,0,0,0,0,0,0,0,0,0,0,0,0,0,0,
0,0,0,0,0,0,0,0,0,0,0,0,0,0,0,0,0,0,0,0,0,0,0,0,0,0,0,0,0,0,0,0,0,0,0,0,0,0,0,0,0,0,0,0,0,0,0,0,0,0,0,0,0,0,0,0,0,0,0,0,0,0,0,0,0,0,
0,0,0,0,0,0,0,0,0,0,0,0,0,0,0,0,0,0,0,0,0,0,0,0,0,0,0,0,0,0,0,0,0,0,0,0,0,0,0,0,0,0,0,0,0,0,0,0,0,0,0,0,0,0,0,0,0,0,0,0,0,0,0,0,0,0,
134,135,136,135,134,135,136,135,134,135,136,135,134,135,136,135,134,135,136,135,134,135,136,135,134,135,136,135,134,135,136,135,134,135,136,135,134,135,136,137,0,0,0,0,0,133,134,135,134,135,134,135,134,135,134,135,134,135,134,135,134,135,134,135,134,135,
150,151,152,151,152,151,152,151,152,151,152,151,152,151,152,151,152,151,152,151,152,151,152,151,152,151,152,151,152,151,152,151,152,151,152,151,152,151,152,148,0,0,0,0,0,144,150,151,150,151,150,151,150,151,150,151,150,151,150,151,150,151,150,151,150,151
</data>
 </layer>
 <objectgroup id="35" name="objects_evening_treeup" visible="0">
  <object id="239" gid="630" x="0" y="480" width="1598" height="84">
   <properties>
    <property name="overcast_fade" type="bool" value="true"/>
    <property name="sunset" type="int" value="1"/>
   </properties>
  </object>
  <object id="240" gid="631" x="1790" y="480" width="850" height="86">
   <properties>
    <property name="overcast_fade" type="bool" value="true"/>
    <property name="sunset" type="int" value="1"/>
   </properties>
  </object>
 </objectgroup>
 <objectgroup color="#5500ff" id="10" name="collision">
  <object id="1" x="0" y="440" width="1600" height="40"/>
  <object id="2" x="0" y="0" width="440" height="220"/>
  <object id="3" x="780" y="0" width="198" height="220"/>
  <object id="4" x="1480" y="0" width="120" height="200"/>
  <object id="5" x="1800" y="0" width="120" height="200"/>
  <object id="6" x="2400" y="0" width="240" height="220"/>
  <object id="7" x="1800" y="440" width="840" height="40"/>
  <object id="10" x="1920" y="0" width="88" height="218"/>
  <object id="11" x="2068" y="0" width="332" height="218"/>
  <object id="12" x="1008" y="0" width="194" height="226"/>
  <object id="13" x="1282" y="0" width="194" height="226"/>
  <object id="14" x="460" y="0" width="28" height="216"/>
  <object id="22" x="160" y="200">
   <polygon points="0,0 -80,240 -160,240 -160,0"/>
  </object>
  <object id="28" x="546" y="0" width="216" height="216"/>
 </objectgroup>
 <group id="23" name="shadows" visible="0">
  <objectgroup id="33" name="objects_shadows_evening_topcutout"/>
  <objectgroup id="32" name="objects_shadows_morning_topcutout"/>
  <objectgroup id="27" name="objects_shadows_evening_cutout">
   <object id="292" gid="567" x="1484" y="200" width="110" height="120"/>
   <object id="293" gid="567" x="1804" y="200" width="110" height="120"/>
   <object id="294" gid="567" x="2404" y="220" width="110" height="120"/>
   <object id="295" gid="567" x="2484" y="220" width="110" height="120"/>
   <object id="296" gid="567" x="2564" y="220" width="110" height="120"/>
   <object id="297" gid="557" x="2400" y="140" width="120" height="40"/>
   <object id="298" gid="557" x="2400" y="100" width="120" height="40"/>
   <object id="299" gid="557" x="2400" y="60" width="120" height="40"/>
   <object id="301" gid="557" x="2400" y="20" width="120" height="40"/>
   <object id="302" gid="557" x="1800" y="40" width="120" height="40"/>
   <object id="303" gid="557" x="1800" y="80" width="120" height="40"/>
   <object id="304" gid="557" x="1800" y="120" width="120" height="40"/>
   <object id="305" gid="557" x="1480" y="40" width="120" height="40"/>
   <object id="306" gid="557" x="1480" y="80" width="120" height="40"/>
   <object id="307" gid="557" x="1480" y="120" width="120" height="40"/>
   <object id="308" gid="557" x="860" y="140" width="120" height="40"/>
   <object id="309" gid="557" x="860" y="100" width="120" height="40"/>
   <object id="310" gid="557" x="860" y="60" width="120" height="40"/>
   <object id="311" gid="557" x="860" y="20" width="120" height="40"/>
   <object id="312" gid="557" x="780" y="140" width="120" height="40"/>
   <object id="313" gid="557" x="780" y="100" width="120" height="40"/>
   <object id="314" gid="557" x="780" y="60" width="120" height="40"/>
   <object id="315" gid="557" x="780" y="20" width="120" height="40"/>
   <object id="316" gid="567" x="864" y="220" width="110" height="120"/>
   <object id="318" gid="567" x="784" y="220" width="110" height="120"/>
   <object id="319" gid="557" x="320" y="20" width="120" height="40"/>
   <object id="320" gid="557" x="320" y="60" width="120" height="40"/>
   <object id="321" gid="557" x="320" y="100" width="120" height="40"/>
   <object id="322" gid="557" x="320" y="140" width="120" height="40"/>
   <object id="324" gid="567" x="244" y="220" width="110" height="120"/>
   <object id="325" gid="567" x="164" y="220" width="110" height="120"/>
   <object id="326" gid="567" x="84" y="220" width="110" height="120"/>
   <object id="327" gid="567" x="4" y="220" width="110" height="120"/>
   <object id="328" gid="567" x="-76" y="220" width="110" height="120"/>
   <object id="329" gid="567" x="364" y="542" width="110" height="120"/>
   <object id="330" gid="567" x="284" y="542" width="110" height="120"/>
   <object id="331" gid="567" x="204" y="542" width="110" height="120"/>
   <object id="332" gid="567" x="124" y="542" width="110" height="120"/>
   <object id="333" gid="567" x="44" y="542" width="110" height="120"/>
   <object id="334" gid="567" x="-36" y="542" width="110" height="120"/>
   <object id="335" gid="567" x="844" y="542" width="110" height="120"/>
   <object id="336" gid="567" x="764" y="542" width="110" height="120"/>
   <object id="337" gid="567" x="684" y="542" width="110" height="120"/>
   <object id="338" gid="567" x="604" y="542" width="110" height="120"/>
   <object id="339" gid="567" x="524" y="542" width="110" height="120"/>
   <object id="340" gid="567" x="444" y="542" width="110" height="120"/>
   <object id="341" gid="567" x="1324" y="542" width="110" height="120"/>
   <object id="342" gid="567" x="1244" y="542" width="110" height="120"/>
   <object id="343" gid="567" x="1164" y="542" width="110" height="120"/>
   <object id="344" gid="567" x="1084" y="542" width="110" height="120"/>
   <object id="345" gid="567" x="1004" y="542" width="110" height="120"/>
   <object id="346" gid="567" x="924" y="542" width="110" height="120"/>
   <object id="347" gid="567" x="1484" y="542" width="110" height="120"/>
   <object id="348" gid="567" x="1404" y="542" width="110" height="120"/>
   <object id="371" gid="567" x="2444" y="542" width="110" height="120"/>
   <object id="372" gid="567" x="2364" y="542" width="110" height="120"/>
   <object id="373" gid="567" x="2284" y="542" width="110" height="120"/>
   <object id="374" gid="567" x="2204" y="542" width="110" height="120"/>
   <object id="375" gid="567" x="2124" y="542" width="110" height="120"/>
   <object id="376" gid="567" x="2604" y="542" width="110" height="120"/>
   <object id="377" gid="567" x="2524" y="542" width="110" height="120"/>
   <object id="378" gid="567" x="2044" y="542" width="110" height="120"/>
   <object id="379" gid="567" x="1964" y="542" width="110" height="120"/>
   <object id="380" gid="567" x="1884" y="542" width="110" height="120"/>
   <object id="381" gid="567" x="1804" y="542" width="110" height="120"/>
   <object id="382" gid="568" x="320" y="220" width="120" height="120"/>
   <object id="388" gid="565" x="1360" y="216" width="104" height="28"/>
   <object id="389" gid="565" x="1360" y="224" width="90" height="4"/>
   <object id="390" gid="565" x="1360" y="220" width="102" height="4"/>
   <object id="400" gid="487" x="-70" y="400" width="102" height="200"/>
   <object id="401" gid="487" x="0" y="420" width="102" height="200"/>
   <object id="403" gid="566" x="48" y="424" width="94" height="194"/>
  </objectgroup>
  <objectgroup id="28" name="objects_shadows_morning_cutout" visible="0">
   <object id="80" gid="567" x="1804" y="200" width="110" height="120"/>
   <object id="81" gid="567" x="1804" y="160" width="110" height="120"/>
   <object id="82" gid="567" x="1804" y="120" width="110" height="120"/>
   <object id="83" gid="567" x="1804" y="82" width="110" height="120"/>
   <object id="84" gid="567" x="1484" y="200" width="110" height="120"/>
   <object id="88" gid="567" x="864" y="220" width="110" height="120"/>
   <object id="92" gid="567" x="784" y="220" width="110" height="120"/>
   <object id="144" gid="567" x="324" y="220" width="110" height="120"/>
   <object id="145" gid="567" x="244" y="220" width="110" height="120"/>
   <object id="146" gid="567" x="164" y="220" width="110" height="120"/>
   <object id="147" gid="567" x="84" y="220" width="110" height="120"/>
   <object id="148" gid="567" x="4" y="220" width="110" height="120"/>
   <object id="149" gid="567" x="-76" y="220" width="110" height="120"/>
   <object id="153" gid="567" x="2564" y="220" width="110" height="120"/>
   <object id="154" gid="567" x="2484" y="220" width="110" height="120"/>
   <object id="155" gid="567" x="2404" y="220" width="110" height="120"/>
   <object id="221" gid="567" x="2204" y="542" width="110" height="120"/>
   <object id="222" gid="567" x="2124" y="542" width="110" height="120"/>
   <object id="223" gid="567" x="2044" y="542" width="110" height="120"/>
   <object id="224" gid="567" x="1964" y="542" width="110" height="120"/>
   <object id="225" gid="567" x="1884" y="542" width="110" height="120"/>
   <object id="226" gid="567" x="1804" y="542" width="110" height="120"/>
   <object id="227" gid="567" x="2364" y="542" width="110" height="120"/>
   <object id="228" gid="567" x="2284" y="542" width="110" height="120"/>
   <object id="229" gid="567" x="2444" y="542" width="110" height="120"/>
   <object id="230" gid="567" x="2604" y="542" width="110" height="120"/>
   <object id="231" gid="567" x="2524" y="542" width="110" height="120"/>
   <object id="172" gid="567" x="364" y="542" width="110" height="120"/>
   <object id="173" gid="567" x="284" y="542" width="110" height="120"/>
   <object id="174" gid="567" x="204" y="542" width="110" height="120"/>
   <object id="175" gid="567" x="124" y="542" width="110" height="120"/>
   <object id="176" gid="567" x="44" y="542" width="110" height="120"/>
   <object id="177" gid="567" x="-36" y="542" width="110" height="120"/>
   <object id="178" gid="567" x="844" y="542" width="110" height="120"/>
   <object id="179" gid="567" x="764" y="542" width="110" height="120"/>
   <object id="180" gid="567" x="684" y="542" width="110" height="120"/>
   <object id="181" gid="567" x="604" y="542" width="110" height="120"/>
   <object id="182" gid="567" x="524" y="542" width="110" height="120"/>
   <object id="183" gid="567" x="444" y="542" width="110" height="120"/>
   <object id="184" gid="567" x="1324" y="542" width="110" height="120"/>
   <object id="185" gid="567" x="1244" y="542" width="110" height="120"/>
   <object id="186" gid="567" x="1164" y="542" width="110" height="120"/>
   <object id="187" gid="567" x="1084" y="542" width="110" height="120"/>
   <object id="188" gid="567" x="1004" y="542" width="110" height="120"/>
   <object id="189" gid="567" x="924" y="542" width="110" height="120"/>
   <object id="194" gid="567" x="1484" y="542" width="110" height="120"/>
   <object id="195" gid="567" x="1404" y="542" width="110" height="120"/>
  </objectgroup>
  <objectgroup id="30" name="objects_shadows_evening">
   <object id="247" gid="587" x="162" y="236" width="110" height="24"/>
   <object id="248" gid="587" x="100" y="236" width="110" height="24"/>
   <object id="251" gid="587" x="24" y="236" width="110" height="24"/>
   <object id="252" gid="587" x="-38" y="236" width="110" height="24"/>
   <object id="253" gid="579" x="0" y="220" width="380" height="50"/>
   <object id="254" gid="579" x="380" y="214" width="80" height="214"/>
   <object id="255" gid="579" x="760" y="220" width="166" height="220"/>
   <object id="256" gid="579" x="956" y="142" width="64" height="42"/>
   <object id="257" gid="579" x="926" y="218" width="96" height="76"/>
   <object id="258" gid="579" x="960" y="100" width="50" height="100"/>
   <object id="262" gid="579" x="1010" y="100" width="2" height="4"/>
   <object id="263" gid="579" x="1012" y="100" width="2" height="2"/>
   <object id="264" gid="579" x="1476" y="88" width="56" height="88"/>
   <object id="266" gid="579" x="1532" y="212" width="402" height="212"/>
   <object id="268" gid="579" x="2366" y="228" width="274" height="94"/>
   <object id="269" gid="579" x="2368" y="210" width="122" height="90"/>
   <object id="270" gid="596" x="2360" y="227.96" width="80" height="11.96"/>
   <object id="272" gid="579" x="1610" y="480" width="1030" height="58"/>
   <object id="273" gid="579" x="0" y="480" width="1548" height="58"/>
   <object id="274" gid="3221226059" x="1610" y="525.391" width="103.391" height="27.264" rotation="-90"/>
   <object id="275" gid="587" x="2360" y="244" width="110" height="24"/>
   <object id="277" gid="587" x="2436" y="244" width="110" height="24"/>
   <object id="278" gid="587" x="2498" y="244" width="110" height="24"/>
   <object id="279" gid="587" x="2574" y="244" width="110" height="24"/>
   <object id="280" gid="579" x="2382" y="102" width="108" height="102"/>
   <object id="281" gid="579" x="2380" y="106" width="110" height="4"/>
   <object id="282" gid="579" x="2378" y="108" width="112" height="2"/>
   <object id="283" gid="579" x="2376" y="110" width="114" height="2"/>
   <object id="284" gid="579" x="2374" y="112" width="116" height="2"/>
   <object id="285" gid="579" x="2372" y="114" width="118" height="2"/>
   <object id="286" gid="579" x="2370" y="120" width="120" height="6"/>
   <object id="287" gid="579" x="1466" y="142" width="66" height="42"/>
   <object id="288" gid="579" x="1474" y="96" width="58" height="8"/>
   <object id="289" gid="579" x="1472" y="98" width="60" height="2"/>
   <object id="290" gid="579" x="1470" y="100" width="62" height="2"/>
   <object id="291" gid="579" x="1464" y="200" width="68" height="58"/>
  </objectgroup>
  <objectgroup id="37" name="objects_evening_shadow_collision">
   <object id="386" name="eveningshadowfull" x="1532" y="0" width="388" height="212">
    <properties>
     <property name="sunset" type="int" value="1"/>
    </properties>
   </object>
   <object id="387" name="eveningshadowfull" x="1562" y="442" width="278" height="38">
    <properties>
     <property name="sunset" type="int" value="1"/>
    </properties>
   </object>
  </objectgroup>
  <objectgroup id="29" name="objects_shadows_morning" visible="0">
   <object id="57" gid="587" x="442" y="344" width="80" height="24"/>
   <object id="58" gid="587" x="362" y="344" width="80" height="24"/>
   <object id="59" gid="587" x="282" y="344" width="80" height="24"/>
   <object id="60" gid="587" x="202" y="344" width="80" height="24"/>
   <object id="61" gid="587" x="122" y="344" width="80" height="24"/>
   <object id="62" gid="587" x="42" y="344" width="80" height="24"/>
   <object id="63" gid="587" x="-38" y="344" width="80" height="24"/>
   <object id="65" gid="587" x="536" y="313" width="80" height="24" rotation="225"/>
   <object id="66" gid="587" x="430" y="252" width="80" height="24"/>
   <object id="67" gid="587" x="521" y="295" width="80" height="24" rotation="225"/>
   <object id="68" gid="587" x="1097" y="343" width="80" height="24" rotation="225"/>
   <object id="69" gid="587" x="1065" y="313" width="80" height="24" rotation="225"/>
   <object id="70" gid="587" x="1031" y="277" width="80" height="24" rotation="225"/>
   <object id="71" gid="587" x="982" y="256" width="80" height="24"/>
   <object id="72" gid="587" x="998" y="380" width="80" height="24"/>
   <object id="73" gid="587" x="1746" y="380" width="124" height="24"/>
   <object id="74" gid="587" x="1844" y="380" width="80" height="24"/>
   <object id="75" gid="587" x="1918" y="382" width="80" height="24"/>
   <object id="76" gid="587" x="2015" y="343" width="80" height="24" rotation="225"/>
   <object id="77" gid="587" x="1980" y="310" width="80" height="24" rotation="225"/>
   <object id="78" gid="587" x="1947" y="275" width="80" height="24" rotation="225"/>
   <object id="79" gid="587" x="1880" y="250" width="80" height="24"/>
   <object id="100" gid="576" x="1528" y="180" width="80" height="46"/>
   <object id="101" gid="582" x="1586" y="60" width="14" height="40"/>
   <object id="102" gid="582" x="1586" y="20" width="14" height="40"/>
   <object id="103" gid="582" x="1586" y="100" width="14" height="40"/>
   <object id="104" gid="582" x="1586" y="140" width="14" height="40"/>
   <object id="105" gid="576" x="1448" y="180" width="80" height="46"/>
   <object id="106" gid="583" x="1476" y="140" width="18" height="40"/>
   <object id="107" gid="583" x="1476" y="100" width="18" height="40"/>
   <object id="108" gid="583" x="1476" y="60" width="18" height="40"/>
   <object id="109" gid="583" x="1476" y="20" width="18" height="40"/>
   <object id="110" gid="582" x="966" y="160" width="14" height="40"/>
   <object id="111" gid="582" x="966" y="120" width="14" height="40"/>
   <object id="112" gid="582" x="966" y="80" width="14" height="40"/>
   <object id="114" gid="582" x="966" y="40" width="14" height="40"/>
   <object id="115" gid="579" x="980" y="160" width="20" height="160"/>
   <object id="116" gid="583" x="776" y="160" width="18" height="40"/>
   <object id="117" gid="583" x="776" y="120" width="18" height="40"/>
   <object id="118" gid="583" x="776" y="80" width="18" height="40"/>
   <object id="119" gid="583" x="776" y="40" width="18" height="40"/>
   <object id="120" gid="579" x="760" y="160" width="20" height="160"/>
   <object id="121" gid="582" x="426" y="80" width="14" height="40"/>
   <object id="122" gid="582" x="426" y="40" width="14" height="40"/>
   <object id="123" gid="582" x="426" y="120" width="14" height="40"/>
   <object id="124" gid="582" x="426" y="160" width="14" height="40"/>
   <object id="127" gid="576" x="908" y="200" width="80" height="46"/>
   <object id="128" gid="576" x="828" y="200" width="80" height="46"/>
   <object id="129" gid="576" x="758" y="202" width="80" height="46"/>
   <object id="160" gid="579" x="1800" y="140" width="20" height="140"/>
   <object id="161" gid="579" x="1900" y="140" width="20" height="140"/>
   <object id="162" gid="583" x="2396" y="80" width="18" height="40"/>
   <object id="163" gid="583" x="2396" y="40" width="18" height="40"/>
   <object id="164" gid="583" x="2396" y="160" width="18" height="40"/>
   <object id="165" gid="583" x="2396" y="120" width="18" height="40"/>
   <object id="132" gid="576" x="1848" y="180" width="80" height="46"/>
   <object id="133" gid="576" x="1768" y="180" width="80" height="46"/>
   <object id="134" gid="576" x="2448" y="200" width="80" height="46"/>
   <object id="135" gid="576" x="2368" y="200" width="80" height="46"/>
   <object id="136" gid="576" x="2608" y="200" width="80" height="46"/>
   <object id="137" gid="576" x="2528" y="200" width="80" height="46"/>
   <object id="138" gid="576" x="368" y="200" width="80" height="46"/>
   <object id="139" gid="576" x="288" y="200" width="80" height="46"/>
   <object id="140" gid="576" x="208" y="200" width="80" height="46"/>
   <object id="141" gid="576" x="128" y="200" width="80" height="46"/>
   <object id="142" gid="576" x="48" y="200" width="80" height="46"/>
   <object id="143" gid="576" x="-32" y="200" width="80" height="46"/>
   <object id="406" gid="579" x="155" y="585" width="211.835" height="281.843" rotation="-45"/>
  </objectgroup>
  <layer id="24" name="tiles_shadows_evening" width="66" height="12" visible="0">
   <data encoding="csv">
0,0,0,0,0,0,0,0,0,0,0,0,0,0,0,0,0,0,0,0,0,0,0,0,0,0,0,0,0,0,0,0,0,0,0,0,0,0,0,0,0,0,0,0,0,0,0,0,0,0,0,0,0,0,0,0,0,0,0,0,0,0,0,0,0,0,
0,0,0,0,0,0,0,0,0,0,0,0,0,0,0,0,0,0,0,0,0,0,0,0,0,0,0,0,0,0,0,0,0,0,0,0,0,0,0,0,0,0,0,0,0,0,0,0,0,0,0,0,0,0,0,0,0,0,0,0,0,0,0,0,0,0,
0,0,0,0,0,0,0,0,0,0,0,0,0,0,0,0,0,0,0,0,0,0,0,0,0,0,0,0,0,0,0,0,0,0,0,0,0,0,0,0,0,0,0,0,0,0,0,0,0,0,0,0,0,0,0,0,0,0,0,0,0,0,0,0,0,0,
0,0,0,0,0,0,0,0,0,0,0,0,0,0,0,0,0,0,0,0,0,0,0,0,0,0,0,0,0,0,0,0,0,0,0,0,0,0,0,0,0,0,0,0,0,0,0,0,0,0,0,0,0,0,0,0,0,0,0,0,0,0,0,0,0,0,
0,0,0,0,0,0,0,0,0,0,0,0,0,0,0,0,0,0,0,0,0,0,0,0,0,0,0,0,0,0,0,0,0,0,0,0,0,0,0,0,0,0,0,0,0,0,0,0,0,0,0,0,0,0,0,0,0,0,0,0,0,0,0,0,0,0,
0,0,0,0,0,0,0,0,0,0,0,0,0,0,0,0,0,0,0,0,0,0,0,0,0,0,0,0,0,0,0,0,0,0,0,0,0,0,0,0,0,0,0,0,0,0,0,0,0,0,0,0,0,0,0,0,0,0,0,0,0,0,0,0,0,0,
0,0,0,0,0,0,0,0,0,0,0,0,0,0,0,0,0,0,0,0,0,0,0,0,0,0,0,0,0,0,0,0,0,0,0,0,0,0,0,0,0,0,0,0,0,0,0,0,0,0,0,0,0,0,0,0,0,0,0,0,0,0,0,0,0,0,
0,0,0,0,0,0,0,0,0,0,0,0,0,0,0,0,0,0,0,0,0,0,0,0,0,0,0,0,0,0,0,0,0,0,0,0,0,0,0,0,0,0,0,0,0,0,0,0,0,0,0,0,0,0,0,0,0,0,0,0,0,0,0,0,0,0,
0,0,0,0,0,0,0,0,0,0,0,0,0,0,0,0,0,0,0,0,0,0,0,0,0,0,0,0,0,0,0,0,0,0,0,0,0,0,0,0,0,0,0,0,0,0,0,0,0,0,0,0,0,0,0,0,0,0,0,0,0,0,0,0,0,0,
0,0,0,0,0,0,0,0,0,0,0,0,0,0,0,0,0,0,0,0,0,0,0,0,0,0,0,0,0,0,0,0,0,0,0,0,0,0,0,0,0,0,0,0,0,0,0,0,0,0,0,0,0,0,0,0,0,0,0,0,0,0,0,0,0,0,
0,0,0,0,0,0,0,0,0,0,0,0,0,0,0,0,0,0,0,0,0,0,0,0,0,0,0,0,0,0,0,0,0,0,0,0,0,0,0,0,0,0,0,0,0,0,0,0,0,0,0,0,0,0,0,0,0,0,0,0,0,0,0,0,0,0,
0,0,0,0,0,0,0,0,0,0,0,0,0,0,0,0,0,0,0,0,0,0,0,0,0,0,0,0,0,0,0,0,0,0,0,0,0,0,0,0,0,0,0,0,0,0,0,0,0,0,0,0,0,0,0,0,0,0,0,0,0,0,0,0,0,0
</data>
  </layer>
  <layer id="25" name="tiles_shadows_morning" width="66" height="12" visible="0">
   <data encoding="csv">
0,0,0,0,0,0,0,0,0,0,0,496,496,496,496,496,496,496,496,0,0,0,0,0,0,496,496,496,496,496,496,496,496,496,496,496,496,0,0,0,496,496,496,496,496,0,0,0,496,496,496,496,496,496,496,496,496,496,496,496,0,0,0,0,0,0,
0,0,0,0,0,0,0,0,0,0,0,496,496,496,496,496,496,496,496,0,0,0,0,0,0,496,496,496,496,496,496,496,496,496,496,496,496,0,0,0,496,496,496,496,496,0,0,0,496,496,496,496,496,496,496,496,496,496,496,496,0,0,0,0,0,0,
0,0,0,0,0,0,0,0,0,0,0,496,496,496,496,496,496,496,496,0,0,0,0,0,0,496,496,496,496,496,496,496,496,496,496,496,496,0,0,0,496,496,496,496,496,0,0,0,496,496,496,496,496,496,496,496,496,496,496,496,0,0,0,0,0,0,
0,0,0,0,0,0,0,0,0,0,0,496,496,496,496,496,496,496,496,0,0,0,0,0,0,496,496,496,496,496,496,496,496,496,496,496,496,0,0,0,496,496,496,496,496,0,0,0,496,496,496,496,496,496,496,496,496,496,496,496,0,0,0,0,0,0,
496,496,496,496,496,496,496,496,496,496,496,496,496,496,496,496,496,496,496,496,496,496,496,496,496,496,496,496,496,496,496,496,496,496,496,496,496,496,496,496,496,496,496,496,496,496,496,496,496,496,496,496,496,496,496,496,496,496,496,496,0,0,0,0,496,496,
496,496,496,496,496,496,496,496,496,496,496,496,496,496,496,496,496,496,496,496,496,496,496,496,496,496,496,496,496,496,496,496,496,496,496,496,496,496,496,496,496,496,496,496,496,496,496,496,496,496,496,496,496,496,496,496,496,496,496,496,496,496,496,496,496,496,
496,496,496,496,496,496,496,496,496,496,496,499,503,496,496,496,496,496,496,496,496,496,496,496,499,0,503,496,496,496,496,496,496,496,496,496,496,496,496,496,496,496,496,496,496,496,496,499,503,496,496,496,496,496,496,496,496,496,496,496,496,496,496,496,496,496,
496,496,496,496,496,496,496,496,496,496,496,496,499,503,496,496,496,496,496,496,496,496,496,496,496,499,0,503,496,496,496,496,496,496,496,496,496,496,496,496,496,496,496,496,496,496,496,496,499,503,496,496,496,496,496,496,496,496,496,496,496,496,496,496,496,496,
0,0,0,0,0,0,0,0,0,0,0,0,0,0,503,496,496,496,496,496,496,496,496,496,496,496,499,0,503,496,496,496,496,496,496,496,496,496,496,496,496,496,496,496,496,496,496,496,496,499,503,496,496,496,496,496,496,496,496,496,496,496,496,496,496,496,
0,0,0,0,0,0,0,0,0,0,0,0,0,0,0,503,496,496,496,496,496,496,496,496,496,496,499,0,0,503,496,496,496,496,496,496,496,496,496,496,496,496,496,496,496,499,0,0,0,0,0,503,496,496,496,496,496,496,496,496,496,496,496,496,496,496,
0,0,0,0,0,0,0,0,0,0,0,0,0,0,0,0,503,496,496,496,496,496,496,496,496,496,496,499,0,0,503,496,496,496,496,496,496,496,496,496,496,496,496,496,496,496,499,0,0,0,0,0,503,496,496,496,496,496,496,496,496,496,496,496,496,496,
0,0,0,0,0,0,0,0,0,0,0,0,0,0,0,0,0,503,496,496,496,496,496,496,496,496,496,496,499,0,0,503,496,496,496,496,496,496,496,496,496,496,496,496,496,496,496,499,0,0,0,0,0,503,496,496,496,496,496,496,496,496,496,496,496,496
</data>
  </layer>
 </group>
 <objectgroup color="#00aa00" id="22" name="objects_overlay">
  <object id="53" name="hometowndaynight" x="0" y="-20">
   <point/>
  </object>
 </objectgroup>
</map>
