<?xml version="1.0" encoding="UTF-8"?>
<map version="1.11" tiledversion="1.12.1" orientation="orthogonal" renderorder="right-down" width="20" height="32" tilewidth="40" tileheight="40" infinite="0" nextlayerid="24" nextobjectid="158">
 <editorsettings>
  <export target="secret_path.lua" format="lua"/>
 </editorsettings>
 <properties>
  <property name="border" value="leaves"/>
  <property name="light" type="bool" value="true"/>
  <property name="music" value="deltarune/mus_birdnoise"/>
 </properties>
 <tileset firstgid="1" source="../../../tilesets/hometown.tsx"/>
 <tileset firstgid="287" source="../../../tilesets/hometownshadowsobjects.tsx"/>
 <layer id="1" name="Tile Layer 1" width="20" height="32">
  <data encoding="csv">
272,272,272,272,272,272,272,272,265,267,272,272,272,272,272,272,272,272,272,272,
272,272,272,272,272,272,272,272,265,267,272,272,272,272,272,272,272,272,272,272,
272,272,272,272,272,272,272,272,265,267,272,272,272,272,272,272,272,272,272,272,
272,272,272,272,272,272,272,272,265,267,272,272,272,272,272,272,272,272,272,272,
272,272,272,272,272,272,272,272,68,68,272,272,272,272,272,272,272,272,272,272,
272,272,272,272,272,272,272,272,254,256,272,272,272,272,272,272,272,272,272,272,
272,272,272,272,272,272,272,272,265,267,272,272,272,272,272,272,272,272,272,272,
272,272,272,272,272,272,272,272,265,267,272,272,272,272,272,272,272,272,272,272,
272,272,272,272,272,272,272,272,265,267,272,272,272,272,272,272,272,272,272,272,
272,272,272,272,272,272,272,272,265,267,272,272,272,272,272,272,272,272,272,272,
272,272,272,272,272,272,272,272,265,266,255,255,256,272,272,272,272,272,272,272,
272,272,272,272,272,272,272,272,276,277,277,266,267,272,272,272,272,272,272,272,
272,272,272,272,272,272,272,272,272,272,272,265,267,272,272,272,272,272,272,272,
272,272,272,272,272,272,272,272,272,272,272,265,267,272,272,272,272,272,272,272,
272,272,272,272,272,272,272,272,272,272,272,265,267,272,272,272,272,272,272,272,
272,272,272,272,272,272,272,272,272,272,272,265,267,272,272,272,272,272,272,272,
272,272,272,272,272,272,272,272,272,272,272,265,267,272,272,272,272,272,272,272,
272,272,272,272,272,254,255,255,255,255,255,266,267,272,272,272,272,272,272,272,
272,272,272,272,272,265,266,277,247,277,277,277,278,272,272,272,272,272,272,272,
272,272,272,272,272,265,267,48,49,49,49,49,49,272,272,272,272,272,272,272,
272,272,272,272,272,265,267,62,272,272,272,272,272,272,272,272,272,272,272,272,
255,255,255,255,255,266,267,18,272,272,272,272,272,272,272,272,272,272,272,272,
277,248,277,277,277,266,267,59,60,60,272,272,272,272,272,272,272,272,272,272,
272,272,272,272,272,265,267,18,60,60,272,272,272,272,272,272,272,272,272,272,
272,272,272,272,272,265,267,70,71,71,71,71,71,71,71,71,272,272,272,272,
272,272,272,272,272,265,266,255,255,227,226,227,227,227,227,256,272,272,272,272,
272,272,272,272,272,276,277,277,277,277,249,249,248,249,225,267,272,272,272,272,
272,272,272,272,272,272,272,272,272,272,272,272,272,272,265,267,272,272,272,272,
272,272,272,272,272,272,272,272,272,272,272,272,272,272,265,267,272,272,272,272,
272,272,272,272,272,272,272,272,272,272,272,272,272,272,265,267,272,272,272,272,
272,272,272,272,272,272,272,272,272,272,272,272,272,272,265,267,272,272,272,272,
272,272,272,272,272,272,272,272,272,272,272,272,272,272,265,267,272,272,272,272
</data>
 </layer>
 <layer id="2" name="Tile Layer 2" width="20" height="32">
  <data encoding="csv">
0,0,0,0,0,0,0,57,57,43,57,0,0,0,0,0,0,0,0,0,
0,0,0,0,0,0,0,57,57,57,57,0,0,0,0,0,0,0,0,0,
0,0,0,0,0,0,0,57,43,57,57,0,0,0,0,0,0,0,0,0,
0,0,0,0,0,0,0,57,57,57,57,0,0,0,0,0,0,0,0,0,
0,0,0,0,0,0,0,68,68,68,68,0,0,0,0,0,0,0,0,0,
0,0,0,0,0,0,0,0,234,232,0,0,0,0,0,0,0,0,0,0,
0,0,0,0,0,0,0,0,234,232,0,0,0,0,0,0,0,0,0,0,
0,0,0,0,0,0,0,0,234,232,0,0,0,0,0,0,0,0,0,0,
0,0,0,0,0,0,0,0,234,232,0,0,0,0,0,0,0,0,0,0,
0,0,0,0,0,0,0,0,234,243,222,222,222,223,0,0,0,0,0,0,
0,0,0,0,0,0,0,0,234,0,0,0,0,234,0,0,0,0,0,0,
0,0,0,0,0,0,0,0,245,0,0,0,0,234,0,0,0,0,0,0,
0,0,0,0,0,0,0,0,0,0,0,0,0,234,0,0,0,0,0,0,
0,0,0,0,0,0,0,0,0,0,0,0,0,234,0,0,0,0,0,0,
0,0,0,0,0,0,0,0,0,0,0,0,0,234,0,0,0,0,0,0,
0,0,0,0,0,0,0,0,0,0,0,0,0,234,0,0,0,0,0,0,
0,0,0,0,0,222,222,222,222,222,222,0,0,234,0,0,0,0,0,0,
0,0,0,0,0,234,0,0,0,0,0,0,0,234,0,0,0,0,0,0,
0,0,0,0,0,234,221,244,244,244,244,244,244,245,0,0,0,0,0,0,
0,0,0,0,0,234,232,0,0,0,0,0,0,0,0,0,0,0,0,0,
222,222,222,222,222,245,232,0,0,0,0,0,0,0,0,0,0,0,0,0,
0,0,0,0,0,0,232,0,0,0,0,0,0,0,0,0,0,0,0,0,
244,244,244,244,244,0,232,0,0,0,0,0,0,0,0,0,0,0,0,0,
0,0,0,0,0,234,232,0,0,0,0,0,0,0,0,0,0,0,0,0,
0,0,0,0,0,234,232,0,0,0,0,0,0,0,0,0,0,0,0,0,
0,0,0,0,0,234,0,0,0,0,0,0,0,0,0,232,0,0,0,0,
0,0,0,0,0,245,244,244,244,244,244,244,244,244,223,232,0,0,0,0,
0,0,0,0,0,0,0,0,0,0,0,0,0,0,234,232,0,0,0,0,
0,0,0,0,0,0,0,0,0,0,0,0,0,0,234,232,0,0,0,0,
0,0,0,0,0,0,0,0,0,0,0,0,0,0,234,232,0,0,0,0,
0,0,0,0,0,0,0,0,0,0,0,0,0,0,234,232,0,0,0,0,
0,0,0,0,0,0,0,0,0,0,0,0,0,0,234,232,0,0,0,0
</data>
 </layer>
 <layer id="6" name="Tile Layer 5" width="20" height="32">
  <data encoding="csv">
0,0,0,0,0,0,0,0,0,0,0,0,0,0,0,0,0,0,0,0,
0,0,0,0,0,0,0,0,0,0,0,0,0,0,0,0,0,0,0,0,
0,0,0,0,0,0,0,0,0,0,0,0,0,0,0,0,0,0,0,0,
0,0,0,0,0,0,0,0,0,0,0,0,0,0,0,0,0,0,0,0,
0,0,0,0,0,0,0,0,0,0,0,0,0,0,0,0,0,0,0,0,
0,0,0,0,0,0,0,0,0,0,0,0,0,0,0,0,0,0,0,0,
0,0,0,0,0,0,0,0,0,0,0,0,0,0,0,0,0,0,0,0,
0,0,0,0,0,0,0,0,0,0,0,0,0,0,0,0,0,0,0,0,
0,0,0,0,0,0,0,0,0,0,0,161,162,163,0,0,0,0,0,0,
0,0,0,0,0,0,0,0,0,0,0,172,173,174,0,0,0,0,0,0,
0,0,0,0,0,0,0,0,0,0,0,0,0,0,0,0,0,0,0,0,
0,0,0,0,0,0,0,0,0,0,0,0,0,0,0,0,0,0,0,0,
0,0,0,0,0,0,0,0,0,0,0,0,0,0,0,0,0,0,0,0,
0,0,0,0,0,0,0,0,0,0,0,0,0,0,0,0,0,0,0,0,
0,0,0,0,151,152,0,0,0,0,0,0,0,0,0,0,0,0,0,0,
0,0,0,0,160,0,0,0,0,0,0,0,0,0,0,0,0,0,0,0,
0,0,0,0,171,0,0,0,0,0,0,0,0,0,0,0,0,0,0,0,
0,0,0,0,0,0,0,0,0,0,0,0,0,0,0,0,0,0,0,0,
0,0,0,0,0,0,0,0,0,0,0,0,0,0,0,0,0,0,0,0,
0,0,0,0,0,0,0,0,0,0,0,0,0,160,0,0,0,0,0,0,
0,0,0,0,0,0,0,0,0,0,0,0,0,0,0,0,0,0,0,0,
0,0,0,0,0,0,0,0,0,0,0,0,0,0,0,0,0,0,0,0,
0,0,0,0,0,0,0,0,0,0,0,0,0,0,0,0,0,0,0,0,
0,0,0,0,0,0,0,0,0,0,0,0,0,0,0,0,161,162,163,0,
0,0,0,0,0,0,0,0,0,0,0,0,0,0,0,171,172,173,174,0,
0,0,0,0,0,0,0,0,0,0,0,0,0,0,0,0,0,0,0,0,
0,0,0,0,0,0,0,0,0,0,0,0,0,0,0,0,0,0,0,0,
0,0,0,0,0,0,0,0,0,0,0,0,0,0,0,0,0,0,0,0,
0,0,0,0,0,0,0,0,0,0,0,0,0,0,0,0,0,0,0,0,
0,0,0,0,0,0,0,0,0,0,0,0,0,0,0,0,0,0,0,0,
0,0,0,0,0,0,0,0,0,0,0,0,0,0,0,0,0,0,0,0,
0,0,0,0,0,0,0,0,0,0,0,0,0,0,0,0,0,0,0,0
</data>
 </layer>
 <layer id="5" name="Tile Layer 4" width="20" height="32">
  <data encoding="csv">
150,151,150,151,150,151,152,153,0,0,138,150,151,152,150,151,150,151,150,151,
150,151,150,151,150,151,152,153,0,0,149,150,151,152,150,151,150,151,150,151,
150,151,150,151,150,151,152,153,0,0,149,150,151,152,150,151,150,151,150,151,
150,151,150,151,150,151,152,153,0,0,149,150,151,152,150,151,150,151,150,151,
150,151,150,151,150,151,152,153,0,0,149,150,151,152,150,151,150,151,150,151,
150,151,150,151,150,151,152,153,0,0,149,150,151,152,150,151,150,151,150,151,
150,151,150,151,150,151,152,153,0,0,149,150,151,152,150,151,150,151,150,151,
150,151,150,151,150,151,152,153,0,0,149,150,151,152,150,151,150,151,150,151,
150,151,150,151,150,151,152,153,0,0,160,161,162,163,150,151,150,151,150,151,
150,151,150,151,150,151,152,153,0,0,171,172,175,149,150,151,150,151,150,151,
150,151,150,151,150,151,152,153,0,0,0,0,0,149,150,151,150,151,150,151,
150,151,150,151,150,151,152,153,0,0,0,0,0,149,150,151,150,151,150,151,
150,151,150,151,150,151,152,152,140,141,142,0,0,149,150,151,150,151,150,151,
150,151,150,151,150,151,152,152,151,152,153,0,0,149,150,151,150,151,150,151,
151,152,150,151,150,151,152,150,151,152,153,0,0,149,150,151,150,151,150,151,
151,150,151,150,151,161,162,161,162,163,164,0,0,149,150,151,150,151,150,151,
151,150,151,152,153,172,173,172,173,174,175,0,0,149,150,151,150,151,150,151,
151,152,151,152,153,0,0,0,0,0,0,0,0,149,150,151,150,151,150,151,
151,152,151,152,153,0,0,0,0,0,0,0,0,149,150,151,150,151,150,151,
162,163,162,163,164,0,0,138,139,140,139,140,141,139,150,151,150,151,150,151,
173,174,173,174,175,0,0,149,150,151,150,151,150,151,150,151,150,151,150,151,
0,0,0,0,0,0,0,149,150,151,150,151,150,151,150,151,150,151,150,151,
0,0,0,0,0,223,0,149,150,151,150,151,150,151,150,151,152,151,150,151,
151,152,151,152,142,0,0,160,161,162,163,162,161,162,161,162,163,151,152,150,
151,152,151,152,153,0,0,171,172,173,174,173,172,173,174,175,149,151,152,150,
151,152,151,152,153,0,0,0,0,0,0,0,0,0,0,0,149,151,152,150,
151,152,151,152,153,0,0,0,0,0,0,0,0,0,0,0,149,151,152,150,
151,152,151,150,151,150,151,150,151,150,151,152,0,0,0,0,149,151,152,150,
151,152,151,150,151,150,151,150,151,150,151,152,152,153,0,0,93,151,152,150,
151,152,151,150,151,150,151,150,151,150,151,152,152,153,0,0,149,151,152,150,
151,152,151,150,151,150,151,150,151,150,151,152,152,153,0,0,149,151,152,150,
151,152,151,150,151,150,151,150,151,150,151,152,152,153,0,0,149,151,152,150
</data>
 </layer>
 <layer id="3" name="Tile Layer 3" width="20" height="32">
  <data encoding="csv">
0,0,0,0,0,0,0,0,0,0,0,0,0,0,0,0,0,0,0,0,
0,0,0,0,0,0,0,0,0,0,0,0,0,0,0,0,0,0,0,0,
0,0,0,0,0,0,0,0,0,0,0,0,0,0,0,0,0,0,0,0,
0,0,0,0,0,0,0,0,0,0,0,0,0,0,0,0,0,0,0,0,
0,0,0,0,0,0,0,0,0,0,0,0,0,0,0,0,0,0,0,0,
0,0,0,0,0,0,0,0,0,0,0,0,0,0,0,0,0,0,0,0,
0,0,0,0,0,0,0,0,0,0,0,0,0,0,0,0,0,0,0,0,
0,0,0,0,0,0,0,0,0,0,0,0,0,0,0,0,0,0,0,0,
0,0,0,0,0,0,0,0,0,0,0,0,0,0,0,0,0,0,0,0,
0,0,0,0,0,0,0,0,0,0,0,0,0,0,0,0,0,0,0,0,
0,0,0,0,0,0,0,0,0,0,0,0,0,0,0,0,0,0,0,0,
0,0,0,0,0,0,0,0,244,244,244,223,0,0,0,0,0,0,0,0,
0,0,0,0,0,0,0,0,0,0,0,234,0,0,0,0,0,0,0,0,
0,0,0,0,0,0,0,0,0,0,0,234,0,0,0,0,0,0,0,0,
0,0,0,0,0,0,0,0,0,0,0,234,0,0,0,0,0,0,0,0,
0,0,0,0,0,0,0,0,0,0,0,234,0,0,0,0,0,0,0,0,
0,0,0,0,0,0,0,0,0,0,0,234,0,0,0,0,0,0,0,0,
0,0,0,0,0,0,0,0,0,0,0,0,0,0,0,0,0,0,0,0,
0,0,0,0,0,0,0,0,0,0,0,0,0,0,0,0,0,0,0,0,
0,0,0,0,0,0,0,0,0,0,0,0,0,0,0,0,0,0,0,0,
0,0,0,0,0,0,0,0,0,0,0,0,0,0,0,0,0,0,0,0,
0,0,0,0,0,0,0,0,0,0,0,0,0,0,0,0,0,0,0,0,
0,0,0,0,0,0,0,0,0,0,0,0,0,0,0,0,0,0,0,0,
0,0,0,0,0,0,0,0,0,0,0,0,0,0,0,0,0,0,0,0,
0,0,0,0,0,0,0,244,244,244,244,244,244,244,244,244,0,0,0,0,
0,0,0,0,0,0,0,0,0,0,0,0,0,0,0,0,0,0,0,0,
0,0,0,0,0,244,0,0,0,0,0,0,0,0,0,0,0,0,0,0,
0,0,0,0,0,0,0,0,0,0,0,0,0,0,0,0,0,0,0,0,
0,0,0,0,0,0,0,0,0,0,0,0,0,0,0,0,0,0,0,0,
0,0,0,0,0,0,0,0,0,0,0,0,0,0,0,0,0,0,0,0,
0,0,0,0,0,0,0,0,0,0,0,0,0,0,0,0,0,0,0,0,
0,0,0,0,0,0,0,0,0,0,0,0,0,0,0,0,0,0,0,0
</data>
 </layer>
 <objectgroup color="#0000ff" id="7" name="collision">
  <object id="1" x="280" y="0" width="40" height="480"/>
  <object id="2" x="200" y="480" width="240" height="200"/>
  <object id="3" x="0" y="680" width="200" height="160"/>
  <object id="4" x="0" y="920" width="200" height="160"/>
  <object id="5" x="200" y="1080" width="360" height="200"/>
  <object id="6" x="280" y="760" width="360" height="240"/>
  <object id="8" x="640" y="1000" width="40" height="280"/>
  <object id="9" x="400" y="0" width="120" height="400"/>
  <object id="10" x="520" y="400" width="40" height="360"/>
  <object id="18" x="-40" y="840" width="40" height="80"/>
 </objectgroup>
 <objectgroup color="#ff00ff" id="9" name="objects_party">
  <object id="12" name="transition" x="560" y="1260" width="80" height="40">
   <properties>
    <property name="facing" value="down"/>
    <property name="map" value="light/hometown/krisyard"/>
    <property name="marker" value="entry_secret"/>
   </properties>
  </object>
  <object id="13" name="transition" x="320" y="-20" width="80" height="40">
   <properties>
    <property name="facing" value="up"/>
    <property name="map" value="light/hometown/pre_ebott/lookout"/>
    <property name="marker" value="entry_pre_ebott"/>
   </properties>
  </object>
 </objectgroup>
 <objectgroup color="#7f00ff" id="10" name="markers">
  <object id="14" name="entry_up" x="360" y="80">
   <point/>
  </object>
  <object id="15" name="entry_left" x="40" y="880">
   <point/>
  </object>
  <object id="16" name="entry_down" x="600" y="1240">
   <point/>
  </object>
  <object id="17" name="spawn" x="240" y="880">
   <point/>
  </object>
 </objectgroup>
 <layer id="8" name="Tile Layer 6" width="20" height="32">
  <data encoding="csv">
0,0,0,0,0,0,0,0,0,0,0,0,0,0,0,0,0,0,0,0,
0,0,0,0,0,0,0,0,0,0,0,0,0,0,0,0,0,0,0,0,
0,0,0,0,0,0,0,0,0,0,0,0,0,0,0,0,0,0,0,0,
0,0,0,0,0,0,0,0,0,0,0,0,0,0,0,0,0,0,0,0,
0,0,0,0,0,0,0,0,0,0,0,0,0,0,0,0,0,0,0,0,
0,0,0,0,0,0,0,0,0,0,0,0,0,0,0,0,0,0,0,0,
0,0,0,0,0,0,0,0,0,0,0,0,0,0,0,0,0,0,0,0,
0,0,0,0,0,0,0,0,0,0,0,0,0,0,0,0,0,0,0,0,
0,0,0,0,0,0,0,0,0,0,0,0,0,0,0,0,0,0,0,0,
0,0,0,0,0,0,0,0,0,0,0,0,0,0,0,0,0,0,0,0,
0,0,0,0,0,0,0,0,0,0,0,0,0,0,0,0,0,0,0,0,
0,0,0,0,0,0,0,139,140,141,142,0,0,0,0,0,0,0,0,0,
0,0,0,0,0,0,0,150,151,152,153,0,0,0,0,0,0,0,0,0,
0,0,0,0,0,0,0,0,0,0,0,0,0,0,0,0,0,0,0,0,
0,0,0,0,0,0,0,0,0,0,0,0,0,0,0,0,0,0,0,0,
0,0,0,0,0,0,0,0,0,0,0,0,0,0,0,0,0,0,0,0,
0,0,0,0,0,0,0,0,0,0,0,0,0,0,0,0,0,0,0,0,
0,0,0,0,0,0,0,0,0,0,0,0,0,0,0,0,0,0,0,0,
0,0,0,0,0,0,0,0,0,0,0,0,0,0,0,0,0,0,0,0,
0,0,0,0,0,0,0,0,0,0,0,0,0,0,0,0,0,0,0,0,
0,0,0,0,0,0,0,0,0,0,0,0,0,0,0,0,0,0,0,0,
0,0,0,0,0,0,0,0,0,0,0,0,0,0,0,0,0,0,0,0,
140,141,140,141,142,0,0,0,0,0,0,0,0,0,0,0,0,0,0,0,
151,152,151,152,153,0,0,0,0,0,0,0,0,0,0,0,0,0,0,0,
0,0,0,0,0,0,0,0,0,0,0,0,0,0,0,0,0,0,0,0,
0,0,0,0,0,0,0,0,0,0,0,0,0,0,0,0,0,0,0,0,
0,0,0,0,139,140,141,139,140,141,139,140,141,142,0,0,0,0,0,0,
0,0,0,0,0,0,0,0,0,0,150,151,152,153,0,0,0,0,0,0,
0,0,0,0,0,0,0,0,0,0,0,0,0,0,0,0,0,0,0,0,
0,0,0,0,0,0,0,0,0,0,0,0,0,0,0,0,0,0,0,0,
0,0,0,0,0,0,0,0,0,0,0,0,0,0,0,0,0,0,0,0,
0,0,0,0,0,0,0,0,0,0,0,0,0,0,0,0,0,0,0,0
</data>
 </layer>
 <group id="13" name="shadows">
  <objectgroup id="18" name="objects_shadows_evening_cutout" visible="0"/>
  <objectgroup id="19" name="objects_shadows_morning_cutout" visible="0">
   <object id="33" gid="334" x="244" y="562" width="110" height="120"/>
   <object id="34" gid="334" x="324" y="562" width="110" height="120"/>
   <object id="35" gid="334" x="404" y="400" width="110" height="120"/>
   <object id="36" gid="334" x="484" y="400" width="110" height="120"/>
   <object id="37" gid="331" x="520" y="380" width="120" height="40"/>
   <object id="38" gid="331" x="520" y="420" width="120" height="40"/>
   <object id="39" gid="331" x="520" y="460" width="120" height="40"/>
   <object id="40" gid="331" x="520" y="500" width="120" height="40"/>
   <object id="41" gid="331" x="520" y="540" width="120" height="40"/>
   <object id="42" gid="331" x="520" y="580" width="120" height="40"/>
   <object id="43" gid="331" x="520" y="620" width="120" height="40"/>
   <object id="44" gid="331" x="520" y="660" width="120" height="40"/>
   <object id="45" gid="331" x="520" y="700" width="120" height="40"/>
   <object id="46" gid="331" x="520" y="740" width="120" height="40"/>
   <object id="47" gid="331" x="520" y="780" width="120" height="40"/>
   <object id="48" gid="334" x="444" y="882" width="110" height="120"/>
   <object id="49" gid="332" x="522" y="770" width="8" height="6"/>
   <object id="50" gid="334" x="364" y="882" width="110" height="120"/>
   <object id="51" gid="334" x="284" y="882" width="110" height="120"/>
   <object id="52" gid="331" x="280" y="860" width="120" height="40"/>
   <object id="53" gid="331" x="280" y="900" width="120" height="40"/>
   <object id="54" gid="334" x="284" y="1000" width="110" height="120"/>
   <object id="55" gid="331" x="280" y="940" width="120" height="40"/>
   <object id="56" gid="334" x="364" y="1000" width="110" height="120"/>
   <object id="57" gid="334" x="444" y="1000" width="110" height="120"/>
   <object id="58" gid="334" x="524" y="1000" width="110" height="120"/>
   <object id="59" gid="334" x="604" y="1000" width="110" height="120"/>
   <object id="60" gid="331" x="640" y="980" width="120" height="40"/>
   <object id="61" gid="331" x="640" y="1020" width="120" height="40"/>
   <object id="62" gid="331" x="640" y="1060" width="120" height="40"/>
   <object id="63" gid="331" x="640" y="1100" width="120" height="40"/>
   <object id="64" gid="331" x="640" y="1140" width="120" height="40"/>
   <object id="65" gid="331" x="640" y="1180" width="120" height="40"/>
   <object id="66" gid="331" x="640" y="1220" width="120" height="40"/>
   <object id="67" gid="331" x="640" y="1260" width="120" height="40"/>
   <object id="68" gid="331" x="640" y="1300" width="120" height="40"/>
   <object id="74" gid="334" x="84" y="840" width="110" height="120"/>
   <object id="77" gid="334" x="4" y="840" width="110" height="120"/>
   <object id="78" gid="334" x="-76" y="840" width="110" height="120"/>
   <object id="92" gid="334" x="444" y="1162" width="110" height="120"/>
   <object id="96" gid="334" x="364" y="1162" width="110" height="120"/>
   <object id="98" gid="334" x="324" y="1162" width="110" height="120"/>
   <object id="99" gid="334" x="244" y="1162" width="110" height="120"/>
   <object id="100" gid="334" x="204" y="1162" width="110" height="120"/>
   <object id="101" gid="334" x="124" y="1162" width="110" height="120"/>
   <object id="102" gid="323" x="514" y="1148" width="40" height="40"/>
   <object id="103" gid="323" x="154" y="668" width="40" height="40"/>
   <object id="105" gid="334" x="164" y="680" width="110" height="120"/>
   <object id="107" gid="334" x="244" y="680" width="110" height="120"/>
   <object id="108" gid="334" x="324" y="680" width="110" height="120"/>
   <object id="114" gid="331" x="400" y="300" width="120" height="40"/>
   <object id="115" gid="331" x="400" y="340" width="120" height="40"/>
   <object id="116" gid="331" x="400" y="220" width="120" height="40"/>
   <object id="117" gid="331" x="400" y="260" width="120" height="40"/>
   <object id="118" gid="331" x="400" y="140" width="120" height="40"/>
   <object id="119" gid="331" x="400" y="180" width="120" height="40"/>
   <object id="120" gid="331" x="400" y="60" width="120" height="40"/>
   <object id="121" gid="331" x="400" y="100" width="120" height="40"/>
   <object id="123" gid="334" x="404" y="122" width="110" height="120"/>
   <object id="137" gid="334" x="-78" y="1000" width="110" height="120"/>
   <object id="141" gid="334" x="4" y="1002" width="110" height="120"/>
   <object id="142" gid="334" x="84" y="1002" width="110" height="120"/>
   <object id="143" gid="323" x="154" y="988" width="40" height="40"/>
   <object id="144" gid="332" x="520" y="850" width="120" height="72"/>
   <object id="146" gid="332" x="170" y="1180" width="350" height="72"/>
   <object id="147" gid="323" x="514" y="1148" width="40" height="40"/>
   <object id="148" gid="323" x="514" y="1188" width="40" height="40"/>
   <object id="150" gid="332" x="0" y="1020" width="160" height="72"/>
   <object id="153" gid="323" x="154" y="1028" width="40" height="40"/>
   <object id="155" gid="323" x="394" y="548" width="40" height="40"/>
   <object id="156" gid="323" x="394" y="588" width="40" height="40"/>
   <object id="157" gid="332" x="300" y="580" width="110" height="72"/>
   <object id="124" gid="332" x="440" y="20" width="80" height="32"/>
  </objectgroup>
  <objectgroup id="23" name="objects_shadows_evening" visible="0"/>
  <objectgroup id="22" name="objects_shadows_morning" visible="0">
   <object id="21" gid="349" x="306" y="60" width="14" height="40"/>
   <object id="22" gid="349" x="306" y="20" width="14" height="40"/>
   <object id="23" gid="349" x="306" y="140" width="14" height="40"/>
   <object id="24" gid="349" x="306" y="100" width="14" height="40"/>
   <object id="25" gid="349" x="306" y="220" width="14" height="40"/>
   <object id="26" gid="349" x="306" y="180" width="14" height="40"/>
   <object id="27" gid="349" x="306" y="300" width="14" height="40"/>
   <object id="28" gid="349" x="306" y="260" width="14" height="40"/>
   <object id="29" gid="349" x="306" y="380" width="14" height="40"/>
   <object id="30" gid="349" x="306" y="340" width="14" height="40"/>
   <object id="31" gid="349" x="306" y="460" width="14" height="40"/>
   <object id="32" gid="349" x="306" y="420" width="14" height="40"/>
   <object id="69" gid="349" x="186" y="700" width="14" height="40"/>
   <object id="70" gid="349" x="186" y="740" width="14" height="40"/>
   <object id="84" gid="349" x="546" y="1140" width="14" height="40"/>
   <object id="88" gid="349" x="546" y="1180" width="14" height="40"/>
   <object id="89" gid="349" x="546" y="1220" width="14" height="40"/>
   <object id="90" gid="349" x="546" y="1260" width="14" height="40"/>
   <object id="91" gid="349" x="546" y="1300" width="14" height="40"/>
   <object id="109" gid="349" x="426" y="620" width="14" height="40"/>
   <object id="110" gid="349" x="426" y="580" width="14" height="40"/>
   <object id="111" gid="349" x="426" y="540" width="14" height="40"/>
   <object id="112" gid="346" x="420" y="500" width="20" height="20"/>
   <object id="113" gid="346" x="400" y="400" width="140" height="60"/>
   <object id="125" gid="346" x="320" y="460" width="100" height="460"/>
   <object id="126" gid="346" x="400" y="480" width="140" height="80"/>
   <object id="127" gid="346" x="440" y="780" width="100" height="300"/>
   <object id="128" gid="346" x="300" y="780" width="140" height="100"/>
   <object id="130" gid="346" x="200" y="1060" width="100" height="380"/>
   <object id="79" gid="346" x="280" y="1060" width="380" height="120"/>
   <object id="82" gid="346" x="560" y="1280" width="100" height="220"/>
   <object id="86" gid="346" x="540" y="1100" width="20" height="40"/>
   <object id="104" gid="346" x="192" y="680" width="248" height="60"/>
   <object id="76" gid="346" x="0" y="940" width="200" height="160"/>
   <object id="132" gid="349" x="186" y="980" width="14" height="40"/>
   <object id="133" gid="349" x="186" y="1020" width="14" height="40"/>
   <object id="134" gid="349" x="186" y="1060" width="14" height="40"/>
   <object id="75" gid="346" x="170" y="800" width="30" height="60"/>
  </objectgroup>
  <layer id="15" name="tiles_shadows_evening" width="20" height="32" visible="0">
   <data encoding="csv">
0,0,0,0,0,0,0,0,0,0,0,0,0,0,0,0,0,0,0,0,
0,0,0,0,0,0,0,0,0,0,0,0,0,0,0,0,0,0,0,0,
0,0,0,0,0,0,0,0,0,0,0,0,0,0,0,0,0,0,0,0,
0,0,0,0,0,0,0,0,0,0,0,0,0,0,0,0,0,0,0,0,
0,0,0,0,0,0,0,0,0,0,0,0,0,0,0,0,0,0,0,0,
0,0,0,0,0,0,0,0,0,0,0,0,0,0,0,0,0,0,0,0,
0,0,0,0,0,0,0,0,0,0,0,0,0,0,0,0,0,0,0,0,
0,0,0,0,0,0,0,0,0,0,0,0,0,0,0,0,0,0,0,0,
0,0,0,0,0,0,0,0,0,0,0,0,0,0,0,0,0,0,0,0,
0,0,0,0,0,0,0,0,0,0,0,0,0,0,0,0,0,0,0,0,
0,0,0,0,0,0,0,0,0,0,0,0,0,0,0,0,0,0,0,0,
0,0,0,0,0,0,0,0,0,0,0,0,0,0,0,0,0,0,0,0,
0,0,0,0,0,0,0,0,0,0,0,0,0,0,0,0,0,0,0,0,
0,0,0,0,0,0,0,0,0,0,0,0,0,0,0,0,0,0,0,0,
0,0,0,0,0,0,0,0,0,0,0,0,0,0,0,0,0,0,0,0,
0,0,0,0,0,0,0,0,0,0,0,0,0,0,0,0,0,0,0,0,
0,0,0,0,0,0,0,0,0,0,0,0,0,0,0,0,0,0,0,0,
0,0,0,0,0,0,0,0,0,0,0,0,0,0,0,0,0,0,0,0,
0,0,0,0,0,0,0,0,0,0,0,0,0,0,0,0,0,0,0,0,
0,0,0,0,0,0,0,0,0,0,0,0,0,0,0,0,0,0,0,0,
0,0,0,0,0,0,0,0,0,0,0,0,0,0,0,0,0,0,0,0,
0,0,0,0,0,0,0,0,0,0,0,0,0,0,0,0,0,0,0,0,
0,0,0,0,0,0,0,0,0,0,0,0,0,0,0,0,0,0,0,0,
0,0,0,0,0,0,0,0,0,0,0,0,0,0,0,0,0,0,0,0,
0,0,0,0,0,0,0,0,0,0,0,0,0,0,0,0,0,0,0,0,
0,0,0,0,0,0,0,0,0,0,0,0,0,0,0,0,0,0,0,0,
0,0,0,0,0,0,0,0,0,0,0,0,0,0,0,0,0,0,0,0,
0,0,0,0,0,0,0,0,0,0,0,0,0,0,0,0,0,0,0,0,
0,0,0,0,0,0,0,0,0,0,0,0,0,0,0,0,0,0,0,0,
0,0,0,0,0,0,0,0,0,0,0,0,0,0,0,0,0,0,0,0,
0,0,0,0,0,0,0,0,0,0,0,0,0,0,0,0,0,0,0,0,
0,0,0,0,0,0,0,0,0,0,0,0,0,0,0,0,0,0,0,0
</data>
  </layer>
  <layer id="16" name="tiles_shadows_morning" width="20" height="32" visible="0">
   <data encoding="csv">
0,0,0,0,0,0,0,0,0,0,0,0,0,0,0,0,0,0,0,0,
0,0,0,0,0,0,0,0,0,0,0,0,0,0,0,0,0,0,0,0,
0,0,0,0,0,0,0,0,0,0,0,0,0,0,0,0,0,0,0,0,
0,0,0,0,0,0,0,0,0,0,0,0,0,0,0,0,0,0,0,0,
0,0,0,0,0,0,0,0,0,0,0,0,0,0,0,0,0,0,0,0,
0,0,0,0,0,0,0,0,0,0,0,0,0,0,0,0,0,0,0,0,
0,0,0,0,0,0,0,0,0,0,0,0,0,0,0,0,0,0,0,0,
0,0,0,0,0,0,0,0,0,0,0,0,0,0,0,0,0,0,0,0,
0,0,0,0,0,0,0,0,0,0,0,0,0,0,0,0,0,0,0,0,
0,0,0,0,0,0,0,0,0,0,0,0,0,0,0,0,0,0,0,0,
0,0,0,0,0,0,0,0,0,0,0,0,0,0,0,0,0,0,0,0,
0,0,0,0,0,0,0,0,0,0,0,0,0,0,0,0,0,0,0,0,
0,0,0,0,0,0,0,0,0,0,0,0,0,0,0,0,0,0,0,0,
0,0,0,0,0,0,0,0,0,0,0,0,0,0,0,0,0,0,0,0,
0,0,0,0,0,0,0,0,0,0,0,0,0,0,0,0,0,0,0,0,
0,0,0,0,0,0,0,0,0,0,0,0,0,0,0,0,0,0,0,0,
0,0,0,0,0,0,0,0,0,0,0,0,0,0,0,0,0,0,0,0,
0,0,0,0,0,0,0,0,0,0,0,0,0,0,0,0,0,0,0,0,
0,0,0,0,0,0,0,0,0,0,0,0,0,0,0,0,0,0,0,0,
0,0,0,0,0,0,0,0,0,0,0,0,0,0,0,0,0,0,0,0,
0,0,0,0,0,0,0,0,0,0,0,0,0,0,0,0,0,0,0,0,
0,0,0,0,0,0,0,0,0,0,0,0,0,0,0,0,0,0,0,0,
0,0,0,0,0,0,0,0,0,0,0,0,0,0,0,0,0,0,0,0,
0,0,0,0,0,0,0,0,0,0,0,0,0,0,0,0,0,0,0,0,
0,0,0,0,0,0,0,0,0,0,0,0,0,0,0,0,0,0,0,0,
0,0,0,0,0,0,0,0,0,0,0,0,0,0,0,0,0,0,0,0,
0,0,0,0,0,0,0,0,0,0,0,0,0,0,0,0,0,0,0,0,
0,0,0,0,0,0,0,0,0,0,0,0,0,0,0,0,0,0,0,0,
0,0,0,0,0,0,0,0,0,0,0,0,0,0,0,0,0,0,0,0,
0,0,0,0,0,0,0,0,0,0,0,0,0,0,0,0,0,0,0,0,
0,0,0,0,0,0,0,0,0,0,0,0,0,0,0,0,0,0,0,0,
0,0,0,0,0,0,0,0,0,0,0,0,0,0,0,0,0,0,0,0
</data>
  </layer>
 </group>
 <imagelayer id="11" name="overlay" visible="0" parallaxx="0.9" parallaxy="0.9" repeaty="1">
  <image source="../../../../../assets/sprites/world/maps/hometown/graveyardover.png" width="1200" height="480"/>
 </imagelayer>
 <objectgroup color="#00aa00" id="12" name="objects_overlay">
  <object id="20" name="hometowndaynight" x="0" y="0">
   <point/>
  </object>
 </objectgroup>
</map>
